platonics-delft/platonics_dataset/execution_data/data_trial1.csv
current_pos_x,current_pos_y,current_pos_z,current_orientation_w,current_orientation_x,current_orientation_y,current_orientation_z,goal_pos_x,goal_pos_y,goal_pos_z,goal_orientation_w,goal_orientation_x,goal_orientation_y,goal_orientation_z,force_x,force_y,force_z,torque_x,torque_y,torque_z,joint_1,joint_2,joint_3,joint_4,joint_5,joint_6,joint_7
0.4499840682044308,-8.408778020604583e-06,0.2500134544804258,0.00022955431277936884,0.9999974425111415,0.0004562081251847508,0.00020211697762974939,0.44947938576073854,6.504637343567935e-05,0.25076982522577584,0.00269819809608777,1.0000140300173852,0.0028442204202237154,-0.002168920245776777,0.1817551973399394,0.00017186971125463988,-1.395703970471867,0.023217752026782598,-0.020009010603299297,-0.17641986083798666,-0.04995989451126028,-0.18531974551656205,0.049972482045271036,-2.497069215088623,0.011862382259660784,2.3123499565852392,0.775637499708843
0.4499861798872143,-7.760688062548407e-06,0.2500149655971737,0.00022829318044092342,0.9999974433809866,0.00045321000108935875,0.00020595036942948756,0.44947938576073854,6.504637343567935e-05,0.25076982522577584,0.00269819809608777,1.0000140300173852,0.0028442204202237154,-0.002168920245776777,0.1709265659957769,-0.060781125887697636,-1.4047990159687127,0.028079319016640524,-0.02007150158595558,-0.18035759637775753,-0.04996239421854464,-0.1853226200109506,0.04997021575298206,-2.4970718843770396,0.011860475600993261,2.3123482293978026,0.7756344861923127
0.4499818147287915,-8.719129017205459e-06,0.25001193250906206,0.00022930088097197445,0.9999974440790239,0.00045346607659593557,0.00020081381217996178,0.44947938576073854,6.504637343567935e-05,0.25076982522577584,0.00269819809608777,1.0000140300173852,0.0028442204202237154,-0.002168920245776777,0.214399042181979,-0.03195107378327057,-1.4147645389027406,0.03360580305716023,-0.014211018067952389,-0.16914272967894298,-0.04996459850451448,-0.1853172515648537,0.04997272129850777,-2.4970646389074664,0.01186414492761615,2.3123485430895787,0.7756362793650632
0.44998608014918506,-8.423443825345342e-06,0.2500151619717718,0.00022867154057916764,0.9999974435591217,0.00045289251417967165,0.00020536325203179498,0.44947938576073854,6.504637343567935e-05,0.25076982522577584,0.00269819809608777,1.0000140300173852,0.0028442204202237154,-0.002168920245776777,0.1896651318312157,-0.03616396631435428,-1.4674374227844116,0.034187383196304245,-0.014271415884371424,-0.16854068570673922,-0.04996045433282943,-0.18531724278028985,0.04997058177171834,-2.4970716837972855,0.01186161539091508,2.3123460711845607,0.7756365271798197
0.44998533759455533,-7.123689089813243e-06,0.2500144846193166,0.0002283371818740751,0.9999974426517818,0.0004552086429939362,0.00020503232931022176,0.44947938576073854,6.504637343567935e-05,0.25076982522577584,0.00269819809608777,1.0000140300173852,0.0028442204202237154,-0.002168920245776777,0.15524261716429813,-0.05051301756928235,-1.413153289979326,0.03753244619862777,-0.021898230777922873,-0.16563392256745418,-0.04996307481188058,-0.18531740944295583,0.049972721406765085,-2.497069214926872,0.01186305274628307,2.3123486995704696,0.7756348569058776
0.44998353318624584,-9.738716542938477e-06,0.25001284282459374,0.00022791720981994991,0.99999744435451,0.0004528727741079363,0.00020235017131545267,0.44947938576073854,6.504637343567935e-05,0.25076982522577584,0.00269819809608777,1.0000140300173852,0.0028442204202237154,-0.002168920245776777,0.18808383840254922,-0.05778937227417982,-1.4482154688308513,0.03223922332512356,-0.01515993236595538,-0.17425540757303873,-0.04995988596873954,-0.18532285733019022,0.04997272137067875,-2.4970701999070006,0.011859371156184746,2.3123457034166965,0.775634232807175
0.44998473646615345,-8.281539309385317e-06,0.2500148188810436,0.0002279492913671837,0.9999974429072847,0.00045485942074664125,0.00020499282501233357,0.44947938576073854,6.504637343567935e-05,0.25076982522577584,0.00269819809608777,1.0000140300173852,0.0028442204202237154,-0.002168920245776777,0.15508421148501828,-0.01675129937855661,-1.3929022869316299,0.029267193743833717,-0.023518369068325513,-0.1712217629682284,-0.049964895814691906,-0.1853219838837538,0.049970215862505225,-2.497066713378776,0.011863055776943873,2.312345115073089,0.7756379206801208
0.44998296711566704,-1.073217733693181e-05,0.25001238384340346,0.0002290182808492844,0.9999974442348287,0.00045329633223993305,0.0002007436623802006,0.44947938576073854,6.504637343567935e-05,0.25076982522577584,0.00269819809608777,1.0000140300173852,0.0028442204202237154,-0.002168920245776777,0.17317468424914984,-0.041158165360980645,-1.3733676159169381,0.0364875205909126,-0.024212008099520635,-0.16711948476688973,-0.04996557949142777,-0.18532263316337977,0.049967194894242555,-2.4970707211430985,0.01186536981736269,2.3123468709758583,0.7756391614816878
0.449982834292087,-1.1100535502128821e-05,0.250012516082872,0.00022694073486917218,0.9999974457998269,0.00045081534736687135,0.00020089401129848433,0.44947938576073854,6.504637343567935e-05,0.25076982522577584,0.00269819809608777,1.0000140300173852,0.0028442204202237154,-0.002168920245776777,0.1612015966654981,-0.027817641498633798,-1.394262604527948,0.03435215183745811,-0.02562990974050755,-0.168185697794557,-0.04996557949142777,-0.18532263316337977,0.049967194894242555,-2.4970707211430985,0.01186536981736269,2.3123468709758583,0.7756391614816878
0.44998363367207744,-1.0363649302209195e-05,0.2500137838116973,0.00022778714405604516,0.9999974439907392,0.00045319067720141616,0.000203578882162087,0.44947938576073854,6.504637343567935e-05,0.25076982522577584,0.00269819809608777,1.0000140300173852,0.0028442204202237154,-0.002168920245776777,0.17261523876994694,-0.03503366342496334,-1.4392146316464505,0.03458263456301988,-0.019385321516262807,-0.16712948089563945,-0.04996204906725783,-0.18531764684365454,0.04997021542820401,-2.497070241015821,0.011862974496118776,2.3123457034164003,0.7756355690551353
0.4499847137187533,-9.658673188417448e-06,0.25001590802011425,0.00022971674735702198,0.9999974415895322,0.000456561411846251,0.00020566335141110846,0.44947938576073854,6.504637343567935e-05,0.25076982522577584,0.00269819809608777,1.0000140300173852,0.0028442204202237154,-0.002168920245776777,0.13964274508558866,-0.0711931292028417,-1.4027510542818509,0.03430363905834417,-0.024942855492604284,-0.17412885912094164,-0.049958171241969725,-0.18532303677483597,0.049975227024455934,-2.4970692122128515,0.011862742072586375,2.3123460248144783,0.7756405949981715
0.449986526431935,-8.386327598239862e-06,0.2500196438391453,0.00022958281626292987,0.9999974410839512,0.00045550556227258725,0.00021055426496719337,0.44947938576073854,6.504637343567935e-05,0.25076982522577584,0.00269819809608777,1.0000140300173852,0.0028442204202237154,-0.002168920245776777,0.18606071132664823,-0.05818275414180962,-1.416418348059319,0.03452385865968374,-0.01579313545540673,-0.17285117146705944,-0.049962155709970445,-0.18532614678015152,0.04998045481896401,-2.497069673486626,0.011864162259086231,2.3123484603966733,0.7756375338194964
0.4499823339162779,-5.006141870778844e-06,0.25001381004221995,0.00022823013806260015,0.9999974431066138,0.00045537451310287907,0.000202549815234292,0.44947938576073854,6.504637343567935e-05,0.25076982522577584,0.00269819809608777,1.0000140300173852,0.0028442204202237154,-0.002168920245776777,0.2009264233983625,-0.021143067660131885,-1.3545428808842124,0.035050205215743584,-0.020076116854303935,-0.17056275771103216,-0.049959886767594094,-0.18532919494825986,0.04997522706054804,-2.49706360481561,0.01186609526224412,2.3123481159322905,0.7756321855379693
0.44998318550979244,-7.081549874854353e-06,0.25001409136529457,0.00022805568878712145,0.9999974426603853,0.00045639707503368563,0.00020264780781895013,0.44947938576073854,6.504637343567935e-05,0.25076982522577584,0.00269819809608777,1.0000140300173852,0.0028442204202237154,-0.002168920245776777,0.16858896013746494,-0.019980405817662535,-1.4240877320854495,0.028733921411017594,-0.01922474954889201,-0.1721853305527978,-0.04996493589204768,-0.18532609603545439,0.049972721406765154,-2.497074625142844,0.011862742162555426,2.3123484160900114,0.7756333076728896
0.4499843225918388,-1.0625026615820368e-05,0.2500160098929546,0.00022948862713927665,0.9999974434512104,0.0004528579892670652,0.00020505316885558047,0.44947938576073854,6.504637343567935e-05,0.25076982522577584,0.00269819809608777,1.0000140300173852,0.0028442204202237154,-0.002168920245776777,0.16284809964331193,-0.02655017048195673,-1.398124355727078,0.030562877058686842,-0.021405879019561695,-0.1716486525605034,-0.04995840806466322,-0.1853299707766626,0.04997271837550785,-2.497066787606293,0.011865343714363548,2.312346517272319,0.7756351998477685
0.44998450300672943,-1.0366079216666469e-05,0.2500165725416046,0.00022851087714442707,0.999997443538499,0.0004529760530626693,0.0002054582378431205,0.44947938576073854,6.504637343567935e-05,0.25076982522577584,0.00269819809608777,1.0000140300173852,0.0028442204202237154,-0.002168920245776777,0.16009755799170267,-0.028445040288571775,-1.406688471286881,0.025484030665009896,-0.02194208159913118,-0.17774671221514185,-0.0499605964027233,-0.18532901153347892,0.04996743169322898,-2.4970702740443023,0.011863414767486698,2.3123453502036657,0.7756388591102484
0.44998459654743894,-9.756441267317753e-06,0.2500166179662392,0.00022840497274193272,0.999997444854699,0.0004500847473943913,0.00020552401564302036,0.44947938576073854,6.504637343567935e-05,0.25076982522577584,0.00269819809608777,1.0000140300173852,0.0028442204202237154,-0.002168920245776777,0.15890884192089588,-0.024339648030678396,-1.4261191531669677,0.028845858909631792,-0.020366806257936045,-0.16422638424223643,-0.04996768198509736,-0.18532718119468958,0.04997295789371227,-2.4970742303442237,0.011863960934738137,2.3123440583443804,0.7756360981107214
0.44998262188957316,-7.376308070244269e-06,0.25001580323754324,0.00022871715921977953,0.9999974429930548,0.0004546678878440624,0.00020414226429847407,0.44947938576073854,6.504637343567935e-05,0.25076982522577584,0.00269819809608777,1.0000140300173852,0.0028442204202237154,-0.002168920245776777,0.15624850432871654,-0.06329551828798649,-1.4035375394854475,0.04454765685116864,-0.02178613167125467,-0.15360504204665842,-0.04996652800281124,-0.1853321104518994,0.049970189433946835,-2.4970694627730556,0.011862840053933094,2.3123433433604568,0.7756345053951902
0.44998397092098846,-1.3047851033632368e-05,0.25001610522010076,0.00022847221614921034,0.999997446040271,0.00044792409126248774,0.00020439804015067185,0.44947938576073854,6.504637343567935e-05,0.25076982522577584,0.00269819809608777,1.0000140300173852,0.0028442204202237154,-0.002168920245776777,0.1372690853958877,-0.019794681576255534,-1.3967511468129357,0.033727095181702964,-0.0243866373868124,-0.16246011515487768,-0.049965666689623864,-0.18532692664966247,0.049972721080650366,-2.497063948766351,0.011864772671526488,2.3123440161851447,0.7756362829208071
0.449984970098041,-1.0890409137519534e-05,0.25001790652418976,0.00022813155838484524,0.9999974446256331,0.0004499433454813359,0.00020724464207412844,0.44947938576073854,6.504637343567935e-05,0.25076982522577584,0.00269819809608777,1.0000140300173852,0.0028442204202237154,-0.002168920245776777,0.15092225959705496,-0.021116211533760275,-1.406378464311284,0.0399329449391665,-0.02263992564505368,-0.15839291057896798,-0.04996524809755853,-0.1853311879991162,0.04997522706055353,-2.4970700293696177,0.011864216546624857,2.3123446394168776,0.7756394472583118
0.4499854851646484,-1.1300569147043791e-05,0.2500189837099695,0.00022813554846032677,0.9999974437398803,0.0004518163209062425,0.0002074392446518597,0.44947938576073854,6.504637343567935e-05,0.25076982522577584,0.00269819809608777,1.0000140300173852,0.0028442204202237154,-0.002168920245776777,0.153570605502628,-0.039519089278431695,-1.4012585034839193,0.042524186956249904,-0.026201470947481934,-0.15602195725262935,-0.049966274515807915,-0.18532700538666846,0.04997021571684085,-2.497071998080888,0.01186230584766355,2.3123409984615733,0.7756322444545154
0.4499823283399158,-1.1024540824058693e-05,0.2500133673499643,0.00022859172364152422,0.9999974441315929,0.0004536295941737067,0.00020099114564667314,0.44947938576073854,6.504637343567935e-05,0.25076982522577584,0.00269819809608777,1.0000140300173852,0.0028442204202237154,-0.002168920245776777,0.15433949656072388,-0.05177912894845999,-1.4177917306916066,0.040403596689624156,-0.024991681976993987,-0.1623900521049481,-0.04996843521994969,-0.18533234557244185,0.049975227060549875,-2.4970684578849447,0.011860636183190672,2.3123449893768853,0.7756383367910019
0.44998424654195085,-8.558488459580546e-06,0.25001730379982207,0.00022780966305464034,0.9999974448156552,0.00045033329011000424,0.00020583003643357225,0.44947938576073854,6.504637343567935e-05,0.25076982522577584,0.00269819809608777,1.0000140300173852,0.0028442204202237154,-0.002168920245776777,0.19157086885634678,-0.03172430564889631,-1.3989399498049655,0.03983520476743094,-0.0202887740901716,-0.15550482073801883,-0.04996627353078546,-0.1853300761296745,0.049970590540713615,-2.497072034653785,0.011864161974535941,2.3123394538233777,0.7756335901228179
0.44998286294555034,-1.0044890422922092e-05,0.2500159648860983,0.00022853149907889868,0.9999974453372367,0.00044966724162327906,0.00020394334258697503,0.44947938576073854,6.504637343567935e-05,0.25076982522577584,0.00269819809608777,1.0000140300173852,0.0028442204202237154,-0.002168920245776777,0.16805005331013562,-0.02613216914735763,-1.423418894915221,0.02636311804180702,-0.021576330309365843,-0.1736824217649538,-0.049965583871327435,-0.18533457847720655,0.049973430975739475,-2.497071696686776,0.011860220558628341,2.31234026729898,0.7756344965155425
0.44998193679281606,-9.859416289416086e-06,0.2500151350572488,0.0002284516669209483,0.999997444391828,0.00045256298768443277,0.0002022561228128242,0.44947938576073854,6.504637343567935e-05,0.25076982522577584,0.00269819809608777,1.0000140300173852,0.0028442204202237154,-0.002168920245776777,0.1641986397174545,-0.02570261135732737,-1.4141364912409924,0.027016963800418313,-0.022409833304423463,-0.17059407208480334,-0.04995876623554114,-0.18533245269485957,0.04996808488693154,-2.4970715226000593,0.01186355147529169,2.3123404839942148,0.7756308075322014
0.4499845317262067,-1.3124148573021816e-05,0.25001733005260107,0.00022802807414165453,0.9999974448692951,0.00044989143548457544,0.00020629332196031545,0.44947938576073854,6.504637343567935e-05,0.25076982522577584,0.00269819809608777,1.0000140300173852,0.0028442204202237154,-0.002168920245776777,0.16862622701956248,-0.031268454967166015,-1.411203958593887,0.035885833497620256,-0.02123016894292267,-0.16453821066057242,-0.04997119672099044,-0.18533225135920992,0.049970215752976756,-2.497072365430754,0.01186416248232126,2.31234495206755,0.7756339731768903
0.4499843873335601,-1.1319355236232934e-05,0.25001651722936136,0.0002297574838280477,0.9999974444282608,0.00045055904727442294,0.00020505157413766153,0.44947938576073854,6.504637343567935e-05,0.25076982522577584,0.00269819809608777,1.0000140300173852,0.0028442204202237154,-0.002168920245776777,0.16497658049567213,-0.03250271919288866,-1.411940042655612,0.04180217774175733,-0.022132416644936554,-0.1594604548761275,-0.04996627451714655,-0.18532787538190834,0.04997272140631957,-2.4970695541437156,0.011864044105829887,2.3123408241884253,0.7756363641199661
0.4499806947208835,-1.3163007731380571e-05,0.2500139709611449,0.00022791954094555111,0.9999974470272566,0.0004474664966944785,0.000201163010647941,0.44947938576073854,6.504637343567935e-05,0.25076982522577584,0.00269819809608777,1.0000140300173852,0.0028442204202237154,-0.002168920245776777,0.1781226232488929,-0.036611744331016174,-1.4185366568948448,0.039542369720500486,-0.019121496290730792,-0.15952383279066384,-0.04996905587303736,-0.18532763949892944,0.049975217966774316,-2.4970699194395367,0.011864772777536172,2.312346033111566,0.7756339100718941
0.44998339723132474,-1.1317559600399937e-05,0.25001712811205745,0.00022876575414474635,0.9999974445828297,0.00045030201264112434,0.0002059691624709594,0.44947938576073854,6.504637343567935e-05,0.25076982522577584,0.00269819809608777,1.0000140300173852,0.0028442204202237154,-0.002168920245776777,0.16917049745615798,-0.02708457607252498,-1.4163578333499502,0.029954507032717393,-0.020872752346473553,-0.16846891330110245,-0.04996616001377822,-0.18532976132581608,0.04997272140676488,-2.497070067067269,0.01186339430122474,2.3123434077506535,0.7756329196247755
0.44998486182366987,-9.829094947540106e-06,0.25002103605248527,0.0002284502853028095,0.9999974424677889,0.00045344570147496093,0.00020965802821231306,0.44947938576073854,6.504637343567935e-05,0.25076982522577584,0.00269819809608777,1.0000140300173852,0.0028442204202237154,-0.002168920245776777,0.1466624255702072,-0.003168790550732442,-1.4026504310828694,0.023926117615511836,-0.024543692325496774,-0.1740051772035061,-0.04996796075591539,-0.18533049492697992,0.04997093397259936,-2.497069185383979,0.011863687100227404,2.312341446067952,0.7756402969446409
0.44998402158418416,-1.1283163753626419e-05,0.2500185274202078,0.0002296579714886195,0.9999974438409092,0.000451035642073905,0.00020697069476196235,0.44947938576073854,6.504637343567935e-05,0.25076982522577584,0.00269819809608777,1.0000140300173852,0.0028442204202237154,-0.002168920245776777,0.16561174111285762,-0.012966636182765017,-1.4424607269703245,0.030498748026268598,-0.01588613738267841,-0.1686780810845908,-0.04996376886336335,-0.18533532506905523,0.04997521829155195,-2.49706778017331,0.011860356452489708,2.3123444674093854,0.7756326018131345
0.4499856544797834,-1.0915275713303205e-05,0.2500219669278591,0.00022958255815055687,0.9999974425065221,0.0004519579122859052,0.0002114413883995232,0.44947938576073854,6.504637343567935e-05,0.25076982522577584,0.00269819809608777,1.0000140300173852,0.0028442204202237154,-0.002168920245776777,0.18486817735977754,-0.02969080528778064,-1.4397704694471036,0.03521649056714492,-0.015392653946417862,-0.16440087124185251,-0.04996456592442534,-0.18533273504072847,0.049972721406765154,-2.4970659149419046,0.011863552130749595,2.3123417664757113,0.7756345451118353
0.4499828920983697,-1.0902155706989176e-05,0.25001690525415443,0.00022811101978357056,0.9999974439016507,0.00045219878056772516,0.00020584688581192157,0.44947938576073854,6.504637343567935e-05,0.25076982522577584,0.00269819809608777,1.0000140300173852,0.0028442204202237154,-0.002168920245776777,0.16423312149966618,-0.03218272992829567,-1.4000860327835625,0.037773159292029325,-0.024044545179534353,-0.16067213757729476,-0.04996878061910306,-0.185333304455165,0.04997021575253675,-2.4970691254462625,0.011864201879039719,2.3123441760779264,0.7756377057771896
0.44998270264475404,-1.1263482249075151e-05,0.2500173929427003,0.00022856838101080468,0.9999974449470797,0.00045018369536337105,0.0002046743919983485,0.44947938576073854,6.504637343567935e-05,0.25076982522577584,0.00269819809608777,1.0000140300173852,0.0028442204202237154,-0.002168920245776777,0.15151617550655377,0.0011587553234263849,-1.4080781968105756,0.03025118692500034,-0.026152424800509232,-0.1682389904256015,-0.04996878016988436,-0.18533859406017844,0.049970590540714434,-2.497074586956934,0.01186283989147867,2.3123422204492137,0.7756399420339685
0.44998190220102047,-1.1878620327571232e-05,0.25001666063655853,0.00022836993694953594,0.9999974459435157,0.000448303972125299,0.00020415271953860484,0.44947938576073854,6.504637343567935e-05,0.25076982522577584,0.00269819809608777,1.0000140300173852,0.0028442204202237154,-0.002168920245776777,0.16370536892019533,-0.03845539860048591,-1.3914086191699222,0.03133035958969781,-0.028644974601205766,-0.1694742632139717,-0.04996627455385086,-0.18533570501775315,0.04997013683201742,-2.4970678076296107,0.01185962976091071,2.312344929916801,0.7756358047835257
0.44998589562981894,-1.4401441138318142e-05,0.2500226404102219,0.00022849292692842847,0.9999974443608153,0.0004486136206503916,0.00021097347071834268,0.44947938576073854,6.504637343567935e-05,0.25076982522577584,0.00269819809608777,1.0000140300173852,0.0028442204202237154,-0.002168920245776777,0.12603935303266803,-0.06534461279371144,-1.4167829191031767,0.040424968930712075,-0.0311510916905238,-0.16012677045733356,-0.049968780181973024,-0.1853333014126873,0.04997499040578594,-2.497072466299237,0.011863552617856203,2.312340229266721,0.77564052565723
0.4499816976369205,-1.114511567824711e-05,0.2500164499546673,0.00022854117626082464,0.9999974459395494,0.0004487469972449929,0.00020300395602946406,0.44947938576073854,6.504637343567935e-05,0.25076982522577584,0.00269819809608777,1.0000140300173852,0.0028442204202237154,-0.002168920245776777,0.16579736961057345,-0.04616360815893255,-1.4005309708692104,0.042556579355979104,-0.02495404348574624,-0.15631723373065218,-0.049968028103866274,-0.18533508954219258,0.0499673483924403,-2.497069054049082,0.011862434301605723,2.312340948127435,0.7756333830758294
0.44998551379437735,-1.3816009334232732e-05,0.25002140251669736,0.00022902248045019534,0.9999974449165764,0.00044788074985369753,0.00020931561078519172,0.44947938576073854,6.504637343567935e-05,0.25076982522577584,0.00269819809608777,1.0000140300173852,0.0028442204202237154,-0.002168920245776777,0.1610631641625304,-0.008657183860423679,-1.4233620790375356,0.031901717949195676,-0.020180959308449174,-0.1627729936231391,-0.04997155087692082,-0.18533330423864658,0.04997273016554096,-2.4970691357374704,0.011863097202134631,2.3123387101896538,0.7756329030118245
0.4499826728519161,-1.33788319340448e-05,0.250016706373745,0.0002284765757042313,0.9999974464449112,0.0004475952419660801,0.0002031299603109571,0.44947938576073854,6.504637343567935e-05,0.25076982522577584,0.00269819809608777,1.0000140300173852,0.0028442204202237154,-0.002168920245776777,0.16139658758358,-0.06093750745432016,-1.4208640722026378,0.04396667703243823,-0.02083900786775605,-0.15636215056306701,-0.04997292203510187,-0.1853333277987784,0.04997272129850594,-2.497072539177283,0.01186355213073371,2.3123410529441153,0.7756391342976731
0.4499848648783267,-1.108594917394433e-05,0.2500197427622873,0.00022920335118935462,0.9999974435436779,0.0004517231106415765,0.0002074109832263998,0.44947938576073854,6.504637343567935e-05,0.25076982522577584,0.00269819809608777,1.0000140300173852,0.0028442204202237154,-0.002168920245776777,0.16446539805413804,-0.09289896020013069,-1.411289691267848,0.03900417077726926,-0.02211805269304181,-0.17086469731208148,-0.04997200939769576,-0.18533581099445562,0.04997273016554124,-2.497071766760651,0.011859878614151765,2.312341406326269,0.7756383395305132
0.44998548146916667,-1.1395881776337333e-05,0.2500228928440975,0.00022943366424146828,0.9999974437008832,0.00044991648152522423,0.00021030504551230588,0.44947938576073854,6.504637343567935e-05,0.25076982522577584,0.00269819809608777,1.0000140300173852,0.0028442204202237154,-0.002168920245776777,0.1476147937428494,-0.023797444124346125,-1.406549173566282,0.027848678377016108,-0.025897328692092728,-0.17091366936231517,-0.04996475321460362,-0.1853334099645918,0.049970224523790026,-2.497069471709177,0.011863991519370651,2.312340587187634,0.7756354873631119
0.4499840004183524,-1.1189784446825039e-05,0.2500199296966972,0.0002283116418678218,0.9999974437008982,0.00045189276758196263,0.00020726683578745062,0.44947938576073854,6.504637343567935e-05,0.25076982522577584,0.00269819809608777,1.0000140300173852,0.0028442204202237154,-0.002168920245776777,0.16617150930302477,-0.01841217350520896,-1.4034328135932834,0.024779338068923833,-0.022126575446300683,-0.17263949204358398,-0.04996946705483915,-0.1853334099289009,0.049972747683092615,-2.4970669931922087,0.011863806901780578,2.312341295688766,0.7756334141814297
0.4499841705649182,-1.2542509570998654e-05,0.2500197641324304,0.0002286570088788271,0.9999974439533216,0.00045105080332618805,0.00020750210448223117,0.44947938576073854,6.504637343567935e-05,0.25076982522577584,0.00269819809608777,1.0000140300173852,0.0028442204202237154,-0.002168920245776777,0.15818767130391512,-0.000992982283756833,-1.4054851284230396,0.025533128532078467,-0.024432207566425463,-0.17019863842510669,-0.049969028659606556,-0.18533660077411387,0.04997272174853545,-2.4970702866910015,0.011861537053344006,2.3123394091666505,0.7756412193072659
0.44998503268189366,-1.5437901664553898e-05,0.2500207730363596,0.00022986198449831887,0.9999974441381901,0.0004491055988076219,0.00020948957000323278,0.44947938576073854,6.504637343567935e-05,0.25076982522577584,0.00269819809608777,1.0000140300173852,0.0028442204202237154,-0.002168920245776777,0.15518077958913493,-0.012316623265559936,-1.4056972992011416,0.037331113985621674,-0.024963651290388644,-0.15593495039060556,-0.049972667099093544,-0.18534083840488022,0.049972458296637774,-2.497069013025731,0.011864772292689965,2.3123402753017857,0.7756385634793733
0.44998269851230605,-1.2397539298545158e-05,0.2500187349227345,0.00022795297993903222,0.9999974446478082,0.00045062127974314955,0.0002058565326172289,0.44947938576073854,6.504637343567935e-05,0.25076982522577584,0.00269819809608777,1.0000140300173852,0.0028442204202237154,-0.002168920245776777,0.16387577952913623,-0.060039227450555274,-1.3816818593040612,0.04198991176858263,-0.02533082257523315,-0.15942576154521948,-0.04997016146151643,-0.1853387114149374,0.049974849789123706,-2.4970721788616927,0.011864162464281552,2.3123402622167593,0.7756359227509202
0.449982955475995,-1.4127021322894272e-05,0.25001934079138094,0.00022912572368816614,0.9999974437822242,0.0004519071891125565,0.00020594043741027588,0.44947938576073854,6.504637343567935e-05,0.25076982522577584,0.00269819809608777,1.0000140300173852,0.0028442204202237154,-0.002168920245776777,0.1300157085016337,-0.08349207674888727,-1.4319943941677806,0.04022055105906292,-0.028521852066327773,-0.15655545111598537,-0.049972640330257855,-0.18533580967835162,0.04996669509755163,-2.4970774001357974,0.01186157715494382,2.3123402229679955,0.7756327560684242
0.44998184320096635,-1.3522053881501646e-05,0.25001758847840894,0.00022843251660291478,0.9999974465777354,0.0004467446170292688,0.00020439426480764074,0.44947938576073854,6.504637343567935e-05,0.25076982522577584,0.00269819809608777,1.0000140300173852,0.0028442204202237154,-0.002168920245776777,0.15843235013829482,-0.0490194384453536,-1.4115280198503366,0.04266673946086839,-0.0259250407084849,-0.15253803745068484,-0.049974715598873065,-0.18533330434665343,0.0499723441355061,-2.497070044372632,0.011864772833875499,2.312340934554316,0.7756320073706409
0.44998340272723136,-1.2425733400915413e-05,0.25002117075312164,0.00022857915191304358,0.9999974439268167,0.00045052389948895357,0.0002088558779227773,0.44947938576073854,6.504637343567935e-05,0.25076982522577584,0.00269819809608777,1.0000140300173852,0.0028442204202237154,-0.002168920245776777,0.1628835654563992,-0.03831779018954327,-1.441189297306559,0.033886321971798215,-0.022034926112074263,-0.16754300267206865,-0.049972802373669904,-0.18533330471242784,0.049970215608631144,-2.4970770936258986,0.011864162481652818,2.3123402229620136,0.7756350418180828
0.4499841441141699,-1.3256309011001218e-05,0.2500213867571878,0.0002285489276511187,0.9999974446662074,0.0004490345945386728,0.00020855584298052284,0.44947938576073854,6.504637343567935e-05,0.25076982522577584,0.00269819809608777,1.0000140300173852,0.0028442204202237154,-0.002168920245776777,0.1353630177759617,-0.033959501375312895,-1.3912748821464418,0.03250614320746069,-0.02967368323624684,-0.16754083449388862,-0.04996946709085878,-0.1853417182166371,0.0499730367347267,-2.4970721915281477,0.01186400315501158,2.3123402229679213,0.7756390886501149
0.4499836608835247,-1.13105989165489e-05,0.2500224014439662,0.00022882058421137765,0.9999974431859068,0.0004516822324606537,0.0002096356422010169,0.44947938576073854,6.504637343567935e-05,0.25076982522577584,0.00269819809608777,1.0000140300173852,0.0028442204202237154,-0.002168920245776777,0.11733102562955366,-0.012435243880927442,-1.4339967136110214,0.027955300697185794,-0.025446707481421582,-0.16787047705358302,-0.049966287655310894,-0.18534105521235694,0.04997038632145267,-2.4970755855661686,0.011863991501974652,2.3123408042252875,0.7756385132145486
0.449985253625644,-1.1994446639915073e-05,0.2500224207201161,0.00022846311373354096,0.9999974443326647,0.0004492580607567937,0.0002097643977389873,0.44947938576073854,6.504637343567935e-05,0.25076982522577584,0.00269819809608777,1.0000140300173852,0.0028442204202237154,-0.002168920245776777,0.1511724886229579,0.006563302079110164,-1.4092131584554974,0.02831660254085315,-0.022381593722586128,-0.16523794163281447,-0.04996954751289029,-0.18533158816571957,0.04997083742761818,-2.497069320798648,0.011864162482295146,2.31233940480504,0.7756334352526338
0.44998166091876374,-1.2911982201970422e-05,0.2500185753373961,0.00022825168759171364,0.9999974446372217,0.0004506052564066398,0.00020561190044536556,0.44947938576073854,6.504637343567935e-05,0.25076982522577584,0.00269819809608777,1.0000140300173852,0.0028442204202237154,-0.002168920245776777,0.16676754242694095,-0.03201121773180419,-1.455425055110066,0.032261941071165944,-0.016101963920166756,-0.1688273293510724,-0.049969467416287335,-0.18534211243231113,0.049970215752835584,-2.49707192283228,0.011859741816468577,2.312339409165904,0.7756340102818523
0.4499829726314928,-1.2610770294880918e-05,0.25001927141503266,0.00022939777163498914,0.999997445372043,0.00044833500384576047,0.00020572540222886995,0.44947938576073854,6.504637343567935e-05,0.25076982522577584,0.00269819809608777,1.0000140300173852,0.0028442204202237154,-0.002168920245776777,0.18254804247956335,-0.01597844250382974,-1.394514778271158,0.02611502524244268,-0.020583535312907596,-0.17316049687579715,-0.04997160145232777,-0.18533650809630822,0.04997280023589585,-2.4970664435520984,0.011863097238215723,2.3123390503197436,0.7756348420977411
0.44998423773683466,-1.3524145400790901e-05,0.25002110706523495,0.0002284740613168552,0.9999974452644979,0.0004476868390436709,0.0002086665868242341,0.44947938576073854,6.504637343567935e-05,0.25076982522577584,0.00269819809608777,1.0000140300173852,0.0028442204202237154,-0.002168920245776777,0.20837092721972705,-0.022841955026237745,-1.4122768991483463,0.02550299034957826,-0.016903728826060883,-0.1757986537919985,-0.04997197285265023,-0.1853365080958629,0.04997021575298409,-2.497070039664531,0.01186145728182618,2.3123370426000487,0.7756372197079239
0.44998554849958877,-1.4980794322364749e-05,0.25002201842219807,0.0002286103482556215,0.9999974457899535,0.0004465471417046452,0.0002084411246334686,0.44947938576073854,6.504637343567935e-05,0.25076982522577584,0.00269819809608777,1.0000140300173852,0.0028442204202237154,-0.002168920245776777,0.15079696612789545,-0.0021097787347655896,-1.3857413429443526,0.02917052498663797,-0.02755512601396856,-0.16502737187132965,-0.0499719727435216,-0.1853386709620639,0.04997021575493335,-2.497070143705407,0.011863512620916162,2.312340464094538,0.7756372244505095
0.44998485708628344,-1.501330547619244e-05,0.2500231660803966,0.0002287641858026634,0.999997446379661,0.00044451490872193594,0.00020978270480772262,0.44947938576073854,6.504637343567935e-05,0.25076982522577584,0.00269819809608777,1.0000140300173852,0.0028442204202237154,-0.002168920245776777,0.1639992873902169,-0.042084330731859694,-1.3780455812870975,0.03247758114988902,-0.02453012577590063,-0.1694856220683873,-0.04997209088961498,-0.18534122713462153,0.04996751052220585,-2.4970666934224615,0.011859995532097043,2.3123378832669848,0.7756365946399523
0.4499839877113229,-1.1650395612722445e-05,0.2500199904664163,0.00022868346528811888,0.9999974435507438,0.00045203655364260307,0.0002072678326466445,0.44947938576073854,6.504637343567935e-05,0.25076982522577584,0.00269819809608777,1.0000140300173852,0.0028442204202237154,-0.002168920245776777,0.16737614850970892,-0.019989377188464906,-1.387730423159171,0.037643776619502536,-0.02511784411017298,-0.16086560153049495,-0.04997483254134538,-0.18533575969338761,0.04997092521387299,-2.4970697726186946,0.011863547235912193,2.3123373622182313,0.7756348058351394
0.449983300774783,-1.39014541927714e-05,0.2500202061472523,0.00022869907835929327,0.999997445054937,0.0004484761882365769,0.00020772723588478103,0.44947938576073854,6.504637343567935e-05,0.25076982522577584,0.00269819809608777,1.0000140300173852,0.0028442204202237154,-0.002168920245776777,0.15404267985749057,-0.03475793484195581,-1.4305747943186087,0.03570159986698775,-0.022732830939922448,-0.16063112752096784,-0.049970270027946045,-0.18533372403640241,0.049970443470949734,-2.497071012240398,0.011862697688104754,2.3123377167030306,0.7756330725259772
0.4499810037954508,-1.0466122918559767e-05,0.25001794199722654,0.00022856723386651317,0.9999974435188094,0.0004533258725812488,0.0002047184983492045,0.44947938576073854,6.504637343567935e-05,0.25076982522577584,0.00269819809608777,1.0000140300173852,0.0028442204202237154,-0.002168920245776777,0.17014123739926607,-0.03000094981573566,-1.4023762441400707,0.03449207482422404,-0.02099528373196106,-0.1632003571378255,-0.04997266711529929,-0.18533592878472077,0.049972721406765154,-2.4970722204761047,0.011864162482321259,2.3123402210299036,0.7756351992243732
0.44998556999849915,-1.4948585861194405e-05,0.2500226477374856,0.00022847488205230112,0.9999974462268174,0.00044473163604618504,0.00021036640861041593,0.44947938576073854,6.504637343567935e-05,0.25076982522577584,0.00269819809608777,1.0000140300173852,0.0028442204202237154,-0.002168920245776777,0.14981915943730933,-0.05073972450587334,-1.4132490534574913,0.04065692942617632,-0.025266362603822794,-0.15663050037464568,-0.049975277983352114,-0.1853390137501424,0.04997199942608862,-2.4970745878632483,0.011864162482247035,2.3123402183920008,0.7756365595764766
0.44998224579050855,-1.4794160709734624e-05,0.2500190918027929,0.00022884850049833058,0.9999974449624928,0.0004491837874149177,0.00020647503058407525,0.44947938576073854,6.504637343567935e-05,0.25076982522577584,0.00269819809608777,1.0000140300173852,0.0028442204202237154,-0.002168920245776777,0.1354775432075491,-0.036558463661062364,-1.3738624375406745,0.03554973296661863,-0.0314441315072643,-0.16395697525251,-0.04997016146146687,-0.1853425326925177,0.049968093645707354,-2.497072004236654,0.011864123029281028,2.3123401052243695,0.77563994421653
0.4499825342256688,-1.0283605403978325e-05,0.2500197373716882,0.00022901734280750017,0.9999974444355585,0.00045050454266568193,0.0002059617031067374,0.44947938576073854,6.504637343567935e-05,0.25076982522577584,0.00269819809608777,1.0000140300173852,0.0028442204202237154,-0.002168920245776777,0.17570186231849483,-0.05582205999426346,-1.3958656861606993,0.03666021665514077,-0.02561622177750876,-0.1671388798577256,-0.04997516398865495,-0.18533893464916348,0.049972721406765154,-2.4970762103787907,0.011863551637665427,2.3123377507748684,0.7756378880332625
0.4499821192023266,-1.3812754677159755e-05,0.25001969984069544,0.00022850270641123772,0.9999974455760033,0.00044855342304874455,0.00020525343810307253,0.44947938576073854,6.504637343567935e-05,0.25076982522577584,0.00269819809608777,1.0000140300173852,0.0028442204202237154,-0.002168920245776777,0.1503226129793315,-0.027008203809173525,-1.4531204360083614,0.0303536532139845,-0.023071648740487626,-0.16849716592609082,-0.04996973371852445,-0.18533901037283806,0.04997735576811638,-2.4970651362385006,0.011862715794273422,2.31233511174472,0.7756387722475726
0.44998566724258743,-1.3538510383681007e-05,0.250023909779066,0.0002287536892391832,0.9999974445378229,0.0004476506524215639,0.00021189534340833497,0.44947938576073854,6.504637343567935e-05,0.25076982522577584,0.00269819809608777,1.0000140300173852,0.0028442204202237154,-0.002168920245776777,0.12156193160001721,-0.02028907529101568,-1.422615544522388,0.02585158017428768,-0.025915500793888633,-0.17050161591837112,-0.049974481339932805,-0.1853340691184645,0.04996489973378789,-2.4970707477265544,0.011863097250240186,2.3123392516241115,0.7756312810242072
0.44998323214896285,-1.3779761406936335e-05,0.25002188898630817,0.00022999942314784466,0.9999974441931236,0.000449710794123102,0.0002077711441943293,0.44947938576073854,6.504637343567935e-05,0.25076982522577584,0.00269819809608777,1.0000140300173852,0.0028442204202237154,-0.002168920245776777,0.1815852472111201,-0.02509119389759674,-1.3535350574551985,0.03167222396794365,-0.027063208256810804,-0.1690094747066004,-0.04997732286757147,-0.18534714983842093,0.04997272152038622,-2.4970695680054287,0.011859545997488435,2.31233879266857,0.775636016015298
0.4499823580717747,-1.5163994449161305e-05,0.2500222034590917,0.00022834974800116435,0.9999974451285045,0.00044860894454543614,0.00020747056785772866,0.44947938576073854,6.504637343567935e-05,0.25076982522577584,0.00269819809608777,1.0000140300173852,0.0028442204202237154,-0.002168920245776777,0.13765375175386624,-0.024435320342422153,-1.4173804836893567,0.026444572027418418,-0.027204364215294183,-0.17287942003401094,-0.04997448229977392,-0.1853475186804401,0.04996837872427784,-2.49706792312061,0.011860198134080327,2.3123349944975384,0.7756415435416595
0.44998102730803147,-1.4953461863123739e-05,0.25001813233411035,0.00022836404036575278,0.9999974455833555,0.0004495136630273563,0.00020326154948272654,0.44947938576073854,6.504637343567935e-05,0.25076982522577584,0.00269819809608777,1.0000140300173852,0.0028442204202237154,-0.002168920245776777,0.15743300037010408,-0.014575812487893535,-1.3971460743582977,0.027540119926038765,-0.022456089420039422,-0.1683785464843858,-0.049971944184742385,-0.1853397363358428,0.04997484978973583,-2.497072548720204,0.011863689048489908,2.312337824069369,0.7756344860988567
0.4499822414176101,-1.2487178104565683e-05,0.25001976203202103,0.0002282870352354667,0.9999974451546774,0.00044881500832294084,0.00020696714848248486,0.44947938576073854,6.504637343567935e-05,0.25076982522577584,0.00269819809608777,1.0000140300173852,0.0028442204202237154,-0.002168920245776777,0.1515490627213011,-0.04436446828563289,-1.4137688267511326,0.03092651273267252,-0.022792264219611755,-0.16896562102969115,-0.04996704386019801,-0.1853443414016949,0.04997549079702794,-2.497070833870017,0.011858564375164743,2.312335454596416,0.7756347107213898
0.44998122652964107,-1.3881640051369584e-05,0.2500197225079395,0.00022830164564865377,0.9999974450250781,0.0004498821861137077,0.00020525314389106974,0.44947938576073854,6.504637343567935e-05,0.25076982522577584,0.00269819809608777,1.0000140300173852,0.0028442204202237154,-0.002168920245776777,0.18477181597931513,-0.07052419999356928,-1.371475068865251,0.03604842767522227,-0.02400584864835536,-0.1687884876110922,-0.04997197679186682,-0.1853425831354379,0.04996753680031877,-2.497074845859777,0.011864162319963987,2.3123346451558753,0.7756352884420082
0.44998374283676085,-1.1867064646848576e-05,0.2500244011361907,0.00022913020140980552,0.9999974440996954,0.0004490576385930756,0.00021057499459483276,0.44947938576073854,6.504637343567935e-05,0.25076982522577584,0.00269819809608777,1.0000140300173852,0.0028442204202237154,-0.002168920245776777,0.16964420414698209,-0.017531867853893834,-1.4693230277342149,0.028716047352155185,-0.018563636114677942,-0.16864077351398657,-0.04996696143714454,-0.18534278194513654,0.0499708553773705,-2.4970802912532917,0.01186035496729322,2.3123346212521545,0.7756380399105625
0.4499802287486855,-1.122165607329033e-05,0.2500200232909812,0.00022889902923361856,0.9999974443863214,0.0004510774144179938,0.0002050765257111973,0.44947938576073854,6.504637343567935e-05,0.25076982522577584,0.00269819809608777,1.0000140300173852,0.0028442204202237154,-0.002168920245776777,0.13767385747345304,-0.0251963978029691,-1.4135172668532718,0.03164398527407703,-0.02762024284231563,-0.1664311423975427,-0.04997508192296835,-0.18534735980625,0.04997280326352813,-2.4970789767329333,0.01186370711465967,2.3123328655861886,0.7756383540548064
0.4499825273184663,-1.27965788135725e-05,0.2500222027612455,0.0002288359939552978,0.9999974446658354,0.0004491194147251706,0.00020805961183558713,0.44947938576073854,6.504637343567935e-05,0.25076982522577584,0.00269819809608777,1.0000140300173852,0.0028442204202237154,-0.002168920245776777,0.13497175497457248,-0.03565122800513304,-1.4103067907309679,0.035803350348910815,-0.027353274936224914,-0.16235584133652795,-0.04997744004084968,-0.18534445697992372,0.04997272140681541,-2.497071100530951,0.011864768432194651,2.312335067625495,0.775636626222231
0.4499817555097039,-1.3428235143194801e-05,0.2500216325257056,0.00022855638641120995,0.9999974454608279,0.000448013421156444,0.00020692737691947505,0.44947938576073854,6.504637343567935e-05,0.25076982522577584,0.00269819809608777,1.0000140300173852,0.0028442204202237154,-0.002168920245776777,0.14735611069052937,-0.022116783465881456,-1.404609850239751,0.0253774061257176,-0.025326999141558157,-0.17110386807536074,-0.049974215399464755,-0.1853431369053123,0.04997021575298224,-2.4970701452067634,0.011863552130090611,2.312335100737607,0.7756430825076959
0.4499828108835395,-1.402733648897009e-05,0.250021887002358,0.00022854149483443414,0.9999974461622859,0.00044635531326293995,0.00020713715483168025,0.44947938576073854,6.504637343567935e-05,0.25076982522577584,0.00269819809608777,1.0000140300173852,0.0028442204202237154,-0.002168920245776777,0.16334833045109398,-0.014565487789689833,-1.4005676091454606,0.016884167623268425,-0.02400203747388886,-0.18391431508251413,-0.04996913283004815,-0.18534299769943938,0.04997522749708755,-2.4970756573147934,0.01186268933361332,2.3123357987366466,0.7756366343488572
0.4499811161328871,-1.0378978022838668e-05,0.2500200705789017,0.0002287735371466,0.9999974456861903,0.00044869735577614386,0.00020409706406672565,0.44947938576073854,6.504637343567935e-05,0.25076982522577584,0.00269819809608777,1.0000140300173852,0.0028442204202237154,-0.002168920245776777,0.20007247089997468,-0.029743040214868902,-1.3566714933893,0.030681166003398055,-0.02286761129379879,-0.168288162452171,-0.04997016144543723,-0.18534819040800393,0.049970218672574,-2.497078785245145,0.011864158043813388,2.312335101381389,0.7756327361831692
0.44998212802946574,-1.4924766093776678e-05,0.2500211122562721,0.00022906988588007675,0.9999974466460044,0.00044540068442862053,0.00020627134674417236,0.44947938576073854,6.504637343567935e-05,0.25076982522577584,0.00269819809608777,1.0000140300173852,0.0028442204202237154,-0.002168920245776777,0.15078723187862966,-0.03650088186152803,-1.4196693675707148,0.03134841692632878,-0.025851712516384753,-0.1663142697492618,-0.049974843565315334,-0.1853432704065628,0.049972957893712124,-2.4970789458788474,0.011863381160521883,2.3123321036177655,0.7756341506977699
0.4499784465096476,-1.142525199832591e-05,0.2500166588135342,0.00022925914113378675,0.99999744418021,0.0004538943859162669,0.00019938486155385475,0.44947938576073854,6.504637343567935e-05,0.25076982522577584,0.00269819809608777,1.0000140300173852,0.0028442204202237154,-0.002168920245776777,0.14593405026403364,-0.045380341501046584,-1.4098527932682985,0.0393278644201703,-0.026468849824199846,-0.1631934738403052,-0.049972063912054526,-0.18534076486091108,0.049972721406765765,-2.497080697177125,0.011864162481652814,2.312331162995303,0.7756352050305139
0.44998053225212037,-1.4168250357541861e-05,0.25001991204945706,0.0002294177646387049,0.9999974458225702,0.0004482280112126107,0.00020373669784953843,0.44947938576073854,6.504637343567935e-05,0.25076982522577584,0.00269819809608777,1.0000140300173852,0.0028442204202237154,-0.002168920245776777,0.13778686047291183,-0.02975102845069033,-1.3984000811462398,0.028545300097980574,-0.026800880769188504,-0.1702340035614215,-0.04996730492307992,-0.18534724114884396,0.04996958635207662,-2.4970731701388367,0.011861774284375083,2.312331102361564,0.7756334327700809
0.44998413814802696,-1.2818663375388902e-05,0.25002003206736373,0.00022439345055500385,0.9999974470689118,0.0004436662040974138,0.00021298996271280562,0.44996292683080413,1.0876147027975837e-05,0.2499723663526424,0.0041510670252988295,0.9999547655332011,-0.005832771279578866,0.005865223572614835,0.14709060163561172,-0.022974776677795437,-1.4276205924452439,0.029106500612726387,-0.024977296856776326,-0.17089037876666618,-0.04997028404573725,-0.18534014579655533,0.04997045223992935,-2.4970729015793447,0.011862175150244235,2.3123298913189303,0.775633340776499
0.44999690575313644,-7.393658080932032e-05,0.24994165444672153,0.00019900726151671336,0.9999975379358775,6.817633203771562e-05,0.00025801626435097933,0.44989252957594017,9.712667937316965e-05,0.2497811750539742,0.0041510670252988295,0.9999547655332011,-0.005832771279578866,0.005865223572614835,0.024796838431006496,-0.20234302264570847,-1.3044616621858671,0.15827590156293428,-0.03972157911407524,-0.026114933919213816,-0.05000057648159418,-0.1853309203283052,0.04997800426148092,-2.4970767688344413,0.01190418077365404,2.312354026751847,0.7757174850709369
0.4499712796752773,-7.18885738960029e-05,0.24976812235702062,0.00018289061605476648,0.9999974842409574,-0.00024968112602138953,0.00034989133800983,0.44989252957594017,9.712667937316965e-05,0.2497811750539742,0.0041510670252988295,0.9999547655332011,-0.005832771279578866,0.005865223572614835,-0.04066406839903942,-0.3652239170888007,-1.194893721808367,0.2699851056806398,-0.02496722315081762,0.09622522463138133,-0.0501103042654159,-0.18524045873965986,0.04997191251615677,-2.497139628337929,0.011939536869453425,2.3125372807676765,0.7760582442991939
0.4500022207872887,-7.905520172706894e-05,0.24976757557676893,8.988876064429045e-05,0.9999974213533688,-0.00037303895059495834,0.00044356513551753083,0.44989252957594017,9.712667937316965e-05,0.2497811750539742,0.0041510670252988295,0.9999547655332011,-0.005832771279578866,0.005865223572614835,0.03582060670125807,-0.3843917200361177,-1.0375648866349831,0.2685957028143199,0.008016459627041244,0.1066481840929853,-0.050138476546683484,-0.18506010286491953,0.04997205717717321,-2.4976433906328634,0.012026174988029867,2.313509023241169,0.77680355050415
0.4500259898947765,-9.979363488166529e-05,0.24976923863928982,2.0894345986701478e-05,0.9999973411923492,-0.0005048859367050824,0.0004989616787954151,0.44989252957594017,9.712667937316965e-05,0.2497811750539742,0.0041510670252988295,0.9999547655332011,-0.005832771279578866,0.005865223572614835,0.02267886532968603,-0.45095070959268924,-1.0611920445102663,0.27113489280555086,0.02313368562012957,0.13637557596808836,-0.050183522008315634,-0.18505878211539342,0.04997691488641869,-2.4976470481247173,0.012219480111203228,2.3136598217180144,0.7768059223116118
0.4500459895142433,-0.0001225731786006413,0.24978062408972143,-1.0701787147264195e-05,0.9999972724689614,-0.0005832690239134164,0.0005490335618969677,0.44989252957594017,9.712667937316965e-05,0.2497811750539742,0.0041510670252988295,0.9999547655332011,-0.005832771279578866,0.005865223572614835,0.006451724139039248,-0.3999616283699173,-1.012173760526589,0.26260227468374253,0.02198854928079815,0.160022010734519,-0.05030631360660647,-0.1850594554414013,0.0499748285830091,-2.4976579807578596,0.012438652984064566,2.3138017236882136,0.7768630414615838
0.45005501162495515,-0.00013585651003132385,0.2497866416230532,-3.0484698278931854e-05,0.9999972222290964,-0.0006462438955988179,0.0005689233040144012,0.44989252957594017,9.712667937316965e-05,0.2497811750539742,0.0041510670252988295,0.9999547655332011,-0.005832771279578866,0.005865223572614835,-0.026164204530615597,-0.369714770128713,-1.0381257486606053,0.25222381634126395,0.02742401702676487,0.17486721134572059,-0.05034089018808934,-0.18505733941147937,0.049976913418763605,-2.4976571796361595,0.012516199315909362,2.313885096132882,0.776887322221523
0.4500602470611079,-0.00015030850138803134,0.24978548277065946,-4.0494705673799426e-05,0.9999971741848172,-0.0007050768603035514,0.0005827082648305164,0.44989252957594017,9.712667937316965e-05,0.2497811750539742,0.0041510670252988295,0.9999547655332011,-0.005832771279578866,0.005865223572614835,-0.021206029704484874,-0.3724856604320412,-1.0504043863054784,0.2548799507787584,0.029240009039912945,0.18447456605969162,-0.05040586053914366,-0.18506189125326933,0.049976923639354374,-2.4976605145820376,0.012571259700791221,2.3139255906693577,0.7769588940853166
0.4500650241773241,-0.00015996117437420588,0.24978728736483016,-4.8282251519472895e-05,0.9999971318551537,-0.000753152759376613,0.0005944834862877345,0.44989252957594017,9.712667937316965e-05,0.2497811750539742,0.0041510670252988295,0.9999547655332011,-0.005832771279578866,0.005865223572614835,-0.01326667209302484,-0.4150407599219984,-1.05082613731559,0.26176136753599255,0.03293927575578445,0.18615108141239134,-0.05042575428390914,-0.1850594390639185,0.049976911961431614,-2.4976552001670544,0.012591622585138497,2.3139517326239663,0.776991574104219
0.45007079083180995,-0.00016252079095594908,0.24979039877660802,-5.3328156558019975e-05,0.9999970995625918,-0.0007851170517083967,0.0006068878760363504,0.44989252957594017,9.712667937316965e-05,0.2497811750539742,0.0041510670252988295,0.9999547655332011,-0.005832771279578866,0.005865223572614835,-0.01631176462212134,-0.42659347834413425,-1.060788260561883,0.2584334849892331,0.034876829691954256,0.18319762590583843,-0.05046089785450665,-0.18505938224875532,0.049974705337933904,-2.4976608501408077,0.012626894734044823,2.3139801612955413,0.7770872552784908
0.4500712857575186,-0.00016692929094450526,0.24979022184506777,-5.731447050226335e-05,0.9999970815396317,-0.0008040336400001407,0.0006114378127866378,0.44989252957594017,9.712667937316965e-05,0.2497811750539742,0.0041510670252988295,0.9999547655332011,-0.005832771279578866,0.005865223572614835,0.006913134973982851,-0.4030760579191859,-1.0375929770630345,0.25588672275680774,0.0367600497896131,0.18493503926612598,-0.05046129499891043,-0.18505667833408587,0.04997518008836412,-2.4976559999062733,0.012629657385678204,2.313999171149775,0.7770955154531947
0.4500739618480024,-0.00016644629599297533,0.24978986268486392,-6.070407560815951e-05,0.9999970562117158,-0.0008295945520521748,0.0006183482986817218,0.44989252957594017,9.712667937316965e-05,0.2497811750539742,0.0041510670252988295,0.9999547655332011,-0.005832771279578866,0.005865223572614835,-0.010820455230327023,-0.41530044004568084,-1.0566580008562696,0.2622429557592549,0.03702176575498844,0.1919274387279908,-0.05047344644559397,-0.1850534837327919,0.04997185970907287,-2.4976675106737543,0.01264362651646101,2.314012773805194,0.7771169236556875
0.45007609713230035,-0.00017041652464717526,0.24979089165631693,-6.356353389559836e-05,0.9999970459030283,-0.0008365101855609597,0.000625375382768739,0.44989252957594017,9.712667937316965e-05,0.2497811750539742,0.0041510670252988295,0.9999547655332011,-0.005832771279578866,0.005865223572614835,-0.0009137638922455073,-0.40708429173058164,-1.0602335620217875,0.2539831114105139,0.037847403379890246,0.18190128215159004,-0.05047688828908702,-0.18505849418391696,0.0499770797174056,-2.4976669054473084,0.012653470523976406,2.314033658763066,0.7771526418163095
0.4500796566548709,-0.0001686712035023012,0.24979254973648846,-6.511313411460396e-05,0.9999970359693889,-0.0008418452027883909,0.0006338833442341219,0.44989252957594017,9.712667937316965e-05,0.2497811750539742,0.0041510670252988295,0.9999547655332011,-0.005832771279578866,0.005865223572614835,-0.010955575494341728,-0.4146784284561005,-1.0851716616551965,0.2546710139452841,0.04081877230195493,0.18393242126825932,-0.05047753729081481,-0.18506124920842495,0.04997377723203064,-2.497672306289326,0.012658617655114158,2.3140496141977214,0.7771603816825746
0.45007973228863196,-0.0001712367913063413,0.24979035919761686,-6.693751469340682e-05,0.9999970323986326,-0.0008452198473123914,0.000634834941164824,0.44989252957594017,9.712667937316965e-05,0.2497811750539742,0.0041510670252988295,0.9999547655332011,-0.005832771279578866,0.005865223572614835,0.012207760483066944,-0.4194945447529926,-1.040272330370201,0.26084854218394216,0.04261668007227754,0.18860772034252393,-0.05048572443485418,-0.1850594653095137,0.04997375064784255,-2.4976646953026305,0.012662786948304364,2.3140663854043897,0.777158670656417
0.45008745209302237,-0.00017156475235820785,0.24979345094042632,-6.893320611338351e-05,0.9999970093968641,-0.0008595165820085445,0.0006514409910929306,0.44989252957594017,9.712667937316965e-05,0.2497811750539742,0.0041510670252988295,0.9999547655332011,-0.005832771279578866,0.005865223572614835,0.027533941375684885,-0.4490605549398172,-1.082113531676004,0.2647360931047007,0.046836789321520654,0.188123931277731,-0.050494602479731324,-0.1850573816745144,0.04997420784803051,-2.497669723470444,0.012667718504962377,2.3140880869601115,0.7771653181624532
0.45009409867905914,-0.0001705758946168996,0.24979878785150184,-7.025218710768086e-05,0.9999969966833152,-0.0008620532836955353,0.0006672718135581396,0.44989252957594017,9.712667937316965e-05,0.2497811750539742,0.0041510670252988295,0.9999547655332011,-0.005832771279578866,0.005865223572614835,-0.018757992813424273,-0.41158880902982753,-1.0779014293526827,0.2557557282869621,0.03933885177453651,0.184820640230342,-0.050489673485350405,-0.185059842028615,0.049972004473129106,-2.4976639762221793,0.012672756767047167,2.3141046829109726,0.7771872403182046
0.4500925540314157,-0.0001725774930343516,0.2497977626847384,-7.154857225290083e-05,0.9999969865285885,-0.0008736318503799472,0.0006672933345710896,0.44989252957594017,9.712667937316965e-05,0.2497811750539742,0.0041510670252988295,0.9999547655332011,-0.005832771279578866,0.005865223572614835,0.0132023621478187,-0.41950019177801784,-1.0348495629374415,0.26015360895919165,0.04109033462248811,0.18805677907856874,-0.050492866059144235,-0.18505447332140043,0.04997444451920372,-2.4976681028104437,0.012675859877981449,2.314128988675794,0.777185503094311
0.45009361837721645,-0.00017504782442272129,0.24979647365174876,-7.222300642039711e-05,0.9999969822719421,-0.0008778021011018651,0.0006681262926916992,0.44989252957594017,9.712667937316965e-05,0.2497811750539742,0.0041510670252988295,0.9999547655332011,-0.005832771279578866,0.005865223572614835,0.0011612146412244386,-0.4144377368506254,-1.0568939323026842,0.2592204857684062,0.04297173712055024,0.18973975974039053,-0.05049327435924629,-0.1850591911472795,0.04997731072697122,-2.497670829175422,0.012681958214798535,2.3141311317715036,0.7772026426195016
0.45009151743651876,-0.00017376309355561867,0.2497950903750628,-7.350102314924341e-05,0.9999969799376639,-0.0008816133156505947,0.0006664604308709026,0.44989252957594017,9.712667937316965e-05,0.2497811750539742,0.0041510670252988295,0.9999547655332011,-0.005832771279578866,0.005865223572614835,0.017256413234007735,-0.4242073717229308,-1.0362893156106743,0.2592016502618749,0.04329264592701056,0.18823962686339535,-0.0504970974251971,-0.1850570727376297,0.049976573045910674,-2.497671860460678,0.01268285500845873,2.3141352287663355,0.7772152946784715
0.450092300875402,-0.00017644631708216437,0.2497956869952724,-7.432020268187753e-05,0.9999969666412084,-0.000895817122366547,0.0006673790858669492,0.44989252957594017,9.712667937316965e-05,0.2497811750539742,0.0041510670252988295,0.9999547655332011,-0.005832771279578866,0.005865223572614835,0.011307822737230173,-0.435264308387719,-1.0443694017511793,0.26298418926978107,0.04255115049843221,0.1925256147040235,-0.05049718488622127,-0.18505698525456746,0.04997193767285057,-2.497671227724059,0.012685432296375086,2.3141364646057636,0.7772230805237907
0.4500928154721621,-0.00017832309949578206,0.24979491268578224,-7.429611405646891e-05,0.9999969623756965,-0.0009001794072775827,0.0006679032385399365,0.44989252957594017,9.712667937316965e-05,0.2497811750539742,0.0041510670252988295,0.9999547655332011,-0.005832771279578866,0.005865223572614835,0.006848357765220575,-0.4267658202689208,-1.0412835157796194,0.26089573816511047,0.041244752713201396,0.18878989044019082,-0.05050236726641164,-0.18505662965657166,0.049977308742735656,-2.4976763055212157,0.012686773904099386,2.314139183263806,0.777239861073483
0.4500937091730164,-0.00017435593741026351,0.2497955339983225,-7.636498692714652e-05,0.9999969239822748,-0.000936370569092212,0.0006753535729700993,0.4496941589438017,0.0003711888161814446,0.2497692594573395,0.008377425058490966,0.9998433601673014,-0.010763315852260775,0.011063963535863433,0.007444946223492883,-0.4158006331953245,-1.0526475823590131,0.255538468131521,0.04254505464651402,0.18039643920657777,-0.050502454956818085,-0.18505349338628252,0.0499720043723961,-2.4976761145569406,0.012690695832753599,2.3141391891500596,0.7772434562499451
0.4501535209957022,-0.00014142725210286697,0.24980536306003717,-6.866668626552128e-05,0.999995796061099,-0.0016894405549692415,0.000857685269864495,0.4496941589438017,0.0003711888161814446,0.2497692594573395,0.008377425058490966,0.9998433601673014,-0.010763315852260775,0.011063963535863433,0.06711314775351444,-0.5232962762281032,-1.0640149924767686,0.2619989505906579,0.046606218526902464,0.16174335952672486,-0.050471848112998395,-0.18506266025417406,0.049973859743798366,-2.4977078318959767,0.012694729128089402,2.314409282284789,0.7782189795563751
0.45018405276844525,-0.00011623314506494914,0.24977325791761062,-6.1986351986514e-05,0.9999942355192123,-0.00239133298974994,0.0009966379380012338,0.4496941589438017,0.0003711888161814446,0.2497692594573395,0.008377425058490966,0.9998433601673014,-0.010763315852260775,0.011063963535863433,0.06693298358128982,-0.5977376739445046,-0.9762496031338352,0.28608582883673994,0.06125011783111513,0.17196857028770773,-0.05041408001798173,-0.18507147795168502,0.050001402668116895,-2.4978057589131164,0.012673648953072297,2.3147028288360967,0.7794137425603878
0.4501854754796389,-0.00010209626065738495,0.24974080225346992,-5.2566030148969e-05,0.9999926407415443,-0.002954041653242125,0.0010844342336108013,0.4496941589438017,0.0003711888161814446,0.2497692594573395,0.008377425058490966,0.9998433601673014,-0.010763315852260775,0.011063963535863433,0.061509022919190935,-0.6636036818810751,-1.051068709743269,0.3057584595059088,0.08813050278940174,0.1799397940910209,-0.050402656489296954,-0.18507864450254083,0.05004336416663103,-2.4980280725882062,0.012658007303874208,2.315222414024498,0.781160730867979
0.4502124465201786,-8.682581153431822e-05,0.24974331069520408,-4.394284977554247e-05,0.9999904958080555,-0.003580691343858307,0.0011711756934514237,0.4493812992434917,0.0005661267419034605,0.24981066495027793,0.012556582955826274,0.9997084155309554,-0.013093832554690595,0.01578461161321419,0.08992757622101095,-0.6943008468549516,-0.9791468323390676,0.317103104611606,0.10418593252668865,0.1866688785082903,-0.05039958105364143,-0.1850766210210174,0.05005362884270041,-2.4981058700474246,0.012656744884012944,2.315456017062798,0.78205851409795
0.45024206165876685,2.9500308520414432e-05,0.24974893280179045,7.539689697780355e-05,0.9999866457683401,-0.004481244027890192,0.0013444916241602213,0.4493812992434917,0.0005661267419034605,0.24981066495027793,0.012556582955826274,0.9997084155309554,-0.013093832554690595,0.01578461161321419,0.13868478871903164,-0.6554840338926127,-0.932570509670082,0.2883582998760448,0.10995376476646672,0.16052193883886112,-0.050353994322338544,-0.18512795515120486,0.050223272944945566,-2.498202702830827,0.012515119806025897,2.3159232034392536,0.7843659221778722
0.4502372887111656,0.00016356442165646858,0.24971825558923455,0.00019453660023240743,0.9999833582356503,-0.005123325358096295,0.001477673957672005,0.4493812992434917,0.0005661267419034605,0.24981066495027793,0.012556582955826274,0.9997084155309554,-0.013093832554690595,0.01578461161321419,0.20353031379810493,-0.7228162416388341,-1.0108777205732329,0.3532820646503193,0.14022913018039168,0.1689546009828138,-0.050270157015463446,-0.18520319347643333,0.050453599040881335,-2.4983862557529406,0.012292782992526622,2.316123455357837,0.7858934210948194
0.45021448200949243,0.00018729566775373076,0.24968195926074804,0.00022908472733352365,0.9999808517393279,-0.005572832242574602,0.001540703837863937,0.4493812992434917,0.0005661267419034605,0.24981066495027793,0.012556582955826274,0.9997084155309554,-0.013093832554690595,0.01578461161321419,0.21978670706566478,-0.7598311029275591,-0.8787444438764311,0.4149813392427247,0.1485492838161697,0.19415377568936765,-0.0502780649719233,-0.18530501175856073,0.050745629280224594,-2.4987020103595787,0.012082187777516799,2.3166060928354417,0.7877309983836004
0.4502460741277931,0.00018507788201112686,0.24968597939498727,0.00023230071451662196,0.9999787554813995,-0.005895799256522717,0.00169136282038971,0.44902626497966297,0.00048047906832976206,0.24990811639263294,0.016445825444830742,0.9995764404200185,-0.013096667652093932,0.020003453511093398,0.2630523782902747,-0.7682144726087856,-0.9429666894129201,0.4513304845202639,0.17221454952026305,0.2182905393122486,-0.05029153452558202,-0.18533642521576094,0.050757502021671,-2.4988019578301097,0.012082854595137443,2.3168405273899233,0.7882274719028772
0.45021535427375226,0.00011828044312141163,0.24970945824009824,0.0004086594733300978,0.9999771008696656,-0.006098593110979255,0.0019037906673518275,0.44902626497966297,0.00048047906832976206,0.24990811639263294,0.016445825444830742,0.9995764404200185,-0.013096667652093932,0.020003453511093398,0.28407313592135486,-0.7289223657200438,-0.9609136831919082,0.4703946737396727,0.1801723592780632,0.236877118594391,-0.050336847664496163,-0.18559761341413952,0.05076207768710214,-2.4991323367406912,0.011729770164992591,2.3174039938028197,0.7891596335637049
0.450168283433961,9.152002258743426e-05,0.24973581574827367,0.00047617852531614356,0.9999753725342394,-0.006267651427455621,0.002220503917178719,0.44902626497966297,0.00048047906832976206,0.24990811639263294,0.016445825444830742,0.9995764404200185,-0.013096667652093932,0.020003453511093398,0.39774629758690866,-0.7515634302403347,-0.9965934091304754,0.5232185517396181,0.20103630381864854,0.2505017702692832,-0.050356159656447116,-0.18590197233966038,0.05075785356409926,-2.499510354509967,0.01151456080827675,2.317971244553915,0.7895007769712022
0.45012375811683186,8.089567568558755e-05,0.24977255145031846,0.0005147635692217758,0.9999743884127368,-0.0062941123218354855,0.0025550339648468022,0.44902626497966297,0.00048047906832976206,0.24990811639263294,0.016445825444830742,0.9995764404200185,-0.013096667652093932,0.020003453511093398,0.40072403150080715,-0.7483773934848785,-1.024720398184394,0.5435543171183012,0.21196989154456466,0.2564825826190333,-0.05035371428280292,-0.1865871118042274,0.05076320981427049,-2.5003575535561393,0.011418032687470318,2.318906702396172,0.789795953916088
0.4500871728321743,7.391358866568036e-05,0.24979461577068274,0.0005296573072787869,0.9999733115389373,-0.0063442625961064834,0.0028341689238827517,0.44882433658666787,0.000505543643709698,0.2498977914686098,0.020040003559124966,0.9994505713547837,-0.012567417929528273,0.023112766732090256,0.34138958454017754,-0.7471402502301568,-0.8516064146681201,0.5446414489877406,0.19501719863450312,0.2594990631703914,-0.05035475690531386,-0.18690615157454638,0.05076600264438661,-2.5007132374156757,0.011406592342946845,2.3194666438742373,0.7898829909935208
0.45005237387626473,2.019561652391854e-05,0.24975207485644524,0.0007549341443992798,0.9999726983445327,-0.006227916507107608,0.003229893404178321,0.44882433658666787,0.000505543643709698,0.2498977914686098,0.020040003559124966,0.9994505713547837,-0.012567417929528273,0.023112766732090256,0.43121443746468247,-0.7612663907298921,-1.0506296355463258,0.5302712639573413,0.2144868484125167,0.2583551397474942,-0.0503640857133128,-0.18715644415150653,0.050766005014426636,-2.501075190096253,0.011326823824794701,2.319836661343026,0.789911409950985
0.45001651138012094,-5.075001891112081e-06,0.24969251858719552,0.0009987298309968948,0.9999714219486528,-0.006097337897772312,0.00376388342686713,0.44882433658666787,0.000505543643709698,0.2498977914686098,0.020040003559124966,0.9994505713547837,-0.012567417929528273,0.023112766732090256,0.4354863679525599,-0.8239660470893777,-1.0355926730694078,0.5624016617569169,0.20191218250289023,0.26355299174203656,-0.05035928376770444,-0.18741265632409673,0.05077416909048049,-2.501604542197875,0.010909613388694272,2.32061583079209,0.7900381137423577
0.44991079340683426,-1.540855905827741e-05,0.24963645513579524,0.0012501217131852126,0.9999697607692355,-0.006005032320309833,0.004247453143451394,0.44882433658666787,0.000505543643709698,0.2498977914686098,0.020040003559124966,0.9994505713547837,-0.012567417929528273,0.023112766732090256,0.4453419521564539,-0.8573269920595508,-1.0228861120308048,0.5802677030972462,0.19892133414710644,0.2718930424381235,-0.05034254525918928,-0.18810349009288135,0.050878796438262715,-2.502935872826551,0.010087957803841046,2.3227237304456017,0.790368009646215
0.4498482551200521,-8.81735380263191e-06,0.249619639492783,0.001425603921615397,0.9999681158258705,-0.005911357157022764,0.00468800337087125,0.4488635388467343,0.0006099201364281168,0.25005959847437714,0.02279393743191222,0.9993622988254335,-0.01244637252619722,0.0244070936898233,0.31584030772429406,-0.8223234269088524,-0.9318853785098383,0.5831528810647334,0.17542943506649655,0.2752304718844106,-0.050329622792253524,-0.1885099378510778,0.05096008084423345,-2.503614513155844,0.009709190177992773,2.3235533556528862,0.7906116323075374
0.4499199279224124,3.793078053088441e-06,0.24972526103127962,0.0017418825006173394,0.9999654526632539,-0.005751319511229279,0.005307371488540161,0.4488635388467343,0.0006099201364281168,0.25005959847437714,0.02279393743191222,0.9993622988254335,-0.01244637252619722,0.0244070936898233,0.39394981409235524,-0.8746465424035434,-0.976218350851428,0.5837234635773096,0.2002697641661385,0.2714703618865517,-0.05032178702627756,-0.18934816558835788,0.051137498478141176,-2.5048838486662492,0.009031237365854847,2.3255119516427647,0.790914955568911
0.4499355141224433,5.28707670164179e-05,0.24977377137784054,0.0020865637815601036,0.999962879622072,-0.005688259687648768,0.0057197795085335065,0.4488635388467343,0.0006099201364281168,0.25005959847437714,0.02279393743191222,0.9993622988254335,-0.01244637252619722,0.0244070936898233,0.37559002025627036,-0.9517666572831833,-0.7625287460564466,0.588908770030208,0.17900917995283466,0.27870240208316155,-0.05030375215634855,-0.18971868957328647,0.05126399696483136,-2.505287550157628,0.008475764744176528,2.3263287585362016,0.7912240263553038
0.44995097941578466,5.691435936081131e-05,0.24975298274237048,0.0024100154897462854,0.9999601987445979,-0.005592336290912075,0.0061404461077542,0.4488635388467343,0.0006099201364281168,0.25005959847437714,0.02279393743191222,0.9993622988254335,-0.01244637252619722,0.0244070936898233,0.4226288963084565,-0.9809402686252231,-0.98324246204181,0.6078043194137167,0.2046428358979287,0.2870850150420993,-0.050296476727209466,-0.19027607315517725,0.051667643535232864,-2.506008859726741,0.007364215784022721,2.327606749807987,0.7922091608273701
0.4499250538422366,2.9916280683562912e-05,0.24972719506624746,0.0027060770090636863,0.99995795171794,-0.005485329241784378,0.006470677220133173,0.44884440472706777,0.0006729051448657849,0.2501234003030385,0.024284054197762677,0.9993353832138009,-0.012763987303756818,0.02390279243488529,0.39763365523115374,-0.9352364535644127,-0.8700874331805903,0.6196497541445459,0.20526758369713724,0.29211469328782014,-0.050293352247568666,-0.19047149554949383,0.05177424112280931,-2.506431248022612,0.006791579271785115,2.3284146349413732,0.7925796427841735
0.4499304700130855,2.7152997487617346e-05,0.24977429191386075,0.0030386855404259823,0.9999545837745278,-0.005402759799541218,0.006898806176955712,0.44884440472706777,0.0006729051448657849,0.2501234003030385,0.024284054197762677,0.9993353832138009,-0.012763987303756818,0.02390279243488529,0.33309101070178504,-0.9492463619473738,-0.9395344776101602,0.613765908472134,0.20067482147011423,0.2906597314039911,-0.05030924279755793,-0.19094455727390783,0.05195862183060828,-2.5072573533385523,0.005683219542949523,2.3297954221357706,0.7930564810622904
0.4499137862063015,7.188834859944269e-05,0.24984539068360734,0.0033394243598084444,0.9999509446808237,-0.005283765662739421,0.007363753461145811,0.44884440472706777,0.0006729051448657849,0.2501234003030385,0.024284054197762677,0.9993353832138009,-0.012763987303756818,0.02390279243488529,0.30084307669848337,-1.0112672767440587,-0.8879161847303199,0.6255374692891155,0.19476027418194478,0.293556127174916,-0.05028978305929059,-0.19128143280273777,0.052076778572626395,-2.5076399633860476,0.005146903778301763,2.3303645501682357,0.7935925244640242
0.4498561675943752,6.153983791349028e-05,0.24986524301775798,0.0036245395902607465,0.9999471838348118,-0.0052269173618800955,0.007769051364032246,0.44884440472706777,0.0006729051448657849,0.2501234003030385,0.024284054197762677,0.9993353832138009,-0.012763987303756818,0.02390279243488529,0.26716066880596756,-0.9233296013404074,-0.8892277835987789,0.6202543281160642,0.1849825213656422,0.3078161027559462,-0.050282344455290534,-0.19209868776685826,0.052417441456450914,-2.5086045707958973,0.004186265745482762,2.3317399226667,0.7942996295096313
0.44982119368547796,6.359165053654154e-05,0.24989577573523367,0.003849242781537607,0.999942936384338,-0.0053413212759032555,0.008121832114745053,0.448918200378361,0.0007114980688417768,0.25001263553979547,0.024624591205101024,0.999370993793181,-0.01325926752624744,0.02169387834661683,0.2871607727145125,-0.9773925971939302,-0.8312204378781305,0.6334158554330963,0.1931207030310244,0.3076431158517595,-0.05029486435459256,-0.19248255812434542,0.052504885891809,-2.5091068663061162,0.0036799081146583314,2.332425415895773,0.7946390313813463
0.4497625050589563,9.37736748488137e-05,0.24984185142976745,0.0040288153136145395,0.9999412725858846,-0.005310546219129145,0.008258613183727597,0.448918200378361,0.0007114980688417768,0.25001263553979547,0.024624591205101024,0.999370993793181,-0.01325926752624744,0.02169387834661683,0.311081564869892,-1.041522804854693,-0.83128568392772,0.6474436996975116,0.20110221532563183,0.30315160409473346,-0.05030215344808522,-0.19304117374859944,0.052718459044342185,-2.50989211878967,0.0029190858917252606,2.33340211821013,0.7955426460716193
0.4497448439924974,0.00012294122212384178,0.24978417913535228,0.004134860692138707,0.9999403484489688,-0.005264717789408079,0.008346962688036445,0.448918200378361,0.0007114980688417768,0.25001263553979547,0.024624591205101024,0.999370993793181,-0.01325926752624744,0.02169387834661683,0.3201944455745451,-1.0707194985735133,-0.7938310955029048,0.6596183626753805,0.20336515940944389,0.30638276501492406,-0.05028907628346619,-0.19314576709190293,0.05281999027564551,-2.510168923967514,0.002689491665209944,2.333754985724725,0.7957972034065498
0.4497422859879598,0.00013345496301052582,0.24976252170410684,0.004237762144284471,0.9999395579795106,-0.005206655293736551,0.008426094708375678,0.448918200378361,0.0007114980688417768,0.25001263553979547,0.024624591205101024,0.999370993793181,-0.01325926752624744,0.02169387834661683,0.29643183899221665,-0.9688620408937649,-0.7893255077905751,0.655804235255025,0.2073666199224864,0.3091285550856669,-0.05029228297606621,-0.1931948346622762,0.05297094348956083,-2.510465816913281,0.0023339531049359472,2.334235528461029,0.7960619101432467
0.44976963165702294,0.0001227580762151858,0.24978491233495753,0.00431681615391563,0.9999386037669713,-0.005161001433517942,0.008526689449470652,0.449038149832265,0.0006824464120769242,0.2500057792173548,0.024502821648864016,0.9994202295780437,-0.013864759384241952,0.019020281649534492,0.29286853734796614,-1.0157167270145138,-0.7663825991487231,0.6621868618935037,0.2060884939681055,0.30610478065943986,-0.05029473087918686,-0.1932197034542623,0.05302141488265345,-2.510546428798178,0.0021451918688058947,2.334425781494218,0.7961311192197934
0.4497498112852148,0.00010745449255851469,0.24976191221609875,0.004376163440337724,0.9999382006640225,-0.005229285286991569,0.008502069878767409,0.449038149832265,0.0006824464120769242,0.2500057792173548,0.024502821648864016,0.9994202295780437,-0.013864759384241952,0.019020281649534492,0.20690975739162787,-0.9874237415076577,-0.7231364750454936,0.6540910211574744,0.18709620343733344,0.3068051093844513,-0.05029695609884494,-0.19326225381254586,0.05304776747550881,-2.510620060051156,0.0018975669913661813,2.334579506274723,0.7963266325333289
0.4497512636521528,0.00010533900396471522,0.24976443291427838,0.0044098602795890444,0.9999379227708982,-0.005243917856857217,0.008508327227144825,0.449038149832265,0.0006824464120769242,0.2500057792173548,0.024502821648864016,0.9994202295780437,-0.013864759384241952,0.019020281649534492,0.16450706793499975,-1.0584630323249822,-0.715778483317959,0.6613677760496625,0.172810135824943,0.3090422296821916,-0.05030114458273706,-0.1932650422464337,0.05304610887604418,-2.510634053879853,0.0017885602382030161,2.3345783285771624,0.7964684148626265
0.44975270848205606,9.997763760651147e-05,0.24976593258349095,0.004433215472848423,0.9999373591731685,-0.005320780623138059,0.008514704326642303,0.449038149832265,0.0006824464120769242,0.2500057792173548,0.024502821648864016,0.9994202295780437,-0.013864759384241952,0.019020281649534492,0.12273169245628618,-1.0060599856616237,-0.7400470154106644,0.6516837638188593,0.16883109384967274,0.3127353031638761,-0.05030114312574693,-0.19326438894914316,0.05306194505190444,-2.5106458064113033,0.0016861151906863911,2.3345953441790557,0.796646957215122
0.4497513730657193,9.867647938826563e-05,0.24976391661080116,0.004465011473627357,0.9999371494823847,-0.005333884793242445,0.008514516766813062,0.44918024802185574,0.0006770535918249478,0.2500227511781791,0.024218725639827025,0.9994678238423661,-0.0143207426584652,0.01635924693029938,0.13325874800663862,-1.0291550278044523,-0.7439764814499052,0.6609612176474294,0.16879225491090888,0.3175521820720181,-0.05029707891491054,-0.19327465342068062,0.05306526024320587,-2.510638465277392,0.0016238743302473433,2.334600835186308,0.7967612038025572
0.4497516552853976,9.505184499465147e-05,0.24976646139459804,0.004476888734505592,0.999936752831953,-0.005394513569609965,0.008516665341608921,0.44918024802185574,0.0006770535918249478,0.2500227511781791,0.024218725639827025,0.9994678238423661,-0.0143207426584652,0.01635924693029938,0.10073395668194858,-1.0376971561168646,-0.7624808355916195,0.6634518638001123,0.15792475489682237,0.3214063579283007,-0.05030753199059194,-0.19327380799247973,0.05307158333638827,-2.510643127340235,0.0015598534695655196,2.3346036479173677,0.7969558648709951
0.44975096328273273,9.6540952768712e-05,0.24976280574569218,0.004488189360740747,0.9999363894856396,-0.00545792627286363,0.00851297469851297,0.44918024802185574,0.0006770535918249478,0.2500227511781791,0.024218725639827025,0.9994678238423661,-0.0143207426584652,0.01635924693029938,0.05445204927445032,-1.0016202390185955,-0.7400350122763929,0.656018128031561,0.14061231729308699,0.32266297985906484,-0.050300886824554664,-0.1932739403903619,0.05307481486200713,-2.510646704019019,0.0015315889540020524,2.334602581487883,0.7970660838390597
0.4497495165182004,8.520580911239493e-05,0.24976346815981088,0.0045353655288025724,0.9999351876299312,-0.005634713823843227,0.00851396197015912,0.44918024802185574,0.0006770535918249478,0.2500227511781791,0.024218725639827025,0.9994678238423661,-0.0143207426584652,0.01635924693029938,0.07151294669629268,-1.074837044370816,-0.7358297855333455,0.662592402852158,0.1381228000138512,0.3255764199784698,-0.05030510681598308,-0.19327394049836877,0.05307814993936775,-2.510648633914389,0.0015005165986564303,2.3345984569921177,0.7974543916672964
0.44974476184241785,8.490816556884959e-05,0.24975731968628073,0.0045792960198760444,0.999934246108394,-0.0057735039981487435,0.008508037426602551,0.4493297504050391,0.0006886745703856552,0.250048413925102,0.02381522655717266,0.9995168173426939,-0.014355116994994812,0.013714359002247097,0.06218081691417071,-1.032517348534462,-0.7558975646880219,0.6684236281616086,0.12946067324803887,0.3325495809971604,-0.05029646065009569,-0.19327566294669757,0.05309601007624515,-2.5106506429234394,0.0013576504491390087,2.3346011497222805,0.7977740666838629
0.44974606037589887,8.37769632082141e-05,0.24976020418414388,0.004601144710517684,0.9999333587449007,-0.005900864509182381,0.008513158582438502,0.4493297504050391,0.0006886745703856552,0.250048413925102,0.02381522655717266,0.9995168173426939,-0.014355116994994812,0.013714359002247097,0.02973242709005079,-1.0056540713476574,-0.7690355185778965,0.6750567688329029,0.12137780194588188,0.33861594827264185,-0.050307058885395904,-0.19326825474479492,0.05310999741614786,-2.5106599622660726,0.0012118124773281811,2.3345979746667207,0.7981466996989691
0.4497446581724289,8.246796558440156e-05,0.24975592364214347,0.004615692279689329,0.9999330244872761,-0.005953871025235966,0.008507636323249312,0.4493297504050391,0.0006886745703856552,0.250048413925102,0.02381522655717266,0.9995168173426939,-0.014355116994994812,0.013714359002247097,0.007721895282632425,-1.0764316814095394,-0.7429797882182797,0.6753503002730504,0.10830966680120976,0.32954592611896527,-0.05030045702313079,-0.19327353570963207,0.053119581370147884,-2.5106569214193692,0.001174829555767435,2.3346013365841625,0.7983531872575796
0.44974450837919805,8.395850076229185e-05,0.24975592946023514,0.004628015981925012,0.9999325539178687,-0.006022791899159058,0.008507736985307934,0.4493297504050391,0.0006886745703856552,0.250048413925102,0.02381522655717266,0.9995168173426939,-0.014355116994994812,0.013714359002247097,0.052089403763029625,-1.1061004130103873,-0.7852351229151879,0.6816122974439425,0.11914535183332137,0.3301732849465874,-0.05029650627610098,-0.19326861581274923,0.053134498602940845,-2.5106599511266574,0.001132509543522046,2.3345974526172677,0.7985919250753201
0.4497446743728875,8.84824669946204e-05,0.24975703096994975,0.004648515022606667,0.9999321062923997,-0.00607779314765656,0.008510056902987248,0.4493297504050391,0.0006886745703856552,0.250048413925102,0.02381522655717266,0.9995168173426939,-0.014355116994994812,0.013714359002247097,0.04323590322522139,-1.0725273092835725,-0.7897079476878058,0.6774998870382499,0.11770476905613116,0.33293668258971865,-0.050296131812717325,-0.19326824597996298,0.05314181918078053,-2.5106576014801454,0.0011184607979428855,2.3345987372620334,0.7986878960144713
0.4497425521664535,9.034431989958515e-05,0.24975477226768017,0.004677640038668962,0.9999318879958966,-0.0060954012929683304,0.008507153400760298,0.4493297504050391,0.0006886745703856552,0.250048413925102,0.02381522655717266,0.9995168173426939,-0.014355116994994812,0.013714359002247097,0.02493645588847685,-1.0645578793179573,-0.782072736401015,0.6767599327606927,0.11402846827541807,0.33102569537623067,-0.05029837439711191,-0.19327074872004452,0.053164703823762025,-2.510664194040087,0.0010156221644261724,2.334598512113168,0.7988733848494673
0.4497437733983146,8.261082404914114e-05,0.24975706905708445,0.004707339243304714,0.9999315835617244,-0.006117174431637862,0.008510925446709729,0.4493297504050391,0.0006886745703856552,0.250048413925102,0.02381522655717266,0.9995168173426939,-0.014355116994994812,0.013714359002247097,0.026587306787630483,-1.0949055336973945,-0.7739293861084268,0.6812011545472298,0.11678047415205794,0.3301330418200023,-0.05030432594051422,-0.19327003981336294,0.05316466653300715,-2.5106588774006484,0.0009643423416939508,2.3346015043803066,0.7989353916933178
0.44974379818908405,7.983274429986247e-05,0.24975677139558491,0.004737373584449822,0.9999313749057254,-0.006129966752976552,0.00850957105358633,0.4493297504050391,0.0006886745703856552,0.250048413925102,0.02381522655717266,0.9995168173426939,-0.014355116994994812,0.013714359002247097,0.02727320033506562,-1.0706194658356252,-0.7762921579047015,0.6845927420607603,0.11711136200459224,0.33422388329983005,-0.05029794730783872,-0.19327353862580052,0.053180876702573904,-2.5106589108701716,0.0008478644312052314,2.3346006328259894,0.7990574963836455
0.44974401056824903,8.057024817548405e-05,0.2497569110275653,0.0047542385049369066,0.9999311860167436,-0.00614691452806767,0.008510135687015197,0.4493297504050391,0.0006886745703856552,0.250048413925102,0.02381522655717266,0.9995168173426939,-0.014355116994994812,0.013714359002247097,0.02887867962989454,-1.0790443053588827,-0.7772554373203145,0.687689881737712,0.11676166260551323,0.3356736589967976,-0.050300431712320945,-0.19327003970548856,0.05318669738133304,-2.5106568350927434,0.0008092195037983392,2.334598513546804,0.7991094483572452
0.44974518976499156,7.960395157294647e-05,0.24975758682505061,0.00476804292344407,0.9999309269150284,-0.006176451090782521,0.008511470844879142,0.4493297504050391,0.0006886745703856552,0.250048413925102,0.02381522655717266,0.9995168173426939,-0.014355116994994812,0.013714359002247097,0.030982655551155654,-1.0670124264623122,-0.7791120229939116,0.6839421884474403,0.1165427177127425,0.337189784470242,-0.05029589472551766,-0.19326824301760245,0.05319984943062553,-2.5106543379370985,0.0007548299984789535,2.3345962814578005,0.7992249822846309
0.4497441649394656,7.70561593100544e-05,0.24975875755890223,0.004793505561427087,0.9999306710312008,-0.006196716052871327,0.008512500394456425,0.4493297504050391,0.0006886745703856552,0.250048413925102,0.02381522655717266,0.9995168173426939,-0.014355116994994812,0.013714359002247097,0.013771331342571427,-1.0952766568957202,-0.7471682947827049,0.6914501915355392,0.11102770905797779,0.34097490488489496,-0.05030110377959375,-0.19327400702650202,0.05320909694419338,-2.510657780000677,0.0007014575100267208,2.3345974924008366,0.7992632509422184
0.44974326086569394,7.914890040757698e-05,0.2497566858463741,0.00481152405277905,0.9999304034883764,-0.006228427453536548,0.008510618232654865,0.4493297504050391,0.0006886745703856552,0.250048413925102,0.02381522655717266,0.9995168173426939,-0.014355116994994812,0.013714359002247097,0.03244079406735175,-1.0872297743188801,-0.7819056496184328,0.6981480140858732,0.11743155411511992,0.3473818651733535,-0.05030040215745549,-0.19326824595969916,0.053218240522674286,-2.5106570736471667,0.000673127986642219,2.3345988653059275,0.799371865261029
0.4497424324543121,7.922136709902431e-05,0.24975466046890107,0.004822552732516479,0.9999302833516993,-0.006240425446291315,0.008509701889322393,0.4493297504050391,0.0006886745703856552,0.250048413925102,0.02381522655717266,0.9995168173426939,-0.014355116994994812,0.013714359002247097,0.022616315317113098,-1.0957988830800691,-0.7805106249139779,0.6941572395338016,0.11449801971597899,0.3432880853314598,-0.05029609672073838,-0.19327345660470227,0.05321862678005208,-2.510656860644087,0.0006396254727770789,2.334598512113387,0.799432836254625
0.44974378356832184,8.01867898432942e-05,0.24975720729558043,0.004837374117665128,0.9999300556737394,-0.00626169832356234,0.008512415605796327,0.4493297504050391,0.0006886745703856552,0.250048413925102,0.02381522655717266,0.9995168173426939,-0.014355116994994812,0.013714359002247097,0.011326798764154404,-1.0755119641229425,-0.7823683748201681,0.6821777976103225,0.11268306848730031,0.33937384304404705,-0.050300464328800344,-0.19327066961513129,0.05323438479312322,-2.5106575324027007,0.0005968322192225402,2.3345998099873606,0.7995235974843089
0.4497426415648041,7.79101110847704e-05,0.24975497941491323,0.0048519541742553995,0.9999297033311434,-0.006310765951860525,0.008509270256396861,0.4493297504050391,0.0006886745703856552,0.250048413925102,0.02381522655717266,0.9995168173426939,-0.014355116994994812,0.013714359002247097,0.005977112585487982,-1.0911414143839395,-0.7483879631009985,0.6901601223064515,0.10977000879180272,0.3473306128534953,-0.05029794682065829,-0.19327329835872153,0.053243807242278264,-2.5106623556492975,0.0005623153228220694,2.3345971044543514,0.7995644086673708
0.44974269762749963,7.610269243961434e-05,0.24975430303198862,0.004875844758270974,0.9999296373000345,-0.006302837163532982,0.008509250348840858,0.4493297504050391,0.0006886745703856552,0.250048413925102,0.02381522655717266,0.9995168173426939,-0.014355116994994812,0.013714359002247097,0.04388339972884504,-1.0886046459641865,-0.7582491791863578,0.6885859672782275,0.11444167293173012,0.3388225341868767,-0.05030079743790986,-0.1932654590047332,0.053255500459952906,-2.5106597309664274,0.0005097292576742748,2.3345975703541724,0.799714619580455
0.4497436166048755,7.155393640702164e-05,0.2497561122469358,0.004900804329250614,0.9999295702379647,-0.006292185590043776,0.00851067521917967,0.4493297504050391,0.0006886745703856552,0.250048413925102,0.02381522655717266,0.9995168173426939,-0.014355116994994812,0.013714359002247097,0.019643142504204642,-1.0796299945707586,-0.7883924681831925,0.6873668418527319,0.11183153161544826,0.33662052114208335,-0.050295855918777374,-0.19327249823012135,0.053251302832111914,-2.5106599335365782,0.0004596204034449457,2.334596740379193,0.799733538554055
0.44974234552591413,7.189625093604257e-05,0.24975551576081859,0.00491593987321769,0.9999294721689294,-0.006295216186870588,0.0085112271527893,0.4493297504050391,0.0006886745703856552,0.250048413925102,0.02381522655717266,0.9995168173426939,-0.014355116994994812,0.013714359002247097,0.010135614880548212,-1.0843441597046861,-0.7841563472878,0.6861354481833521,0.11105188414972142,0.33709067919385444,-0.05029797312764473,-0.19327604132704593,0.05326338747896269,-2.510664990406669,0.00037544042104474003,2.3345990221200354,0.7997920881104102
0.44974507465444086,7.658746743125744e-05,0.24975990432479506,0.004930195028107232,0.9999294471376486,-0.006282858522569745,0.008515052840204576,0.4493297504050391,0.0006886745703856552,0.250048413925102,0.02381522655717266,0.9995168173426939,-0.014355116994994812,0.013714359002247097,-0.0018501279394323132,-1.0572087562591879,-0.7720082135612418,0.6855785248110484,0.10987056608548824,0.3379010305827208,-0.05029294439139169,-0.1932707516497244,0.053272544294767396,-2.510666976430557,0.000353087128741574,2.3345983102145333,0.7998160737620336
0.44974573884929386,7.525445029176421e-05,0.2497591233369256,0.00493800844520671,0.9999293165060639,-0.00629640221629252,0.008515861361381424,0.4493297504050391,0.0006886745703856552,0.250048413925102,0.02381522655717266,0.9995168173426939,-0.014355116994994812,0.013714359002247097,0.011514039160770166,-1.09263068812329,-0.7750907430748745,0.687261715169027,0.11149036288873121,0.3394101559494835,-0.05030046173059364,-0.19327345515788144,0.05328535503042356,-2.5106565105205285,0.00030775543702374325,2.334597452455097,0.7998663721712302
0.44974551921299627,7.371746896140533e-05,0.24975764898656186,0.00494770402840194,0.9999292163790426,-0.006309108163601261,0.008512586042715544,0.4493297504050391,0.0006886745703856552,0.250048413925102,0.02381522655717266,0.9995168173426939,-0.014355116994994812,0.013714359002247097,-0.00035572809071251577,-1.0370309747990676,-0.7692904789693895,0.6772869938415531,0.10864837096776535,0.3392132186889433,-0.05029615243100193,-0.19327596225846774,0.05328879734450616,-2.510662629339537,0.00029315972671380456,2.334598517962001,0.7998848731168824
0.4497431255881204,7.425443945352367e-05,0.24975657448962385,0.004957743710510399,0.9999291809995596,-0.006307614262207807,0.008512007740495446,0.4493297504050391,0.0006886745703856552,0.250048413925102,0.02381522655717266,0.9995168173426939,-0.014355116994994812,0.013714359002247097,0.015593612721867272,-1.1013138120860362,-0.7526942683251174,0.6853585923727151,0.11010722060195535,0.3367896709698617,-0.05029626886371719,-0.19327353570961553,0.05329786416454467,-2.5106575241677107,0.00026200705936017907,2.3345967418320455,0.7999300201878989
0.4497460076496892,7.982267771051361e-05,0.2497605244072886,0.004966153677502428,0.9999291371797607,-0.0063018742434257854,0.008516503306138448,0.4493297504050391,0.0006886745703856552,0.250048413925102,0.02381522655717266,0.9995168173426939,-0.014355116994994812,0.013714359002247097,0.0032007407055363885,-1.122195785918451,-0.7673541628006872,0.6869311880963266,0.1096575754601588,0.3354930002298324,-0.05029570553752951,-0.1932734566046848,0.05329854986384508,-2.5106619523483404,0.00024168932919536916,2.3345983098636625,0.7999436637285554
0.44974383486463404,7.62323752375016e-05,0.24975668344079208,0.00497243244078051,0.9999291092491194,-0.006306604915876915,0.008512616341950538,0.4493297504050391,0.0006886745703856552,0.250048413925102,0.02381522655717266,0.9995168173426939,-0.014355116994994812,0.013714359002247097,-0.0015562349436414311,-1.083371038932133,-0.76443907826474,0.6855658424158017,0.11019167561036781,0.3419477619112361,-0.050295432398868134,-0.19326996023872106,0.053313427833247246,-2.510659724038024,0.00021292712863496603,2.3345992232348687,0.7999701679196034
0.4497438216861182,7.954042260992622e-05,0.24975677551735706,0.004978784742723682,0.9999290387883578,-0.006313012326001047,0.008512430670755328,0.4493297504050391,0.0006886745703856552,0.250048413925102,0.02381522655717266,0.9995168173426939,-0.014355116994994812,0.013714359002247097,0.004118639690120524,-1.0850046396482673,-0.7576102294733587,0.6883365819377295,0.10716863594871771,0.3446199091265261,-0.05029794682065645,-0.19327137306968692,0.05331354420705863,-2.510664200556559,0.0002048938010712404,2.334597466990829,0.799988736879678
0.4497438693231609,8.173508019975754e-05,0.24975744457032806,0.004990026306770562,0.9999290317042302,-0.006304218843822708,0.008513197288800376,0.4493297504050391,0.0006886745703856552,0.250048413925102,0.02381522655717266,0.9995168173426939,-0.014355116994994812,0.013714359002247097,0.01611507290904876,-1.1160365849400329,-0.748180202406747,0.6861721167611926,0.10622189625592647,0.3368743168307991,-0.05029760434420167,-0.19326766623186153,0.05332308088982268,-2.5106606734400585,0.00017475539281173056,2.3345997935896365,0.8000192265238822
0.44974208695963014,8.183666689490747e-05,0.24975555361238425,0.004995902854879176,0.9999289984367645,-0.006306988578298489,0.008511606524572887,0.4493297504050391,0.0006886745703856552,0.250048413925102,0.02381522655717266,0.9995168173426939,-0.014355116994994812,0.013714359002247097,-0.018796860496055803,-1.0824744161023816,-0.8095034191859055,0.683591831530715,0.10680672853625695,0.34216363235727965,-0.050292272150387105,-0.19326755701524584,0.05333320177324835,-2.5106654716064902,0.00015708012187222453,2.33459826625718,0.8000285283474526
0.44974158726218816,8.142188509701343e-05,0.24975393378349656,0.005001475117669251,0.9999289291992896,-0.006316603951904467,0.008509337317446207,0.4493297504050391,0.0006886745703856552,0.250048413925102,0.02381522655717266,0.9995168173426939,-0.014355116994994812,0.013714359002247097,0.005254299858022818,-1.091546914183118,-0.7698745021525762,0.6867874903920945,0.11318885978278406,0.34455641369670653,-0.05029544113168435,-0.19327075152928835,0.053334394457592964,-2.5106599231741145,0.0001360918457735716,2.3346006711264464,0.8000623162924733
0.4497437938858485,8.440594127510327e-05,0.24975541373347687,0.005006820309144437,0.99992887256093,-0.006318033634927489,0.008511787731029707,0.4493297504050391,0.0006886745703856552,0.250048413925102,0.02381522655717266,0.9995168173426939,-0.014355116994994812,0.013714359002247097,0.017965540355205683,-1.106540049817747,-0.7324769045994128,0.6927564703441421,0.1120869639216888,0.3496597199799481,-0.050295125484059885,-0.1932735356005085,0.053339350898562524,-2.510662017502627,0.00012975877577770588,2.3345974655372714,0.8000872778007679
0.44974378138678506,8.254079069707188e-05,0.24975764577199444,0.005013938720070633,0.999928771103129,-0.006325823642618143,0.008513730289164873,0.4493297504050391,0.0006886745703856552,0.250048413925102,0.02381522655717266,0.9995168173426939,-0.014355116994994812,0.013714359002247097,-0.0033460938609279605,-1.0823240245418864,-0.7587448243619055,0.6899720696643975,0.10511310239176735,0.3514625775982242,-0.05030111675262491,-0.19326860567695842,0.05334844440988795,-2.5106599447037943,0.00011070120853649184,2.3345997921360864,0.8001214499422298
0.4497425545238299,8.266980253137232e-05,0.24975515931407197,0.0050195539967371194,0.9999287213185857,-0.00633273160233221,0.00851113267320649,0.4493297504050391,0.0006886745703856552,0.250048413925102,0.02381522655717266,0.9995168173426939,-0.014355116994994812,0.013714359002247097,-0.02020674545350843,-1.1227363453151937,-0.7917326528721979,0.6958141995205396,0.10692336476436426,0.35007802722714404,-0.05029294753225173,-0.1932700014732413,0.053349274044430614,-2.51065997527874,9.357756251109894e-05,2.3345974510015464,0.8001357876720748
0.4497426896884389,7.999646355354493e-05,0.24975620803599058,0.005024776020580419,0.9999286442165788,-0.006339684075285088,0.008511933717722074,0.4493297504050391,0.0006886745703856552,0.250048413925102,0.02381522655717266,0.9995168173426939,-0.014355116994994812,0.013714359002247097,-0.015537979138834363,-1.1113959693991728,-0.7622006842798269,0.6941650182037994,0.10927214186143441,0.34989857780684497,-0.05029615567915757,-0.19327390541643483,0.053349954505662066,-2.510662638278466,7.312886520471608e-05,2.3345974524732633,0.8001698653018607
0.44974146681806226,7.854652425174105e-05,0.24975230533943282,0.00503330326804725,0.9999285949816653,-0.006345648843313485,0.008508233967706622,0.4493297504050391,0.0006886745703856552,0.250048413925102,0.02381522655717266,0.9995168173426939,-0.014355116994994812,0.013714359002247097,-0.018379942970053954,-1.1147456362064871,-0.7694351575858838,0.694095891355384,0.1082453152433399,0.35101915893289953,-0.05029818358533384,-0.19327068793081958,0.05335287885760006,-2.510662020913002,6.002222024167762e-05,2.3345974568157475,0.8001817558510737
0.44974269967453245,8.225192461475504e-05,0.2497550048493433,0.005038119994740744,0.9999285582314718,-0.006343409112814792,0.008511371763727875,0.4493297504050391,0.0006886745703856552,0.250048413925102,0.02381522655717266,0.9995168173426939,-0.014355116994994812,0.013714359002247097,-0.01654879739429524,-1.1231879920516727,-0.7685823347296472,0.6992381099017819,0.10936691073994283,0.35096417022796483,-0.05029605580286293,-0.1932707505633678,0.05335916476632368,-2.5106604217102477,3.9625586867407e-05,2.334596986716817,0.8002189638730297
0.4497433372536137,8.247411369709443e-05,0.24975723630213906,0.005061018254416865,0.9999285578780375,-0.006322961222721087,0.008513043241038867,0.4493297504050391,0.0006886745703856552,0.250048413925102,0.02381522655717266,0.9995168173426939,-0.014355116994994812,0.013714359002247097,-0.008823699006765886,-1.1453814258057848,-0.7682626875061648,0.6929810835639568,0.10975846786448816,0.3395183976652443,-0.05029520440502473,-0.19327580078777062,0.05336246727305748,-2.5106596699790478,1.3323846171466833e-05,2.3345983055050388,0.8002190038490605
0.44974257595884026,7.842910314372158e-05,0.24975524839876245,0.005080768314355185,0.9999285169771196,-0.006315691383898701,0.008511479409050884,0.4493297504050391,0.0006886745703856552,0.250048413925102,0.02381522655717266,0.9995168173426939,-0.014355116994994812,0.013714359002247097,0.002768339127624636,-1.1007530101819984,-0.7616676426469274,0.6993839021754014,0.10710223636933414,0.34743384037301167,-0.050295361258594254,-0.19327033201272037,0.053374840711666566,-2.510659934529242,-5.845596430455322e-05,2.334598978334003,0.800249143081088
0.4497434744063446,7.743237283123234e-05,0.24975637362616038,0.005101742774065887,0.9999284719567019,-0.006304613341046456,0.008512435163253229,0.4493297504050391,0.0006886745703856552,0.250048413925102,0.02381522655717266,0.9995168173426939,-0.014355116994994812,0.013714359002247097,-0.01857750973624753,-1.116754984833083,-0.7868658804771256,0.7017233809801593,0.10440490464152823,0.35116042516610557,-0.050300448577058246,-0.19327043083544404,0.05337596276230213,-2.510662200975214,-0.00010764113223200804,2.3345982617290417,0.8002742964364155
0.4497433280739604,7.465951022474705e-05,0.24975676528851196,0.0051146898426477965,0.9999283801471399,-0.006306108514759097,0.008514342618540071,0.4493297504050391,0.0006886745703856552,0.250048413925102,0.02381522655717266,0.9995168173426939,-0.014355116994994812,0.013714359002247097,-0.012075542070256153,-1.1200344958839226,-0.7700081536726715,0.7025007481087523,0.10779038028441189,0.3522004837783516,-0.05029196210342868,-0.19327350923261205,0.05338482923979902,-2.510665191077815,-0.00016190834334692275,2.3345959280297435,0.8003091291872714
0.44974447327634737,7.55557284282789e-05,0.24975769240421178,0.005126160946308444,0.9999283623967483,-0.006300034535511636,0.008514025160002152,0.4493297504050391,0.0006886745703856552,0.250048413925102,0.02381522655717266,0.9995168173426939,-0.014355116994994812,0.013714359002247097,-0.010606142820491344,-1.0910392471157806,-0.7760334815324529,0.6984073324514074,0.11057694647881532,0.3492758334473128,-0.05029482989179369,-0.19326853671178934,0.053388980369934946,-2.5106627185888457,-0.00018448765946306036,2.3345967403782817,0.8003225457027284
0.44974265359711907,7.572907369975061e-05,0.24975434301331714,0.0051325517435883445,0.9999283423653942,-0.006301663596037808,0.008511321512081005,0.4493297504050391,0.0006886745703856552,0.250048413925102,0.02381522655717266,0.9995168173426939,-0.014355116994994812,0.013714359002247097,-0.008858973881537205,-1.1275023010586125,-0.7827245795401392,0.6996091290621238,0.11117202973515826,0.3477166293794336,-0.05029475100859761,-0.19327329839350302,0.05340358681282199,-2.5106627182741397,-0.00021427778113339201,2.334596742477846,0.800344704341168
0.44974268611522683,8.06431862228878e-05,0.24975620053031455,0.00513520112858864,0.999928323789181,-0.006299842177222342,0.00851325396929459,0.4493297504050391,0.0006886745703856552,0.250048413925102,0.02381522655717266,0.9995168173426939,-0.014355116994994812,0.013714359002247097,0.0103128627863663,-1.1042945834582683,-0.7432322322182519,0.6934323851352495,0.11047030486105475,0.34801744744375596,-0.050292573700827924,-0.19327350044337324,0.053410737452820455,-2.5106600183020324,-0.00021891268057183525,2.334596740378577,0.8003499711849453
0.44974289271030565,7.954466943487443e-05,0.2497553890025638,0.005140829029853458,0.9999283034544629,-0.006299251149311576,0.008512683104333368,0.4493297504050391,0.0006886745703856552,0.250048413925102,0.02381522655717266,0.9995168173426939,-0.014355116994994812,0.013714359002247097,0.00279054771591232,-1.1026954709372143,-0.7638950201060505,0.6878998952041588,0.10798105527821697,0.34610272467247044,-0.05029441486656706,-0.19327039898682874,0.053410404790388666,-2.510661009409819,-0.00023349570155239993,2.334597334771362,0.8003650906994244
0.44974378830971307,8.143572731317818e-05,0.2497575772988592,0.005145229548524327,0.999928287362616,-0.006295957600730996,0.008514351070971543,0.4493297504050391,0.0006886745703856552,0.250048413925102,0.02381522655717266,0.9995168173426939,-0.014355116994994812,0.013714359002247097,0.033473391073762175,-1.1176802529499321,-0.8229019966360337,0.6902427839805443,0.11839609149209172,0.34673276415992643,-0.05029544115038848,-0.19326790315448084,0.05341638514921553,-2.510661034597981,-0.00023570319880533122,2.3345978000164056,0.8003703712010275
0.4497422025382329,8.088068887987912e-05,0.2497557513037385,0.005145740822036683,0.9999282302547231,-0.006306680698995713,0.008512812712112716,0.4493297504050391,0.0006886745703856552,0.250048413925102,0.02381522655717266,0.9995168173426939,-0.014355116994994812,0.013714359002247097,-0.01726254696533583,-1.1200489437021348,-0.7857189542055346,0.6920249726337805,0.11030912520932946,0.3513866421173043,-0.05029794682050245,-0.1932732983948427,0.05341679402413141,-2.510664455064697,-0.00024788187420837077,2.3345969863758254,0.8003956378677702
