platonics-delft/platonics_dataset/execution_data/data_trial2.csv
current_pos_x,current_pos_y,current_pos_z,current_orientation_w,current_orientation_x,current_orientation_y,current_orientation_z,goal_pos_x,goal_pos_y,goal_pos_z,goal_orientation_w,goal_orientation_x,goal_orientation_y,goal_orientation_z,force_x,force_y,force_z,torque_x,torque_y,torque_z,joint_1,joint_2,joint_3,joint_4,joint_5,joint_6,joint_7
0.45007897196470886,6.506213055566419e-05,0.2500651060429677,0.003434199055865991,0.9999701718338823,-0.00644670464630309,-0.0012199264915078297,0.4510595520207597,-0.0005124822966271706,0.250638031934404,-0.0026614389824971174,0.9998252594934665,-0.00045689655037818263,-0.01975597744423138,-0.6148522078995273,0.9361170455433176,-1.549334391683811,-0.30030659682874095,-0.2422830254552141,-0.2552309370158057,-0.09613627163467044,-0.18441213209903395,0.0980280332980027,-2.4945027670631488,0.014993755697711797,2.3084153556675293,0.7884096030521833
0.4500806116606035,6.596455164683256e-05,0.2500692382495679,0.003435187648003056,0.9999701825584261,-0.006444964676404046,-0.0012175435924759678,0.4510595520207597,-0.0005124822966271706,0.250638031934404,-0.0026614389824971174,0.9998252594934665,-0.00045689655037818263,-0.01975597744423138,-0.6380352625529102,0.9694290244166685,-1.580160612485678,-0.3070365641471577,-0.24256592728682674,-0.2615043827637311,-0.09613348423786007,-0.18441491518522563,0.09802779752189061,-2.4945071998706925,0.014988721716177215,2.30841498849127,0.7884051116055624
0.45008274880508226,6.753096563755792e-05,0.2500688661593777,0.003436104818161526,0.9999702056743421,-0.006440573492534544,-0.0012192058238543802,0.4510595520207597,-0.0005124822966271706,0.250638031934404,-0.0026614389824971174,0.9998252594934665,-0.00045689655037818263,-0.01975597744423138,-0.617156455577251,0.9618716219393484,-1.557813961069279,-0.30201928966732233,-0.24137187233886784,-0.2573027188422028,-0.09613524495966394,-0.18441519318858063,0.09803264554363698,-2.494502762081608,0.014988391920747881,2.308411673400973,0.7884065705976827
0.4500814612129372,6.603043827260491e-05,0.25006678056685794,0.003434862354813124,0.9999701797908898,-0.0064447715951053515,-0.0012217491013534042,0.4510595520207597,-0.0005124822966271706,0.250638031934404,-0.0026614389824971174,0.9998252594934665,-0.00045689655037818263,-0.01975597744423138,-0.6200245700571924,0.9581756268172621,-1.5490906607447568,-0.2959579238591192,-0.2419501874771117,-0.25335692638656243,-0.09613877979428054,-0.1844116064168974,0.09802455525876538,-2.4944960036490493,0.014993750625142032,2.3084032137924506,0.7884090748460701
0.45007995418153735,6.613329674018815e-05,0.2500668426774923,0.0034351168409214603,0.9999701871900885,-0.006442878662944098,-0.0012249572079658809,0.4510595520207597,-0.0005124822966271706,0.250638031934404,-0.0026614389824971174,0.9998252594934665,-0.00045689655037818263,-0.01975597744423138,-0.5930314376934558,0.9736096296144607,-1.5248690599761674,-0.3042998992388646,-0.23826615319821565,-0.26100352762616386,-0.09613877983393113,-0.18441110698192242,0.09802551419916145,-2.4944959962944737,0.014993140392928263,2.3084047004254264,0.7884029955007669
0.45008203765708005,6.877529628716772e-05,0.2500679122045237,0.003434922267996113,0.9999702047570237,-0.006440087101545182,-0.0012258416800374173,0.4510595520207597,-0.0005124822966271706,0.250638031934404,-0.0026614389824971174,0.9998252594934665,-0.00045689655037818263,-0.01975597744423138,-0.5958502716070084,0.959550425616277,-1.560330961505975,-0.30113216633837464,-0.23758732268791674,-0.2573067737601502,-0.09613337904643894,-0.18440531899611004,0.09802915083437538,-2.4944901321806916,0.014991096006845853,2.3083952030007886,0.7884052733955766
0.45007983250766026,6.791871590944846e-05,0.25006521784356806,0.003433368568189743,0.9999701880186795,-0.006442540641834888,-0.0012309454005459781,0.4510595520207597,-0.0005124822966271706,0.250638031934404,-0.0026614389824971174,0.9998252594934665,-0.00045689655037818263,-0.01975597744423138,-0.6172649941515679,0.9607300196298856,-1.5560155028555345,-0.2996459659936436,-0.2412517494650923,-0.2532156600353525,-0.0961366460448982,-0.1844046751197182,0.09802938654091348,-2.494483941813593,0.01499015891732018,2.3083904919717715,0.7884022990637036
0.45008107303359113,6.611243914273364e-05,0.2500662105559194,0.003434567569996297,0.9999701799303545,-0.006443404668137193,-0.0012296480104202509,0.4510595520207597,-0.0005124822966271706,0.250638031934404,-0.0026614389824971174,0.9998252594934665,-0.00045689655037818263,-0.01975597744423138,-0.6250886073545889,0.9880827043492458,-1.553353172781939,-0.30050475735242727,-0.2435533678289668,-0.2527465919721816,-0.09613942809574136,-0.18440487185372584,0.09802698232827681,-2.494483378553055,0.014988981814518309,2.3083844950264485,0.7884103674381343
0.4500839467720538,6.544189834004206e-05,0.2500699781756552,0.0034334758838645758,0.9999701757053215,-0.00644516936836816,-0.001226881091342958,0.4510595520207597,-0.0005124822966271706,0.250638031934404,-0.0026614389824971174,0.9998252594934665,-0.00045689655037818263,-0.01975597744423138,-0.6319221916601641,0.9415248021087367,-1.562165214950821,-0.2982148129404104,-0.24273500560805755,-0.2565458797152396,-0.09614196881349815,-0.18440463564270415,0.0980272177456921,-2.494482373277705,0.014989317236473445,2.3083848538364466,0.7884126558901583
0.45008517517295765,6.566530836040103e-05,0.25007213041359,0.003433580139898985,0.9999701828614995,-0.0064444236727165,-0.0012246718379424588,0.4510595520207597,-0.0005124822966271706,0.250638031934404,-0.0026614389824971174,0.9998252594934665,-0.00045689655037818263,-0.01975597744423138,-0.6079173172963563,0.9581877007556466,-1.5342126182116953,-0.3018988703264284,-0.2417835702167332,-0.25686960776076584,-0.09613419748607453,-0.18440212998887193,0.09802698199564305,-2.4944731010080075,0.014988393435092286,2.3083826687506743,0.7884112007753741
0.45008048659312877,6.699209390846655e-05,0.2500656457073611,0.003432924229231943,0.9999701619082528,-0.006445120842600576,-0.001239856411930078,0.4510595520207597,-0.0005124822966271706,0.250638031934404,-0.0026614389824971174,0.9998252594934665,-0.00045689655037818263,-0.01975597744423138,-0.6103351339578704,0.958138351336978,-1.569688298647756,-0.3036694687261187,-0.24152572155232827,-0.2579287902786555,-0.09613359210056625,-0.18440226380803454,0.09802661533530452,-2.494467720834004,0.01498836496042085,2.3083808978313183,0.7884086972006714
0.45008440747640627,6.556503295424654e-05,0.25006961181866905,0.0034337272415846335,0.9999701726424386,-0.006444011154629707,-0.001234732832946343,0.4510595520207597,-0.0005124822966271706,0.250638031934404,-0.0026614389824971174,0.9998252594934665,-0.00045689655037818263,-0.01975597744423138,-0.6177190760843656,0.9573234551819769,-1.5647625549153534,-0.3024055198090379,-0.2422253080085802,-0.25733019454867195,-0.09613627125697903,-0.18439252940851625,0.0980245326428682,-2.494461380164581,0.014987746545361582,2.308361010040445,0.7884054689114763
0.45008729413389637,6.552920930242386e-05,0.2500723308328878,0.003434149568685233,0.9999701562226516,-0.006446441172961153,-0.0012341714168434474,0.4510595520207597,-0.0005124822966271706,0.250638031934404,-0.0026614389824971174,0.9998252594934665,-0.00045689655037818263,-0.01975597744423138,-0.6018791401742769,0.979290262876106,-1.5444025214157335,-0.3062683368047174,-0.23864715008899845,-0.25612213744715945,-0.09613877691114693,-0.18439702824823023,0.09802698089013125,-2.4944560837842458,0.014989319186913602,2.308362983743728,0.7884053432744397
0.4500847335422002,6.659328654654915e-05,0.25007097981103715,0.003434365001972594,0.9999701763087592,-0.006442637253852901,-0.0012371570678700835,0.4510595520207597,-0.0005124822966271706,0.250638031934404,-0.0026614389824971174,0.9998252594934665,-0.00045689655037818263,-0.01975597744423138,-0.6214917779616511,0.9608952317495085,-1.5524530996475796,-0.3026407202188663,-0.24299842329202923,-0.25447873998027976,-0.09613098154322218,-0.1843918355452387,0.09802721763563434,-2.4944542814405497,0.014989436194447096,2.3083558300697913,0.7884088685388299
0.4500808862367572,6.322529095108906e-05,0.2500658265719859,0.0034336847725981684,0.9999701443811044,-0.006445671161827364,-0.0012489918870964298,0.4510595520207597,-0.0005124822966271706,0.250638031934404,-0.0026614389824971174,0.9998252594934665,-0.00045689655037818263,-0.01975597744423138,-0.6379114284528675,0.9658387514212285,-1.5624959691725113,-0.30343549372589296,-0.24664945731439045,-0.25548755237310056,-0.09613348427439207,-0.1843897057579941,0.09802698130598023,-2.4944535742670357,0.014990978717615096,2.308350175781652,0.7884114191486273
0.45008823788544255,6.608567521358054e-05,0.2500746700023331,0.0034324458923172376,0.999970172417641,-0.006443790547068763,-0.0012396192466272858,0.4510595520207597,-0.0005124822966271706,0.250638031934404,-0.0026614389824971174,0.9998252594934665,-0.00045689655037818263,-0.01975597744423138,-0.6253446962056545,0.9608122545977192,-1.5510982962708628,-0.3032492807815048,-0.24801812571107548,-0.2551972394132251,-0.0961326721256541,-0.1843855629749234,0.09802448691097032,-2.4944433762092886,0.014987746064058931,2.3083358706074626,0.7884034120517754
0.45008565640994475,6.495326606523107e-05,0.2500705303888542,0.003433062722006356,0.9999701347290897,-0.006447920508913936,-0.0012468172877679548,0.4510595520207597,-0.0005124822966271706,0.250638031934404,-0.0026614389824971174,0.9998252594934665,-0.00045689655037818263,-0.01975597744423138,-0.621400289132009,0.9608018802930793,-1.5542370409605901,-0.3013560953277172,-0.24505203173849716,-0.25360764441898065,-0.0961335661182896,-0.18438816280305997,0.09802698098100514,-2.4944334220762445,0.014988523261063817,2.308329796926321,0.7884123878044211
0.4500864539739901,6.408355728858244e-05,0.2500728284652585,0.0034320482948375078,0.999970119471506,-0.00645061725857945,-0.0012478972172524727,0.4510595520207597,-0.0005124822966271706,0.250638031934404,-0.0026614389824971174,0.9998252594934665,-0.00045689655037818263,-0.01975597744423138,-0.6259689295080564,0.9522159401148564,-1.5870370211134606,-0.29255150179161316,-0.24286436187562188,-0.24733924072847305,-0.09613944124965748,-0.18437751755054882,0.09802169114719923,-2.494428021108472,0.014989358339770335,2.3083242878886057,0.7884096944605562
0.4500869004240743,6.731807857454971e-05,0.2500731748548266,0.003433926240421823,0.9999701724273478,-0.006440743585628057,-0.0012512916168900207,0.4510595520207597,-0.0005124822966271706,0.250638031934404,-0.0026614389824971174,0.9998252594934665,-0.00045689655037818263,-0.01975597744423138,-0.589195327702474,0.9282445990796167,-1.5332418913740877,-0.29626124851106633,-0.24482357948877875,-0.25812602872171647,-0.09613877691694682,-0.1843790783369026,0.09802456680624884,-2.4944357921675335,0.014988979702558537,2.308322612051774,0.788409709507581
0.4500876375601216,6.575522637950985e-05,0.25007116242514493,0.0034327736755316728,0.99997014799362,-0.00644414216889674,-0.0012564714309375752,0.4510595520207597,-0.0005124822966271706,0.250638031934404,-0.0026614389824971174,0.9998252594934665,-0.00045689655037818263,-0.01975597744423138,-0.6228297052279548,0.9713174564799583,-1.586488268156366,-0.2987349491969092,-0.24671533599167286,-0.24825897224193635,-0.0961359175748984,-0.18437016800622483,0.09802526865116008,-2.4944259206203494,0.014985438135285599,2.30830213085548,0.7884054075671645
0.4500907928501641,6.598409213651518e-05,0.25007552339611655,0.003433810311999306,0.999970159865171,-0.0064424847174232224,-0.0012526847064002037,0.4510595520207597,-0.0005124822966271706,0.250638031934404,-0.0026614389824971174,0.9998252594934665,-0.00045689655037818263,-0.01975597744423138,-0.6104884315676944,0.9835651895248565,-1.5640389455379395,-0.31272366378142724,-0.24365033600397218,-0.2652088845048383,-0.09613845705908539,-0.18437243222867625,0.09802777885131847,-2.4944160277722704,0.014985151693225026,2.30829783439547,0.7884067980346796
0.4500892616791746,6.413756419263384e-05,0.2500749368720117,0.0034350987410000215,0.9999701600025251,-0.006441067298276587,-0.0012563262527333493,0.4510595520207597,-0.0005124822966271706,0.250638031934404,-0.0026614389824971174,0.9998252594934665,-0.00045689655037818263,-0.01975597744423138,-0.6001504115928724,0.9925662878123711,-1.5580102418204718,-0.31638610630312336,-0.24147453173324449,-0.2731115975216839,-0.09613625810367189,-0.18436697815367162,0.09802170393442879,-2.4944093252779718,0.014985985399683424,2.30829530678705,0.7884047960693329
0.4500903823183107,6.340514416560428e-05,0.25007710427966606,0.0034349804908286917,0.9999701513752753,-0.006442812646348781,-0.0012545656868970913,0.4510595520207597,-0.0005124822966271706,0.250638031934404,-0.0026614389824971174,0.9998252594934665,-0.00045689655037818263,-0.01975597744423138,-0.6245796647834521,0.981954703114692,-1.57309643666156,-0.3066437878016033,-0.244384340652031,-0.25806351236303904,-0.09613615303794258,-0.18436663521276944,0.0980270073240904,-2.4944015574208285,0.014986004774953111,2.3082866430024356,0.7884060632955358
0.4500881582966295,6.830772764614243e-05,0.250072172887216,0.003433736765568043,0.9999701702488009,-0.006438800146527327,-0.0012634950150878818,0.4510595520207597,-0.0005124822966271706,0.250638031934404,-0.0026614389824971174,0.9998252594934665,-0.00045689655037818263,-0.01975597744423138,-0.6149361754106358,0.955824934187179,-1.5333398269924314,-0.3042480331176425,-0.24705803630420137,-0.2571118101944141,-0.09613029528281272,-0.1843662800551309,0.09802519860700748,-2.4944029268294803,0.01498355831045264,2.3082835276655906,0.7884016956542675
0.4500953312483338,6.601430443527156e-05,0.25008197776605307,0.003434728154840801,0.9999701670948746,-0.006440968782967065,-0.0012521926066533032,0.4510595520207597,-0.0005124822966271706,0.250638031934404,-0.0026614389824971174,0.9998252594934665,-0.00045689655037818263,-0.01975597744423138,-0.6334910912685353,0.9343643697654607,-1.5499746404534454,-0.30010670086380115,-0.24825306153699264,-0.25326103444535875,-0.09614124315836067,-0.18436377438400733,0.09802243176046264,-2.494399582208584,0.014982368085429503,2.308279237531014,0.7884087925283227
0.45009108444960205,6.655308743973256e-05,0.2500774177184582,0.0034341573731062214,0.9999701647848301,-0.006440231615569852,-0.0012593738747367724,0.4510595520207597,-0.0005124822966271706,0.250638031934404,-0.0026614389824971174,0.9998252594934665,-0.00045689655037818263,-0.01975597744423138,-0.6174939690930484,0.9429859109733142,-1.5492570480331171,-0.30251441684629377,-0.24642862949048203,-0.2590679813864949,-0.09613345210358512,-0.18436403896597894,0.09802447521895695,-2.4943962092925616,0.014979057775307595,2.3082760318837563,0.7884051228567837
0.45009372253115176,6.75028254901266e-05,0.2500795315814728,0.00343429025635117,0.999970156730972,-0.006441600372586807,-0.0012584057007227062,0.4510595520207597,-0.0005124822966271706,0.250638031934404,-0.0026614389824971174,0.9998252594934665,-0.00045689655037818263,-0.01975597744423138,-0.6424951850129662,0.948856499489058,-1.5392808540876697,-0.30419194274031175,-0.25082828777418764,-0.25842444892566524,-0.09613869895828606,-0.18436309120529576,0.0980269808729607,-2.494393424320625,0.014987227464257515,2.308272099468443,0.7884064939342779
0.450093785098522,6.958233591684607e-05,0.25008008079862437,0.003434503724333564,0.9999701686034211,-0.006439406890701358,-0.0012596145610694123,0.4510595520207597,-0.0005124822966271706,0.250638031934404,-0.0026614389824971174,0.9998252594934665,-0.00045689655037818263,-0.01975597744423138,-0.6259433852203561,0.9694103532140785,-1.5498609711381888,-0.30277942932712926,-0.2417407642826178,-0.26115325218300234,-0.09613876672877492,-0.18436505780666088,0.09802976633987383,-2.4943891427354954,0.01498167140434596,2.308268170330235,0.7884078077943412
0.4500908690666642,6.591122105352314e-05,0.2500765691519401,0.003433600577158474,0.9999701564289746,-0.00644066464081488,-0.0012652983555907613,0.4510595520207597,-0.0005124822966271706,0.250638031934404,-0.0026614389824971174,0.9998252594934665,-0.00045689655037818263,-0.01975597744423138,-0.6124334128313337,1.0073478116889925,-1.524195362556385,-0.30636411072240444,-0.24482560614022778,-0.2576799619723507,-0.09613686365133164,-0.18436290916779538,0.0980297660152392,-2.494384467184222,0.01498330108956121,2.3082661640820437,0.788408960102215
0.4500927099093983,6.808068519981178e-05,0.2500782448600064,0.0034360042452803055,0.9999701761097702,-0.006436236163109099,-0.001265753769113906,0.4510595520207597,-0.0005124822966271706,0.250638031934404,-0.0026614389824971174,0.9998252594934665,-0.00045689655037818263,-0.01975597744423138,-0.6083457888441682,0.9745285049282839,-1.5551306094945694,-0.3053890121693319,-0.24461648529226648,-0.2616301248132656,-0.09613311763003404,-0.18435951184075494,0.09802731640977762,-2.4943858077951933,0.01497855356039244,2.308260163826431,0.7884062452036356
0.4500932113853546,6.344898990107214e-05,0.25007902794193543,0.0034341165133330775,0.9999701431524473,-0.0064423415581290125,-0.0012658534855594609,0.4510595520207597,-0.0005124822966271706,0.250638031934404,-0.0026614389824971174,0.9998252594934665,-0.00045689655037818263,-0.01975597744423138,-0.621130530130126,0.962933248450919,-1.5474657454082474,-0.3061996920033753,-0.24710251824535767,-0.2558439735022851,-0.09613344919839947,-0.18435313005719953,0.09802485822153573,-2.4943742243754548,0.014982823547898491,2.308255389622924,0.7884081783802411
0.45009494460775784,6.80791912959292e-05,0.2500820840496352,0.0034348513847497547,0.999970180245936,-0.006436730496759507,-0.0012630986051393933,0.4510595520207597,-0.0005124822966271706,0.250638031934404,-0.0026614389824971174,0.9998252594934665,-0.00045689655037818263,-0.01975597744423138,-0.6345388659239185,0.9565618756361721,-1.5571983685455644,-0.3027669519730999,-0.2464774855670829,-0.25372532733055553,-0.09613562540718636,-0.18434571439132355,0.0980244750753878,-2.4943732874968707,0.014982748341640133,2.3082513823094883,0.7884041489914198
0.45009180565510604,6.408798785992918e-05,0.25007646552480084,0.00343347470951448,0.9999701416780375,-0.006441785219087587,-0.001271577524866502,0.4510595520207597,-0.0005124822966271706,0.250638031934404,-0.0026614389824971174,0.9998252594934665,-0.00045689655037818263,-0.01975597744423138,-0.6146756226706921,0.9557926203165411,-1.5400621625886948,-0.3052310269689198,-0.24296472882296818,-0.2606600849996814,-0.09613866291797378,-0.1843505817871111,0.09802234930662576,-2.494365562498025,0.014984761875027137,2.3082499111305315,0.7884105886180344
0.45009538347187433,6.489257745259147e-05,0.25008001895027604,0.003433103404818221,0.9999701354567406,-0.00644381495874727,-0.001267180601557525,0.4510595520207597,-0.0005124822966271706,0.250638031934404,-0.0026614389824971174,0.9998252594934665,-0.00045689655037818263,-0.01975597744423138,-0.6151234229433837,0.9476769109089225,-1.5477263967362018,-0.3015459707356169,-0.2423584918005481,-0.2597097462909186,-0.09613976341720955,-0.1843477993831468,0.09802436133171692,-2.4943709864016936,0.014983514236278046,2.308246914534014,0.7884067743156703
0.4500920328734662,6.56396933552248e-05,0.25007713961699707,0.00343427926273888,0.9999701401053093,-0.006441341265762017,-0.0012728899500986893,0.4510595520207597,-0.0005124822966271706,0.250638031934404,-0.0026614389824971174,0.9998252594934665,-0.00045689655037818263,-0.01975597744423138,-0.641964076166803,0.9506912412200771,-1.5612659866336969,-0.29486449502970646,-0.2468736518189818,-0.24872773250462374,-0.0961444788597818,-0.184344847879723,0.09802231396524828,-2.4943680059444184,0.014978823948033983,2.3082450152487013,0.7884097657896019
0.4500948882269846,6.419751581883693e-05,0.2500799254119836,0.0034346515504895406,0.9999701424405175,-0.00644155872174793,-0.0012689443848724659,0.4510595520207597,-0.0005124822966271706,0.250638031934404,-0.0026614389824971174,0.9998252594934665,-0.00045689655037818263,-0.01975597744423138,-0.6323726351385038,0.9575614348061505,-1.5582993940402923,-0.30017026934872976,-0.24544524586652777,-0.255053985257045,-0.09613946755623111,-0.184345398876696,0.09802616720709316,-2.49436512802914,0.01498000753881416,2.30824389923737,0.7884076301639081
0.45009425064709147,6.554367367164174e-05,0.2500785502905604,0.003435926592354174,0.9999701505064816,-0.006439257622237641,-0.0012708140357395599,0.4510595520207597,-0.0005124822966271706,0.250638031934404,-0.0026614389824971174,0.9998252594934665,-0.00045689655037818263,-0.01975597744423138,-0.6132463705252398,0.9733235266813824,-1.5414877627318924,-0.312009400117289,-0.24305313959331706,-0.2667468735017138,-0.09613597308148726,-0.1843470877247077,0.09802234834788166,-2.4943644322716145,0.014983439744580685,2.308240136162595,0.7884116859452021
0.45009399215567714,6.637996819261734e-05,0.2500787910472732,0.0034364571973259962,0.99997014899755,-0.006439194213277284,-0.0012708879489090274,0.4510595520207597,-0.0005124822966271706,0.250638031934404,-0.0026614389824971174,0.9998252594934665,-0.00045689655037818263,-0.01975597744423138,-0.6197648637042988,0.9791282311453164,-1.541840698807245,-0.3049358090973886,-0.2456699235768632,-0.2605534982091991,-0.09613624493234078,-0.1843466954833701,0.0980269808367375,-2.4943646420528442,0.014979375126386937,2.3082412948821234,0.7884028166905801
0.4500944167126038,6.682398344700312e-05,0.2500801493667502,0.0034368056326040323,0.9999701646997624,-0.006436481583482334,-0.0012713319447546566,0.4510595520207597,-0.0005124822966271706,0.250638031934404,-0.0026614389824971174,0.9998252594934665,-0.00045689655037818263,-0.01975597744423138,-0.6230625665749122,0.9634052057786152,-1.5428545416938348,-0.30625935292613077,-0.24474740887304805,-0.25844395139610965,-0.09613698158176916,-0.18433860880017408,0.09802350411328999,-2.4943615401871897,0.014978154423336183,2.3082371795290464,0.7884018399427902
0.45009568289383384,6.865282088234061e-05,0.2500785772693683,0.003433188506617769,0.9999701702142816,-0.006437199759392657,-0.0012731300901832252,0.4510595520207597,-0.0005124822966271706,0.250638031934404,-0.0026614389824971174,0.9998252594934665,-0.00045689655037818263,-0.01975597744423138,-0.6118275269488027,0.9613617308575243,-1.5432008426715556,-0.30265108807428054,-0.24254536231576626,-0.25258577237603425,-0.09613937660044515,-0.18434139285589515,0.09802226178640124,-2.494362105169665,0.014977699315809856,2.3082325470624148,0.78840184868533
0.4500957799679954,6.571742101959028e-05,0.25007991498430354,0.003435730765267605,0.9999701520485911,-0.006438706794420891,-0.0012729192505642804,0.4510595520207597,-0.0005124822966271706,0.250638031934404,-0.0026614389824971174,0.9998252594934665,-0.00045689655037818263,-0.01975597744423138,-0.6042695071876854,0.9777882418054837,-1.5386101762113387,-0.29738884085214407,-0.24197142058541635,-0.25474177055779035,-0.09613561806811109,-0.1843464337091401,0.09802627222372123,-2.4943597716786305,0.014979375309864517,2.308236500530149,0.7884067542161105
0.450096597150533,6.563972987140439e-05,0.25008089543341816,0.00343564111332407,0.9999701526438937,-0.006438806147555204,-0.0012721908085194206,0.4510595520207597,-0.0005124822966271706,0.250638031934404,-0.0026614389824971174,0.9998252594934665,-0.00045689655037818263,-0.01975597744423138,-0.6041795911738119,0.9706706379209631,-1.5467320092797376,-0.3070046581580311,-0.240798481171619,-0.26363578342207256,-0.09614102599599215,-0.18434166336181707,0.09802665717618404,-2.4943528031846802,0.014981428226531264,2.30823131087376,0.7884028188583586
0.4500970528994743,6.308327801521101e-05,0.25008151113325555,0.003436116779995653,0.9999701208881794,-0.006443319441532836,-0.0012730157969380938,0.4510595520207597,-0.0005124822966271706,0.250638031934404,-0.0026614389824971174,0.9998252594934665,-0.00045689655037818263,-0.01975597744423138,-0.5985394369419915,0.9649999152057445,-1.5295527643759734,-0.30572170819994055,-0.24293923942030413,-0.260474628047505,-0.09613877691093264,-0.18434070976919503,0.098026744661718,-2.4943580897407913,0.014975647572677352,2.308232836696935,0.7884092764277113
0.4500927849967264,6.551507433526098e-05,0.2500749758072373,0.003434531561982399,0.9999701358082056,-0.0064399224203612335,-0.0012827261553906555,0.4510595520207597,-0.0005124822966271706,0.250638031934404,-0.0026614389824971174,0.9998252594934665,-0.00045689655037818263,-0.01975597744423138,-0.6181091996142489,0.9592266839285193,-1.5522649385740566,-0.3017623523812854,-0.24719817244789624,-0.25475294965210526,-0.09614185917162604,-0.1843374822779649,0.09802482868007294,-2.4943509739808403,0.014975529014445496,2.308225357105194,0.7884057996483443
0.4500920315249575,6.261689612294456e-05,0.2500751510635581,0.0034352544767293327,0.9999701097873871,-0.006442912250028073,-0.001286056972051966,0.4510595520207597,-0.0005124822966271706,0.250638031934404,-0.0026614389824971174,0.9998252594934665,-0.00045689655037818263,-0.01975597744423138,-0.6292849884430157,0.9597156489973012,-1.5650489466398885,-0.3030627290812725,-0.2486390246818669,-0.25528141605328014,-0.0961419722356756,-0.18433431706303047,0.09802136818158805,-2.494352803067271,0.014978631231064974,2.3082213816162,0.7884118955564015
0.45009514310135046,6.552671402530772e-05,0.25007585375733726,0.0034359116539500246,0.9999701240740709,-0.006440905322372918,-0.0012832425578031014,0.4510595520207597,-0.0005124822966271706,0.250638031934404,-0.0026614389824971174,0.9998252594934665,-0.00045689655037818263,-0.01975597744423138,-0.6224323063740966,0.9623198841039095,-1.5644437473757278,-0.3025695122625188,-0.24680906895535976,-0.25546317584866396,-0.0961384025941227,-0.184328622602088,0.09802163181240556,-2.494354833169769,0.014974483062694997,2.3082183993082466,0.7884099537495105
0.45009761912808893,6.192241693787712e-05,0.2500813480853164,0.003435787933996313,0.9999701128273707,-0.006443981974026654,-0.0012768758186613256,0.4510595520207597,-0.0005124822966271706,0.250638031934404,-0.0026614389824971174,0.9998252594934665,-0.00045689655037818263,-0.01975597744423138,-0.6171183113190889,0.964062982404116,-1.568557814132554,-0.3030110821377291,-0.2428481155290204,-0.2553281329060276,-0.09613699464524798,-0.18432586478463792,0.09802485172951302,-2.494346391323543,0.014974429792255049,2.3082173542063913,0.7884110662316847
0.4500970568543447,6.434595618780104e-05,0.2500804286196781,0.0034346908676217646,0.9999701378034894,-0.006440060091569748,-0.00128005016474961,0.4510595520207597,-0.0005124822966271706,0.250638031934404,-0.0026614389824971174,0.9998252594934665,-0.00045689655037818263,-0.01975597744423138,-0.6152106171491306,0.9671987684365451,-1.5431250813469606,-0.30429307561210006,-0.24542704867137727,-0.2582899648654709,-0.09613658806103029,-0.18433391227429394,0.0980244661102283,-2.494343879074787,0.014978967311006392,2.308214116981521,0.7884088902807032
0.4501006596046111,6.344647647029982e-05,0.25008608631561724,0.003434651586245577,0.9999701220112495,-0.0064436043706869745,-0.001274644371969963,0.4510595520207597,-0.0005124822966271706,0.250638031934404,-0.0026614389824971174,0.9998252594934665,-0.00045689655037818263,-0.01975597744423138,-0.6011979426620958,0.9520711418443125,-1.5523548609666016,-0.29331343537816706,-0.240630162372519,-0.24851194239492388,-0.0961336044942414,-0.18433391227429374,0.09802157407576315,-2.494340166895013,0.014977794169763869,2.3082122387791717,0.7884079670701507
0.45009736746338047,6.327241196411342e-05,0.25008023211098496,0.0034358460100007357,0.9999701213253808,-0.006441592236131943,-0.0012821117580060148,0.4510595520207597,-0.0005124822966271706,0.250638031934404,-0.0026614389824971174,0.9998252594934665,-0.00045689655037818263,-0.01975597744423138,-0.5999489291495538,0.9634104223917715,-1.5497274241550891,-0.292071863685884,-0.24049880480567315,-0.24524087520732155,-0.09613946418684122,-0.18432755464420042,0.09802382249551454,-2.4943385512955643,0.014977785451876346,2.308207822172952,0.7884006941190227
0.450097289933395,6.354544125530546e-05,0.25007903589857144,0.0034357354712804787,0.999970126678569,-0.006440520371895085,-0.0012836167736016589,0.4510595520207597,-0.0005124822966271706,0.250638031934404,-0.0026614389824971174,0.9998252594934665,-0.00045689655037818263,-0.01975597744423138,-0.5984531276404079,0.9454133916876025,-1.559360109993296,-0.2959384188007643,-0.24109029920036337,-0.2516055754217898,-0.09613383357224144,-0.18432263475133662,0.09803014031449622,-2.494335586362906,0.014974780606218822,2.3082074689600205,0.7884082164757104
0.4500989753854346,6.454628445811284e-05,0.25008009985438534,0.003433966422308973,0.9999701097981215,-0.006444380844189312,-0.0012821242931834518,0.4510595520207597,-0.0005124822966271706,0.250638031934404,-0.0026614389824971174,0.9998252594934665,-0.00045689655037818263,-0.01975597744423138,-0.6092296425849888,0.9537046222904586,-1.5583985871823247,-0.299177371737927,-0.24476127763421868,-0.25326844487822653,-0.09613668208858556,-0.18432826636415603,0.09802759967833594,-2.4943352452423615,0.014973360524284829,2.3082039305322026,0.7884030015851723
0.4500988960367696,6.576551555974402e-05,0.25008216677173656,0.0034350844990215313,0.999970144636521,-0.006438523193708272,-0.0012813866598603949,0.4510595520207597,-0.0005124822966271706,0.250638031934404,-0.0026614389824971174,0.9998252594934665,-0.00045689655037818263,-0.01975597744423138,-0.614936475398446,0.9641648972303845,-1.5591619075696876,-0.3004935219898997,-0.24601569733048748,-0.25417287056801163,-0.09614101446494996,-0.1843194469122552,0.09802137779648933,-2.4943332535866576,0.014977782885971373,2.3082038850638122,0.7884081783473954
0.4500961907004022,6.311942317225398e-05,0.25007804914966586,0.003435266021642267,0.9999701040388851,-0.006443465146954918,-0.0012877247390197858,0.4510595520207597,-0.0005124822966271706,0.250638031934404,-0.0026614389824971174,0.9998252594934665,-0.00045689655037818263,-0.01975597744423138,-0.6276992628360951,0.9696706809313541,-1.5560589774740625,-0.3039178083510272,-0.24805080582887123,-0.2571189068085588,-0.09613946750216774,-0.18432223093332195,0.0980267057392612,-2.4943384995564153,0.01497753492327086,2.3082033835523816,0.7884082314582729
0.45009624606154086,6.326909377819819e-05,0.2500779393847155,0.0034352513792364607,0.9999701063922742,-0.006443023868890382,-0.0012881442151936845,0.4510595520207597,-0.0005124822966271706,0.250638031934404,-0.0026614389824971174,0.9998252594934665,-0.00045689655037818263,-0.01975597744423138,-0.6519074834849435,0.9687325046278912,-1.54296625887223,-0.30506188649820054,-0.25349952055124503,-0.25772536211333374,-0.09614090879964847,-0.1843247356163828,0.09802390090054167,-2.494335599135491,0.014973970326309418,2.308199275335542,0.7884047710262426
0.45009593469630993,6.318025036700668e-05,0.2500780217357005,0.003434097186666405,0.9999701142497927,-0.00644219161961849,-0.001289284012912152,0.4510595520207597,-0.0005124822966271706,0.250638031934404,-0.0026614389824971174,0.9998252594934665,-0.00045689655037818263,-0.01975597744423138,-0.610962180296142,0.9605723367608503,-1.5640620988202354,-0.2996973087769752,-0.246489688137917,-0.251878689572816,-0.09613380322251232,-0.18432153154270553,0.09802435845152478,-2.494327608287815,0.01497937309661025,2.3081954040649935,0.7884097217250027
0.45009687813651894,6.569840395133554e-05,0.25007691265595405,0.0034344462108098386,0.9999701290766264,-0.00643935848105763,-0.0012910068121128864,0.4510595520207597,-0.0005124822966271706,0.250638031934404,-0.0026614389824971174,0.9998252594934665,-0.00045689655037818263,-0.01975597744423138,-0.6110572147594847,0.9594430519886354,-1.5559917169768382,-0.30161758439003244,-0.24615210794237163,-0.25308469492684765,-0.09613946719669783,-0.18432407939146458,0.09802364848063033,-2.4943302783260277,0.014977287018401205,2.3081939776473654,0.7884051515256971
0.4500953652698268,6.366899367670282e-05,0.25007694898401883,0.003435242693796176,0.9999701071647208,-0.006441959460129822,-0.0012928825548429428,0.4510595520207597,-0.0005124822966271706,0.250638031934404,-0.0026614389824971174,0.9998252594934665,-0.00045689655037818263,-0.01975597744423138,-0.5970051021424326,0.9366438893898992,-1.554067865737862,-0.2968626017579857,-0.24231220413768598,-0.25436495846727336,-0.09613936217856393,-0.18432079266734105,0.09802686278516735,-2.49432780477722,0.014976489885058586,2.308193630080069,0.7884056913462388
0.4500921386952157,6.661811017556358e-05,0.250073191511634,0.003435651158564348,0.9999701341210805,-0.006436291192547,-0.0012991633445772223,0.4510595520207597,-0.0005124822966271706,0.250638031934404,-0.0026614389824971174,0.9998252594934665,-0.00045689655037818263,-0.01975597744423138,-0.5852321684679611,0.970141314806332,-1.5307120057561612,-0.3010344295838186,-0.24439690295500865,-0.25719835503134647,-0.09613629745788341,-0.18431340718318506,0.09802663966640639,-2.4943270539862334,0.014974581167125993,2.308192428890493,0.7884097587588268
0.4500981075977652,6.396501201787488e-05,0.2500787877235441,0.0034366527803442364,0.9999701138199613,-0.006439997934048887,-0.001293759508962693,0.4510595520207597,-0.0005124822966271706,0.250638031934404,-0.0026614389824971174,0.9998252594934665,-0.00045689655037818263,-0.01975597744423138,-0.5989729620536539,0.9749305408138002,-1.5585516850475813,-0.30649864302477625,-0.2451105216619709,-0.260230641307583,-0.09614231288386312,-0.1843158373600029,0.09802603181185693,-2.4943258307957494,0.014973970320188849,2.308182561812577,0.7884083185318469
0.45009659414290704,6.259595554852074e-05,0.25007706391218393,0.003434626355052716,0.9999701142532601,-0.006440041425616076,-0.0012985803992964138,0.4510595520207597,-0.0005124822966271706,0.250638031934404,-0.0026614389824971174,0.9998252594934665,-0.00045689655037818263,-0.01975597744423138,-0.5903493749827275,1.0082244595608207,-1.5549955610011696,-0.3072946277844092,-0.24740639384743301,-0.25678153081706756,-0.09613350034907875,-0.18431539171731356,0.09802594744918962,-2.4943205408680957,0.01497458067717893,2.3081813162029596,0.7884110330672527
0.4500960407175138,6.411330740318181e-05,0.25007695648107553,0.0034346908863458108,0.9999700988432275,-0.006441785585277516,-0.001301621619441411,0.4510595520207597,-0.0005124822966271706,0.250638031934404,-0.0026614389824971174,0.9998252594934665,-0.00045689655037818263,-0.01975597744423138,-0.6032223641633019,0.9573229416131752,-1.5512855758806832,-0.30266805302144284,-0.2518354304421422,-0.2584561421225215,-0.09613938862273615,-0.18430625591780192,0.09802438433563772,-2.49431441768847,0.014973610795124187,2.3081682443356226,0.7884068945917391
0.4500936081766404,6.50576711552481e-05,0.2500733310267404,0.0034347906057342497,0.9999701187843171,-0.006437433740063888,-0.001307555532862772,0.4510595520207597,-0.0005124822966271706,0.250638031934404,-0.0026614389824971174,0.9998252594934665,-0.00045689655037818263,-0.01975597744423138,-0.624078397776426,0.9638090175248901,-1.5724906250418271,-0.3030110732127846,-0.25234092264680147,-0.25790081941609583,-0.09613944091192957,-0.18430848470437852,0.09802753259471803,-2.494317120349415,0.014973241453912833,2.3081665366501243,0.7884043783430567
0.450096779780401,6.351691483077134e-05,0.2500776813019841,0.0034346716994896795,0.9999700888962377,-0.006443221220759785,-0.0013022080342100218,0.4510595520207597,-0.0005124822966271706,0.250638031934404,-0.0026614389824971174,0.9998252594934665,-0.00045689655037818263,-0.01975597744423138,-0.6134002056440848,0.9661507819471384,-1.582043537639523,-0.302630592763907,-0.24907778043125453,-0.25841664956308985,-0.09613351355435033,-0.18430305216858994,0.09802200505009225,-2.4943110769944106,0.014974922663231223,2.308159546825621,0.7884113929299075
0.45009609193585937,6.49307895661753e-05,0.2500763913886914,0.003434996316794588,0.9999701138695265,-0.006438379991361137,-0.0013061139895496866,0.4510595520207597,-0.0005124822966271706,0.250638031934404,-0.0026614389824971174,0.9998252594934665,-0.00045689655037818263,-0.01975597744423138,-0.6332912308194816,0.9649247860280875,-1.5576858123196358,-0.29991711277222916,-0.2528474718922506,-0.25574214200403744,-0.09613194071939259,-0.18431084753428892,0.09801874251948768,-2.49431565526342,0.014972905097992656,2.3081603475457597,0.7884063970355564
0.45009789671823736,6.512054533558145e-05,0.25007738251377504,0.003434483797444691,0.9999701202955401,-0.0064381246968565,-0.0013037983619600296,0.4510595520207597,-0.0005124822966271706,0.250638031934404,-0.0026614389824971174,0.9998252594934665,-0.00045689655037818263,-0.01975597744423138,-0.6516056745794824,0.9487869325782268,-1.5862904637804398,-0.29495349571175283,-0.25151525728119606,-0.2521128090622122,-0.0961395748897768,-0.18430421266316252,0.09802168779349738,-2.4943132732851616,0.014973850504527519,2.3081547786155445,0.788406259790006
0.450095232186632,6.568171715048698e-05,0.2500763534631886,0.003435235436532985,0.999970097102729,-0.006440313390557077,-0.0013087871342757369,0.4510595520207597,-0.0005124822966271706,0.250638031934404,-0.0026614389824971174,0.9998252594934665,-0.00045689655037818263,-0.01975597744423138,-0.6053389162325445,0.9638735539495833,-1.5305723393298891,-0.29644807542872964,-0.2499037719417636,-0.24959251212415232,-0.09613586468195306,-0.18430517963910073,0.0980246174266339,-2.4943045684037197,0.014973361435987707,2.3081555924176285,0.788411244341745
0.45009404701584604,6.532371043196387e-05,0.25007440907888834,0.003435249184689697,0.9999701224854888,-0.006435648795934628,-0.0013122982653500205,0.4510595520207597,-0.0005124822966271706,0.250638031934404,-0.0026614389824971174,0.9998252594934665,-0.00045689655037818263,-0.01975597744423138,-0.6114927764491808,0.9612518824032299,-1.5720836132436622,-0.29773922655258883,-0.24790906548748748,-0.2509685818312752,-0.09613946721539239,-0.18429667447115336,0.09802344824971876,-2.494301040681274,0.014973359918598555,2.308146061351169,0.7884100117456773
0.4500953851611317,6.495071709442787e-05,0.25007646703316777,0.003434343434160553,0.999970104830837,-0.006438958772936816,-0.001311885003550997,0.4510595520207597,-0.0005124822966271706,0.250638031934404,-0.0026614389824971174,0.9998252594934665,-0.00045689655037818263,-0.01975597744423138,-0.6280649420245497,0.9693634050220759,-1.564610264798411,-0.29390502504336696,-0.25086223734033836,-0.24138593169612788,-0.09613668347849212,-0.18430125320881324,0.098021286696013,-2.4943048449178846,0.014972701989413853,2.308146055512958,0.7884064060182293
0.45009399124993754,6.464730621240826e-05,0.2500740617541611,0.00343422539812364,0.9999700882841799,-0.006441054518021278,-0.0013145158696094054,0.4510595520207597,-0.0005124822966271706,0.250638031934404,-0.0026614389824971174,0.9998252594934665,-0.00045689655037818263,-0.01975597744423138,-0.6149605853860645,0.9509293875440402,-1.560047336363651,-0.29277821291001027,-0.2494469809820826,-0.24901533037723064,-0.09614197322736694,-0.18429918011287666,0.09802682115161661,-2.494304197786543,0.01497588979293614,2.3081412915201933,0.78840899083666
0.4500960314084108,6.651928993526025e-05,0.25007601138026736,0.0034356525011542244,0.9999701035006999,-0.006438343850150455,-0.001312489145637316,0.4510595520207597,-0.0005124822966271706,0.250638031934404,-0.0026614389824971174,0.9998252594934665,-0.00045689655037818263,-0.01975597744423138,-0.6143148890524417,0.9566301778616009,-1.5626648424428793,-0.2951304660144565,-0.24788502498216664,-0.2528997914855389,-0.09613730604076737,-0.18429916807970464,0.09802665518102587,-2.4942983681442485,0.014973963976311231,2.308141287141376,0.7884065597781563
0.4500940907790959,6.470254015530168e-05,0.2500740480161594,0.003435462260898949,0.9999700948901462,-0.006438922951172157,-0.0013166997524796747,0.4510595520207597,-0.0005124822966271706,0.250638031934404,-0.0026614389824971174,0.9998252594934665,-0.00045689655037818263,-0.01975597744423138,-0.614375785970947,0.9578289485448929,-1.5593052042932392,-0.29356073506554586,-0.24762642047308006,-0.25076245789477125,-0.09613723145821156,-0.18429600388293793,0.09802129026288076,-2.4942960459540746,0.014973807968343501,2.308141245932296,0.7884071483834665
0.4500947872043699,6.404524565680999e-05,0.25007638084657513,0.003434705540502488,0.9999700884252206,-0.0064408828435160255,-0.0013139951842809933,0.4510595520207597,-0.0005124822966271706,0.250638031934404,-0.0026614389824971174,0.9998252594934665,-0.00045689655037818263,-0.01975597744423138,-0.6252002252440518,0.9716913399092111,-1.5601583297633705,-0.30083530125574626,-0.24965790043437192,-0.2563061224397019,-0.09613631068089631,-0.1842935010486198,0.09802413613942945,-2.4943027258599586,0.014975288370800902,2.3081396370621308,0.7884096575354976
0.4500946115248727,6.593682735196215e-05,0.250074870091872,0.0034355636637637696,0.9999701206424049,-0.006434730513607465,-0.0013173726757478106,0.4510595520207597,-0.0005124822966271706,0.250638031934404,-0.0026614389824971174,0.9998252594934665,-0.00045689655037818263,-0.01975597744423138,-0.6019986663111251,0.9691554759413498,-1.5903013727401452,-0.3014181891716694,-0.246760741528477,-0.2583166244824006,-0.09613841089279654,-0.1842934707214982,0.09801953888873162,-2.494295341254665,0.01497188701520324,2.3081369924100925,0.7884060234101401
0.4500942073685891,6.728026729640184e-05,0.2500739951203149,0.003433799795322067,0.9999701138840141,-0.006436084474201909,-0.0013204836756648165,0.4510595520207597,-0.0005124822966271706,0.250638031934404,-0.0026614389824971174,0.9998252594934665,-0.00045689655037818263,-0.01975597744423138,-0.6076961986111702,0.9689658491318588,-1.5744581739404937,-0.2990688008529448,-0.25218475077709335,-0.25550603161010915,-0.09613422769189786,-0.18429347397683715,0.09801947646122076,-2.494291264647678,0.014972905099517719,2.308133813513428,0.7884075841020716
0.4500946401916905,6.347656042085339e-05,0.2500748842814362,0.003435370830618836,0.999970085353904,-0.00643962276304672,-0.0013207519644741462,0.4510595520207597,-0.0005124822966271706,0.250638031934404,-0.0026614389824971174,0.9998252594934665,-0.00045689655037818263,-0.01975597744423138,-0.6263027819385008,0.975110476269294,-1.569988363600863,-0.30110081999491395,-0.2523839582199995,-0.2553866970689553,-0.09613874557404482,-0.184292690586861,0.09802199547213472,-2.4943000770251946,0.014969353834654567,2.3081226873373293,0.7884071508323148
0.4500934586936495,6.176450276426243e-05,0.25007327190136747,0.0034338608518319634,0.999970059739127,-0.00644357749596506,-0.001324777832378455,0.4510595520207597,-0.0005124822966271706,0.250638031934404,-0.0026614389824971174,0.9998252594934665,-0.00045689655037818263,-0.01975597744423138,-0.6491403142169251,0.9743233335499166,-1.5465628388826524,-0.301733039146254,-0.2578557872820682,-0.25478604909149477,-0.09613875391086267,-0.18429735038125014,0.09802457975486065,-2.4942922782295014,0.014969690426196591,2.308123501115375,0.7884101303379284
0.45009384859519486,6.503598814874342e-05,0.2500740675579249,0.0034352397003480114,0.9999700914149637,-0.006437711839033648,-0.0013258101922802817,0.4510595520207597,-0.0005124822966271706,0.250638031934404,-0.0026614389824971174,0.9998252594934665,-0.00045689655037818263,-0.01975597744423138,-0.5958890470585091,0.9597041816199379,-1.561896633274993,-0.3002189764723183,-0.24730869368511232,-0.2574067677480295,-0.09614115460932825,-0.18428777922972236,0.09802368391870932,-2.494291014772371,0.01497406172309606,2.30811685930358,0.7884024810132323
0.4500773474452589,0.00010024030029182129,0.2500538573309328,0.0034326386484929004,0.9999702835513868,-0.00641283818838351,-0.001308058337596101,0.44989252957594017,9.712667937316965e-05,0.2497811750539742,0.0041510670252988295,0.9999547655332011,-0.005832771279578866,0.005865223572614835,-0.5781983136013582,0.86075285813172,-1.5304719225645553,-0.2525167545622702,-0.23097771829360372,-0.22305104389567945,-0.09613943231985722,-0.18428399247918675,0.09802460965371965,-2.4942823581303513,0.01497014247274023,2.3081172806470973,0.7884071084957938
0.449954257848404,0.00018204923421481238,0.2497594495649354,0.0034378279432250333,0.9999710065329659,-0.006325689380720843,-0.0011574091150772005,0.44989252957594017,9.712667937316965e-05,0.2497811750539742,0.0041510670252988295,0.9999547655332011,-0.005832771279578866,0.005865223572614835,-0.5316727857534892,0.4373564662193597,-1.373922038631755,-0.038844216518782226,-0.18169232797453355,-0.034419132861043596,-0.09596996603879322,-0.18433759836628197,0.09802123488018939,-2.4946034079951867,0.014984013166358758,2.308442418924154,0.7884290897137061
0.44998816951507536,0.0001754708356796491,0.2496358134303224,0.0034413278038882282,0.9999713057364239,-0.006330275706619999,-0.0008118407834013295,0.44989252957594017,9.712667937316965e-05,0.2497811750539742,0.0041510670252988295,0.9999547655332011,-0.005832771279578866,0.005865223572614835,-0.37680669310123666,0.16675335420209414,-1.2636649341238062,0.05392353002536747,-0.07850051953798379,0.03644002698993164,-0.09586646433733624,-0.18431357725369116,0.09803228685648425,-2.4953311360925188,0.014984743445881287,2.3094649059427867,0.7884415620214813
0.45006439325882774,0.00017892885998510252,0.24966835185863168,0.0034425208947682097,0.9999714829867369,-0.006325289190159083,-0.0005995743505980431,0.44989252957594017,9.712667937316965e-05,0.2497811750539742,0.0041510670252988295,0.9999547655332011,-0.005832771279578866,0.005865223572614835,-0.16480396132592356,0.12593368228958987,-1.007072561130764,0.07101663957622661,-0.008410637179424814,0.0439011074325599,-0.09585685697526253,-0.1843586944302449,0.09803235144504677,-2.49592438690961,0.01498835618087621,2.3109079209222525,0.788448148898221
0.45013525976207563,0.00017889503548670043,0.2497009779399126,0.0034454819042676822,0.9999715638153301,-0.006325256520690689,-0.00042172818956474667,0.44989252957594017,9.712667937316965e-05,0.2497811750539742,0.0041510670252988295,0.9999547655332011,-0.005832771279578866,0.005865223572614835,-0.09674432842380455,0.11291378278300145,-1.0294624190182908,0.07054232734223548,0.04109445029432598,0.03199769286391807,-0.0958604985951421,-0.18435529583797086,0.09803482257961631,-2.4959275863167862,0.01498896216081057,2.311148282612545,0.7884507480046095
0.4501467955421269,0.00018160060726969462,0.2497207447581412,0.0034476789955389248,0.9999716176465039,-0.006319444337241288,-0.0003585305396996956,0.44989252957594017,9.712667937316965e-05,0.2497811750539742,0.0041510670252988295,0.9999547655332011,-0.005832771279578866,0.005865223572614835,-0.20847032522924414,0.09735667123012201,-0.896478590718456,0.07927314306535499,0.029795335517841824,0.047122776752912154,-0.09584411221371904,-0.1843804164129091,0.09803093848019293,-2.495935918339486,0.014984145169861181,2.3115506654252185,0.7884424364514016
0.4501411779729921,0.00017491181416698048,0.24974619599107237,0.003452186514805339,0.9999715647689558,-0.00632771280661977,-0.00031404112483789164,0.44989252957594017,9.712667937316965e-05,0.2497811750539742,0.0041510670252988295,0.9999547655332011,-0.005832771279578866,0.005865223572614835,-0.26441959240969853,0.11869187144643539,-0.8846815852305353,0.07675700159434301,0.031526727320994576,0.05401054331432781,-0.09584691260885773,-0.1844319751679404,0.0980281213820422,-2.4959861270482917,0.014982852939483158,2.3116023742456746,0.7884436817550122
0.45015567649013444,0.00017803450554794263,0.24973759255053818,0.003451912549215476,0.9999715906062351,-0.006325177432729962,-0.0002844647354460742,0.44989252957594017,9.712667937316965e-05,0.2497811750539742,0.0041510670252988295,0.9999547655332011,-0.005832771279578866,0.005865223572614835,0.00504231365488363,0.05692500804975714,-0.9863267450812302,0.07974799457129206,0.08568456353479695,0.04426842277902634,-0.09586107622062881,-0.1845140484010311,0.09802527383468007,-2.496049449777189,0.01498514297336174,2.311675522738376,0.7884499440504867
0.45015557888986263,0.00018735578725719305,0.24974487187994185,0.003452870240546071,0.9999716665020831,-0.006313498362961078,-0.00026481848970056764,0.44989252957594017,9.712667937316965e-05,0.2497811750539742,0.0041510670252988295,0.9999547655332011,-0.005832771279578866,0.005865223572614835,0.09109610007046436,0.0938408021284617,-0.9891689706680493,0.08523304223076844,0.1007426237187305,0.04125145284987835,-0.09584367592677115,-0.18449888311464915,0.09802843413904075,-2.496053016556675,0.014987327368369722,2.311754224040509,0.7884479066887454
0.4501556393282663,0.00018468607115278027,0.24974524315132357,0.003453712825266304,0.9999716358271209,-0.0063183517516062415,-0.00025367314318567447,0.44989252957594017,9.712667937316965e-05,0.2497811750539742,0.0041510670252988295,0.9999547655332011,-0.005832771279578866,0.005865223572614835,-0.1585192545111741,0.12284282594150063,-0.8852925989176869,0.07990387924514714,0.06071794893181464,0.04652101831804408,-0.09583658342195975,-0.1845330764159182,0.09803307358633007,-2.4960838702701604,0.014985844310989843,2.31177940942632,0.7884532345407983
0.45015328733314103,0.00017879887704127536,0.24973782932055671,0.003452861222475954,0.9999716271094695,-0.006320181325777205,-0.00025405370346821723,0.44989252957594017,9.712667937316965e-05,0.2497811750539742,0.0041510670252988295,0.9999547655332011,-0.005832771279578866,0.005865223572614835,-0.15877441874800938,0.0650321639944234,-0.9278377324232581,0.0777782786326927,0.06605466770503092,0.04514158734710463,-0.09584227466647931,-0.18454732847951133,0.09802775756446366,-2.4960904154762216,0.014987367223635919,2.3118008068392437,0.7884460522418439
0.45016120954819727,0.0001876049364141856,0.2497439181502301,0.0034547281138738698,0.9999716718323602,-0.0063127141051257454,-0.0002377759266623628,0.44989252957594017,9.712667937316965e-05,0.2497811750539742,0.0041510670252988295,0.9999547655332011,-0.005832771279578866,0.005865223572614835,-0.04553988634338416,0.06266101883818098,-0.9501309646112641,0.08107091136810776,0.0847341624097593,0.044350796936140274,-0.09584012741472914,-0.18453286656986326,0.098030942719832,-2.4960995193059468,0.014986556406174061,2.3118376822839575,0.7884497124257464
0.45015948520179955,0.0001856988224470651,0.2497432279043238,0.0034530212384198426,0.9999716502963906,-0.006317229497584476,-0.00023317236375501553,0.44989252957594017,9.712667937316965e-05,0.2497811750539742,0.0041510670252988295,0.9999547655332011,-0.005832771279578866,0.005865223572614835,0.015104739132129804,0.10951057220223172,-0.951085559469618,0.08908737304421699,0.0934531428933723,0.051383166387021395,-0.09583208512880614,-0.18454063647509947,0.09803584886461843,-2.496098801990517,0.014987153389644695,2.3118509144145585,0.7884452808604072
0.45015495151766594,0.00018206265002828687,0.24974041054572946,0.0034542112150742236,0.9999716285428354,-0.006319922219197973,-0.00023585437649669493,0.44989252957594017,9.712667937316965e-05,0.2497811750539742,0.0041510670252988295,0.9999547655332011,-0.005832771279578866,0.005865223572614835,-0.08374915358499359,0.053790245008042734,-0.9467921815584162,0.08613814371852728,0.07934738166517384,0.04822901640971296,-0.09583908896746508,-0.1845535988219243,0.09803048024258625,-2.49611215275249,0.014988189127494743,2.311857817411423,0.7884445834829648
0.4501520182349576,0.00018062290890425404,0.24973534646086923,0.003454311950963394,0.9999716331646131,-0.006319009299688766,-0.00023922048490014226,0.44989252957594017,9.712667937316965e-05,0.2497811750539742,0.0041510670252988295,0.9999547655332011,-0.005832771279578866,0.005865223572614835,-0.14804315860206413,0.05039560845990356,-0.8998665405008995,0.08255396634856287,0.05762268822053048,0.05026950329991666,-0.09583666203998648,-0.18455135791959626,0.09802778401713402,-2.4961198733651258,0.014987029381319074,2.311861526126672,0.7884508861524191
0.4501513826303094,0.00018555753770365508,0.24973218967157348,0.003454843772006877,0.9999716774625376,-0.006311621112584768,-0.0002414054227608288,0.44989252957594017,9.712667937316965e-05,0.2497811750539742,0.0041510670252988295,0.9999547655332011,-0.005832771279578866,0.005865223572614835,-0.030600540644956983,0.061891684002063234,-0.9380971248976312,0.08958119882471625,0.08369075369656308,0.050543424741696895,-0.09583366490852915,-0.1845438666484339,0.09803056792853758,-2.496135770718667,0.014986201275732306,2.3118665329349315,0.7884418475002334
0.4501553707298547,0.00018399425487270008,0.24973796837222786,0.003453180207795405,0.9999716406871806,-0.006318768301064469,-0.00023031487302061144,0.44989252957594017,9.712667937316965e-05,0.2497811750539742,0.0041510670252988295,0.9999547655332011,-0.005832771279578866,0.005865223572614835,-0.023310257280380275,0.09131890586913409,-0.9369811551178254,0.09877548017766481,0.08643533919183377,0.05734252808423701,-0.09582775901472897,-0.18454634584767315,0.09802991472681012,-2.496127651395868,0.014984545777644931,2.311871288222587,0.7884496916414813
0.45015341627591854,0.00018510426012141842,0.24973473986930436,0.003454697498644709,0.999971622641793,-0.006320713058844056,-0.00023253512521395037,0.44989252957594017,9.712667937316965e-05,0.2497811750539742,0.0041510670252988295,0.9999547655332011,-0.005832771279578866,0.005865223572614835,-0.10561130981081432,0.06964551359089587,-0.9180317418385285,0.08160731231642539,0.072047726812169,0.04299100589685603,-0.09583602927044187,-0.18454954963399647,0.09803097710449522,-2.496136976223613,0.014986478558757541,2.3118823639286883,0.7884496994005254
0.45015632075904743,0.000182380408012659,0.24973594852178685,0.0034534116554182977,0.9999716152919702,-0.006322834600527917,-0.000225456460663287,0.44989252957594017,9.712667937316965e-05,0.2497811750539742,0.0041510670252988295,0.9999547655332011,-0.005832771279578866,0.005865223572614835,-0.11430003140896776,0.08672210272979405,-0.924736555549008,0.08304018746102182,0.06769312481377082,0.05082902166952606,-0.09583589277657589,-0.1845520963427947,0.09803128114467517,-2.4961421624568465,0.014987029363053607,2.3118852150292373,0.7884560968477421
0.45015721623112853,0.00019036251619492764,0.24973291045217927,0.0034537219017194663,0.9999716767659599,-0.006312925525662856,-0.00022572661689986302,0.44989252957594017,9.712667937316965e-05,0.2497811750539742,0.0041510670252988295,0.9999547655332011,-0.005832771279578866,0.005865223572614835,-0.06853474736251378,0.05664183409332327,-0.9360785269563149,0.09706552810370038,0.07721224538811039,0.05968616790466213,-0.09582525608642317,-0.184544294916455,0.09802778388947032,-2.496137264654431,0.014988351989875998,2.311901478623166,0.7884592535291592
0.45015715332172906,0.00018645100179826067,0.24973858379073144,0.0034534384651223327,0.9999716447625597,-0.006318479564218464,-0.0002162396482485311,0.44989252957594017,9.712667937316965e-05,0.2497811750539742,0.0041510670252988295,0.9999547655332011,-0.005832771279578866,0.005865223572614835,0.0019996769802462953,0.029964561926421968,-0.9832686915533743,0.106544351730393,0.09437508220427908,0.0603275091144632,-0.09582710276546223,-0.1845463359240924,0.09803056793367008,-2.496144544029286,0.01498821318909188,2.311908158469038,0.7884543103203974
0.45015622098980207,0.000181529791179681,0.2497333278606087,0.003453285815357209,0.9999716159378865,-0.006322996470150248,-0.00021991128514732802,0.44989252957594017,9.712667937316965e-05,0.2497811750539742,0.0041510670252988295,0.9999547655332011,-0.005832771279578866,0.005865223572614835,-0.09101289692775928,0.03522506018487707,-0.8971267572896824,0.09272421380116466,0.07393700748266976,0.054436944770905465,-0.09583269635293425,-0.1845559422321495,0.09803307459689788,-2.4961523512831496,0.014989430699627116,2.3119195914291195,0.7884520339437667
0.4502098858767694,0.0001805123461650962,0.24976916552462972,0.0034603141632834917,0.9999716232189588,-0.0063217930236600765,-2.0626600739712985e-05,0.44962903787152764,1.1035591486686566e-05,0.24982860134215412,0.004849110290723227,0.9999001901189655,-0.005339306355279201,0.011948820206046644,-0.09574692709324342,0.056746516791105386,-0.9382939536237127,0.08852338316024827,0.0723221857441395,0.04719827989521657,-0.09583583329386999,-0.18456892692361487,0.09803048803729833,-2.496151893127431,0.01498886483610508,2.311958787185958,0.7884541653576842
0.45021447947148713,0.0001765799870664406,0.2497736603866468,0.0034737821107863995,0.9999715918805867,-0.006317033494293628,0.00017282225602980794,0.44962903787152764,1.1035591486686566e-05,0.24982860134215412,0.004849110290723227,0.9999001901189655,-0.005339306355279201,0.011948820206046644,-0.005681992113078762,0.13540066575048063,-0.9212650088362982,0.08096659579207444,0.09526415922169164,0.03496708890420531,-0.09583129370239388,-0.18478297726107482,0.09802769935214599,-2.4964680935557824,0.01497396902745797,2.3127102869168628,0.7884585540755547
0.4502215241835817,0.0001688839950298917,0.2497605447860622,0.0034785673296507933,0.9999715062346334,-0.006322598871846613,0.0003123161650839013,0.44962903787152764,1.1035591486686566e-05,0.24982860134215412,0.004849110290723227,0.9999001901189655,-0.005339306355279201,0.011948820206046644,0.14815633080689053,0.12781505229748513,-1.0147206797947432,0.07786773916518591,0.1400805701207858,0.0281748799733491,-0.09583975913555641,-0.18487361999608673,0.09802674617171683,-2.496621299584252,0.014974580731976673,2.31295899395157,0.7884534235671964
0.4502179993855461,0.00017131633425330242,0.24975570426279484,0.003484402450654974,0.9999714583178357,-0.006320893425053484,0.0004174989643682171,0.44962903787152764,1.1035591486686566e-05,0.24982860134215412,0.004849110290723227,0.9999001901189655,-0.005339306355279201,0.011948820206046644,0.07394229509984988,0.14831694297303072,-0.8831497840533006,0.05518302108473987,0.13396262289312433,0.007909041679893687,-0.09583407782215644,-0.18498931873475657,0.09803056825732397,-2.4968656856875304,0.014973694916465021,2.3134341289250786,0.7884519973290302
0.45020701139885516,0.0001614786221919155,0.24976918986990687,0.0035095939753849383,0.9999712475665163,-0.0063150862073043604,0.0007021301543174111,0.44930354942276607,-6.647939732897572e-05,0.24985568720251478,0.005514423118153239,0.9998195241205255,-0.004855446702117063,0.01738164428022177,-0.003845203661478387,0.2029073991663418,-0.9217823804347692,0.0527539143484003,0.11472224221349411,0.006079854832424435,-0.09582878805394947,-0.18511575304959632,0.09803033115762382,-2.497016192074219,0.014960732964734751,2.313693278538468,0.7884576525316683
0.4502335599802859,0.00014239977782677196,0.24976513815110107,0.0035341668043542425,0.9999706198931984,-0.00632689118854259,0.0011941410083164822,0.44930354942276607,-6.647939732897572e-05,0.24985568720251478,0.005514423118153239,0.9998195241205255,-0.004855446702117063,0.01738164428022177,0.13360930055459763,0.19339820999807902,-1.0514567008964137,0.054774974972448986,0.13413318570362626,0.004480133078125768,-0.09583939748270462,-0.18541450219195574,0.09802988130635952,-2.4974475370216975,0.014950730548530933,2.314373884693827,0.7884539619899134
0.45023238710568825,0.00013419134181048603,0.2497035241175545,0.0035477107100784,0.9999702873621035,-0.00632131650888752,0.0014372226867798135,0.44930354942276607,-6.647939732897572e-05,0.24985568720251478,0.005514423118153239,0.9998195241205255,-0.004855446702117063,0.01738164428022177,0.40452860980777133,0.19663987466958296,-1.0345469305658188,0.05993255416721803,0.1774625527162555,0.0009025338285099967,-0.0958453625428694,-0.18566776967659263,0.09803200826735556,-2.4979323029069316,0.014946526335292193,2.3152147305552497,0.7884522443769103
0.45023292520589514,0.00013442615467689362,0.2497029344985525,0.0035669344819729944,0.9999698017949803,-0.006314111259636426,0.0017294466557970848,0.44930354942276607,-6.647939732897572e-05,0.24985568720251478,0.005514423118153239,0.9998195241205255,-0.004855446702117063,0.01738164428022177,0.21614317002383435,0.1840491046699356,-1.0296642133426266,0.06555994500898721,0.15593704421420052,0.004288513797749863,-0.09584405327156434,-0.18586326248661986,0.0980273716330427,-2.498534354711933,0.014926033292737314,2.31645828654253,0.7884573067638412
0.4501888766565025,0.00011217605463354223,0.24976078920320305,0.003618009241068592,0.9999688894334103,-0.006305602628652745,0.002134493072096325,0.44896465695654253,-0.0001049804890053711,0.24992959815414567,0.006094325371219222,0.999738629822473,-0.004376147838322204,0.02148411488657649,0.0727014461155612,0.24100526659057586,-0.8334024816860793,0.05306567837680936,0.11167008278372648,-0.0006857074769224617,-0.09584087515549379,-0.1860491806431377,0.09803347978664816,-2.498833471847605,0.014918379586299541,2.3169270064193284,0.7884533984497685
0.4501189676238188,9.523603120580111e-05,0.24975236809981516,0.0036663706607432504,0.9999677074648671,-0.00629473593285856,0.002589317394991889,0.44896465695654253,-0.0001049804890053711,0.24992959815414567,0.006094325371219222,0.999738629822473,-0.004376147838322204,0.02148411488657649,0.3824672272317567,0.21839537533458991,-1.1195434679461298,0.04875621805618015,0.17525944001862878,-0.025587347910351527,-0.09584867194177046,-0.18687444289022884,0.09802778079147832,-2.4998203343762224,0.014858013090803432,2.318167318995155,0.7884525488862858
0.45001008398651826,7.24022465370687e-05,0.24969754793679716,0.003757634929708366,0.9999667502674354,-0.006237212387788869,0.0029431676505440093,0.44896465695654253,-0.0001049804890053711,0.24992959815414567,0.006094325371219222,0.999738629822473,-0.004376147838322204,0.02148411488657649,0.40190277479424064,0.21961073519091465,-0.8942669578901781,0.06014383020069787,0.1603968422188433,-0.019401010191256143,-0.09584619121705934,-0.18730235149486812,0.09802531101173191,-2.5004745829382005,0.014825384905737005,2.3190878618756408,0.7884507029496429
0.4500023768499757,5.2070916211593086e-05,0.24969041300759204,0.0038081523050380543,0.9999645345435222,-0.006224515505692048,0.0035874159960737617,0.44896465695654253,-0.0001049804890053711,0.24992959815414567,0.006094325371219222,0.999738629822473,-0.004376147838322204,0.02148411488657649,0.18456728969418043,0.23648036631439576,-1.0368737286754206,0.07801404317000579,0.13003228755850782,-0.007850315199203674,-0.09582628580304998,-0.18803306559760566,0.09803307353821486,-2.5016850903489716,0.014638428094014364,2.3206233949530843,0.7884581003641947
0.44996343006495026,3.4395784549432214e-05,0.24970589544680574,0.0038543696723862455,0.9999618244297308,-0.006226608787841016,0.004231947081487209,0.44887424945841287,-5.7709694348573266e-05,0.2500245355718699,0.006428405307736173,0.9996876967081371,-0.003982128201040122,0.023717376684225938,0.2500187853906966,0.18285655229662165,-1.0630234558869283,0.07612334751738173,0.13564596544777824,-0.01400639853903674,-0.09583339729789461,-0.1884581402526705,0.09802778376319816,-2.5023933732368593,0.014605154846979364,2.321852725545157,0.7884521679538271
0.4499578696495067,2.739312500026716e-05,0.24970570721377108,0.003900774237001942,0.9999587485535338,-0.006208476987176453,0.004891470299498225,0.44887424945841287,-5.7709694348573266e-05,0.2500245355718699,0.006428405307736173,0.9996876967081371,-0.003982128201040122,0.023717376684225938,0.3926968572770684,0.14592729683991568,-1.1618912904426464,0.07655793143256023,0.15966697193511717,-0.03286823974699526,-0.09582640167486049,-0.18944788747181968,0.09803405819908904,-2.5038677929475477,0.014564849557846659,2.3240501005617764,0.7884524249697082
0.4499281705781023,2.863138780150493e-05,0.24968258568320398,0.003931377031006596,0.9999562347761801,-0.006193969610453184,0.005375319972211163,0.44887424945841287,-5.7709694348573266e-05,0.2500245355718699,0.006428405307736173,0.9996876967081371,-0.003982128201040122,0.023717376684225938,0.3354995901485302,0.16930969195743953,-0.9739765853484922,0.08343199448474413,0.1536811907191732,-0.027374044363311412,-0.0958117972071778,-0.18985193332291175,0.09803201884748398,-2.5045439298224434,0.014558551423706888,2.3252305201670054,0.7884572828242868
0.44992544812450896,3.111745826423586e-05,0.24970908548111376,0.003969233869763177,0.999952945304503,-0.00616817052181126,0.00595756248297234,0.44887424945841287,-5.7709694348573266e-05,0.2500245355718699,0.006428405307736173,0.9996876967081371,-0.003982128201040122,0.023717376684225938,0.24764024146704794,0.22966582570696698,-1.079671480893376,0.06449246951354572,0.14621379046766342,-0.03480191299821517,-0.09576914637783507,-0.19054317533201412,0.09803167081715766,-2.505699408571158,0.014537960379582654,2.327044884067435,0.7884556100027619
0.4499281482399543,3.2931268818330064e-05,0.24978682338765185,0.004007240240763904,0.9999492657270859,-0.006153035359562536,0.0065371762453492535,0.4488516174758452,1.2949660653635355e-05,0.2500987921301929,0.006599341042775896,0.9996915844890957,-0.003634181160840757,0.023561918277189,0.3122762125795687,0.10473058574144264,-1.0317689150757143,0.06346094358462341,0.16811620039333455,-0.05437723541781803,-0.09574070672311555,-0.1909680355563993,0.09802916516204098,-2.5062890474056125,0.014529616918600588,2.328048396355086,0.788457798634201
0.4498602202257855,6.064623442582927e-05,0.24980531457784155,0.00404283598099986,0.9999466078794574,-0.006108287616052608,0.006950698707417446,0.4488516174758452,1.2949660653635355e-05,0.2500987921301929,0.006599341042775896,0.9996915844890957,-0.003634181160840757,0.023561918277189,0.3498404107619585,0.10978217167893292,-0.9182184426815131,0.059303644821593886,0.1700253327701774,-0.06540439797207012,-0.09567478798973846,-0.1918575941980812,0.09803586891780988,-2.507342507264469,0.014519928397145075,2.3297151526375877,0.7884547739752009
0.44983271919617573,7.044738562673523e-05,0.2498033289871256,0.004084004287270881,0.999942377213576,-0.006079543663471007,0.0075358366819672905,0.4488516174758452,1.2949660653635355e-05,0.2500987921301929,0.006599341042775896,0.9996915844890957,-0.003634181160840757,0.023561918277189,0.3580883589448201,0.15635152246153258,-1.0505328104536438,0.058106943495270534,0.17793600408225393,-0.05751206978716359,-0.09561156362904726,-0.1922670560054768,0.09804375759414712,-2.5079276940601725,0.01450917579660252,2.330412011146551,0.7884512621249109
0.4497915984685424,5.437317018620918e-05,0.24980966933055065,0.004117104210315825,0.9999386777818651,-0.006079645381923974,0.007994658529839606,0.4488516174758452,1.2949660653635355e-05,0.2500987921301929,0.006599341042775896,0.9996915844890957,-0.003634181160840757,0.023561918277189,0.25781013757618054,0.186647168308383,-0.9823557689239825,0.03583372250369801,0.16671454126089102,-0.07072828731784722,-0.09556977108839813,-0.1930886321118268,0.09804551399189715,-2.5092284726048493,0.014489094139812583,2.332438744192618,0.7884511950414667
0.44974530264375784,6.146493618971986e-05,0.2498052482496543,0.00413717437487729,0.9999370044931305,-0.006063609474892357,0.008203048139060693,0.44896291576660124,5.734229922584032e-05,0.2500663271621495,0.006617752272800393,0.9997415231980817,-0.003383508827769561,0.02137359812086767,0.4256104294896934,0.05990690055921677,-0.874370835411612,0.04363580376908347,0.2031044244112116,-0.08578419854041522,-0.09556635166291297,-0.19344930173738,0.09804762792088628,-2.5097183211888976,0.014475925490883461,2.3331220056540483,0.7884525422693636
0.44975733654137384,7.397300701020088e-05,0.2497875648378346,0.00414517890473319,0.9999359565259948,-0.006043916616177357,0.008340140077624526,0.44896291576660124,5.734229922584032e-05,0.2500663271621495,0.006617752272800393,0.9997415231980817,-0.003383508827769561,0.02137359812086767,0.4043866953637489,0.0996424595089589,-0.911751577311091,0.048916493175059604,0.21352395572679145,-0.07837132748911325,-0.09552532158575815,-0.19376719901564587,0.09805472373112485,-2.510245215113784,0.01446662565007717,2.3338434374819728,0.7884538119647402
0.44979999728986053,7.727794242525491e-05,0.2497985253186457,0.004150901721897586,0.9999346441939343,-0.006034866942506073,0.008499662548787082,0.44896291576660124,5.734229922584032e-05,0.2500663271621495,0.006617752272800393,0.9997415231980817,-0.003383508827769561,0.02137359812086767,0.28677972204315133,0.10850090440028567,-0.9045868711649082,0.04267105955361753,0.20758318439872264,-0.08410105614867446,-0.09550672306008508,-0.19379851271689433,0.09806035109521286,-2.5103507576915867,0.014463924042880535,2.334094620886031,0.7884568292772334
0.449798556452087,7.802349588095481e-05,0.2497876659635232,0.004157769725121371,0.9999344821211317,-0.006025835036046175,0.008521751903903073,0.44896291576660124,5.734229922584032e-05,0.2500663271621495,0.006617752272800393,0.9997415231980817,-0.003383508827769561,0.02137359812086767,0.3114024799426444,0.02600598760853144,-0.8553360223163581,0.04452895503623184,0.2092993989680183,-0.09781418804269047,-0.09549922319253286,-0.19383218699065707,0.0980583366441977,-2.51043362859836,0.014442159641929677,2.3344361523085193,0.7884535728268147
0.4497956091585314,8.700931183638975e-05,0.24978214510411803,0.0041740729375245745,0.9999344741302232,-0.005993537894882054,0.008537481697429313,0.4490541047595255,7.678123085693763e-05,0.25005931602509734,0.00660105718717046,0.9997957418426989,-0.0031839970107486334,0.018706936988178335,0.2856992159905316,0.07963155017637195,-0.8868196652875164,0.041035746500935194,0.206829438099749,-0.09434677046657743,-0.09549534326593781,-0.19383639972878897,0.09805904826828724,-2.510466785084151,0.014432576123533505,2.334495766068786,0.7884552878973203
0.44979274151332144,9.919306306871606e-05,0.24977970989625126,0.004195177983073132,0.9999346259083275,-0.005957631660494542,0.008534491638779973,0.4490541047595255,7.678123085693763e-05,0.25005931602509734,0.00660105718717046,0.9997957418426989,-0.0031839970107486334,0.018706936988178335,0.2504510176518584,0.08388700469377688,-0.9227856925350034,0.056204703961914786,0.1932610999124434,-0.08248999701732965,-0.09544279074119638,-0.19384025206527397,0.09806431700270257,-2.5105024203371333,0.014366669385264232,2.33452741864305,0.7884493745424483
0.4497860118738106,9.184981576300522e-05,0.24977251451717108,0.004220337397259136,0.9999347169113267,-0.0059356613179612945,0.00852673002770338,0.4490541047595255,7.678123085693763e-05,0.25005931602509734,0.00660105718717046,0.9997957418426989,-0.0031839970107486334,0.018706936988178335,0.21605347119790816,0.06160687011333878,-0.8443554173837403,0.05480670897346979,0.17911861654867886,-0.08603945894958555,-0.09543332650218656,-0.19384808209407173,0.09806933816579466,-2.5105073673848564,0.014323540918350574,2.3345326431103244,0.7884537702535477
0.449788306480554,9.464156939844852e-05,0.24977819300713977,0.004224532522003177,0.9999346924027429,-0.005925218732688449,0.00853478590811224,0.4490541047595255,7.678123085693763e-05,0.25005931602509734,0.00660105718717046,0.9997957418426989,-0.0031839970107486334,0.018706936988178335,0.2129720396864195,0.028974169485055257,-0.8630536126207629,0.060043124482338096,0.17722017972700238,-0.08580249411609146,-0.09543211451398582,-0.19384558960671078,0.09806251913014968,-2.5105215585484855,0.014259651285537325,2.3345374023463688,0.7884565376862193
0.44978235136942113,9.619680513359896e-05,0.24977036049015933,0.004234956383443076,0.999934823600526,-0.00591048675922458,0.008524457498793674,0.449159384211369,8.000308987493521e-05,0.2500651109277586,0.00651724297692278,0.9998429117933363,-0.0030855887268224835,0.016041917569559576,0.19394606628008385,0.0581132167940903,-0.8663991609631009,0.05389967225310753,0.1691869197426303,-0.0927377701658073,-0.09542519064636636,-0.19385128535609603,0.09806751330170653,-2.510525747646251,0.014247122112389165,2.334536941819721,0.788452328712482
0.44977635759084394,0.00010127053787944935,0.2497622660562967,0.004241768704274432,0.9999349399325959,-0.0059002740041662,0.008514493612446801,0.449159384211369,8.000308987493521e-05,0.2500651109277586,0.00651724297692278,0.9998429117933363,-0.0030855887268224835,0.016041917569559576,0.18432818946677107,0.08117194172784738,-0.8950228234123856,0.04788682189100352,0.15290874535629634,-0.09746116414307573,-0.09541086413955785,-0.1938455763747019,0.09807100316797035,-2.5105441165476616,0.01422250077187527,2.3345336993270367,0.7884539074225568
0.44977448805705633,9.86138386277728e-05,0.24976095539438006,0.0042484438250776895,0.9999349635665994,-0.005892080553036768,0.008514063888387073,0.449159384211369,8.000308987493521e-05,0.2500651109277586,0.00651724297692278,0.9998429117933363,-0.0030855887268224835,0.016041917569559576,0.18212379964031003,0.04440216612482642,-0.8954510503873886,0.04627616585590867,0.1475506488264292,-0.10277019305189297,-0.09540966602706849,-0.19384873631166702,0.09806728856237466,-2.5105471246295,0.014195870750768436,2.3345352208453014,0.7884476013345372
0.44977350340437205,9.963789125236829e-05,0.2497613634039664,0.004256166257356223,0.9999349988340999,-0.005882391572771535,0.008512764555797688,0.449159384211369,8.000308987493521e-05,0.2500651109277586,0.00651724297692278,0.9998429117933363,-0.0030855887268224835,0.016041917569559576,0.1653308105563002,0.06445800818939942,-0.8685163489246126,0.04258598629957863,0.14016053980574306,-0.10518241744115508,-0.09540333030532272,-0.19385301885961073,0.09806755814834214,-2.51055752052959,0.01418020757980828,2.3345348719932386,0.7884535004157779
0.4497694900934267,0.00010026414949917986,0.24975340668995588,0.004258699712519228,0.9999350785077505,-0.005880379641105611,0.008503523822951772,0.4492820716014886,7.540670738507454e-05,0.2500898899529723,0.006403757746965436,0.9998827040810658,-0.0030327422656612735,0.01339996790305224,0.17742385576169303,0.0720289721647887,-0.8983230324876086,0.04425802347801677,0.14025102413569443,-0.10645424579102704,-0.0954001602744015,-0.19384557622475915,0.0980730757442161,-2.5105615221662676,0.01416652139898002,2.334534512941026,0.7884554607115649
0.449766354977052,0.00010086089015819362,0.24974984773218423,0.00426072955237026,0.9999351290273591,-0.0058756550040398045,0.008499831465069755,0.4492820716014886,7.540670738507454e-05,0.2500898899529723,0.006403757746965436,0.9998827040810658,-0.0030327422656612735,0.01339996790305224,0.16259665720848654,0.07848202881253832,-0.8998419168556472,0.040276531452190345,0.12878668601070462,-0.1064705806816338,-0.0953984121943124,-0.19383926321916384,0.09807088322183251,-2.510572479961391,0.014157071790856164,2.334531265626899,0.7884528387802126
0.44976573049161145,0.00010150494763172791,0.2497524636110931,0.004265638118020972,0.9999351424631702,-0.005868856212126088,0.008500485968010955,0.4492820716014886,7.540670738507454e-05,0.2500898899529723,0.006403757746965436,0.9998827040810658,-0.0030327422656612735,0.01339996790305224,0.12877404301799508,0.03726284760321695,-0.9302358158290847,0.039886247830986106,0.12607613649801608,-0.11266682286306301,-0.09539458564670665,-0.19384168944099817,0.09806895048754369,-2.510567428120395,0.014151424937185235,2.3345288688307293,0.7884555838740966
0.4497630718921709,0.00010589340986239909,0.2497489420715862,0.004268403223107924,0.9999352322291625,-0.005857630891362196,0.008496280246989832,0.4492820716014886,7.540670738507454e-05,0.2500898899529723,0.006403757746965436,0.9998827040810658,-0.0030327422656612735,0.01339996790305224,0.12777424839034476,0.11893545582833333,-0.894165079463432,0.0321132814745232,0.1233773324769241,-0.11057547059008332,-0.09538208536322053,-0.19383886884055096,0.09807422205297572,-2.510570603933876,0.014139447179950138,2.334527214361706,0.7884538867347914
0.4497640620146729,0.00010344967304832017,0.24974896511381817,0.004267353718809157,0.9999351894815549,-0.005865604749957772,0.008496337219748644,0.44941102226187557,6.971430113360257e-05,0.2501225838251595,0.00628063650382538,0.9999153916304182,-0.0029931331842606105,0.010769913676139652,0.10966030328449097,0.058082691643412274,-0.9409905543456448,0.04550563616135205,0.12259282046993676,-0.09792331375443525,-0.0953925042799435,-0.1938391837885505,0.09807112184010054,-2.5105698474094194,0.014140870710422915,2.3345287402205996,0.7884505556363683
0.44976274992937837,0.00010420927284623858,0.24974524423621233,0.004269696372232846,0.9999352566405981,-0.005860479203979495,0.008490791499504732,0.44941102226187557,6.971430113360257e-05,0.2501225838251595,0.00628063650382538,0.9999153916304182,-0.0029931331842606105,0.010769913676139652,0.10943107155542689,0.02279125065417028,-0.9225700598321597,0.043228782329054055,0.11355421109625692,-0.10694585570413694,-0.0953873659828207,-0.19383599494005505,0.09807194905053271,-2.5105726114008338,0.014136078891843817,2.334523216159705,0.7884535642239788
0.449761531974217,0.00010541046507414262,0.24974685206703184,0.004273041766026507,0.9999352813073864,-0.005853401468295128,0.008491085868858668,0.44941102226187557,6.971430113360257e-05,0.2501225838251595,0.00628063650382538,0.9999153916304182,-0.0029931331842606105,0.010769913676139652,0.08498664628789371,0.09421960572216759,-0.9302475696638117,0.025400195625339617,0.1060673287178406,-0.11864271205780286,-0.09538585868598777,-0.1938412029643599,0.0980718124853937,-2.510572381789197,0.014127115102863274,2.3345185355716107,0.7884549947215442
0.4497609953245776,0.00011062509759849198,0.24974653307780964,0.004273998445247198,0.9999353180111571,-0.005846977171049099,0.008490708258833992,0.44941102226187557,6.971430113360257e-05,0.2501225838251595,0.00628063650382538,0.9999153916304182,-0.0029931331842606105,0.010769913676139652,0.08013790876180533,0.10037300848723327,-0.9321162838988424,0.022891309115697905,0.10429446781196736,-0.12419583073264548,-0.09538098258671891,-0.19383850026981167,0.09807394335144443,-2.51057487025159,0.014125661816586909,2.3345176776167706,0.7884505756216634
0.4497632298038304,0.00010955425803093244,0.24974872679713053,0.004273809335329207,0.9999352755124332,-0.005851105610666732,0.008492964152701569,0.44941102226187557,6.971430113360257e-05,0.2501225838251595,0.00628063650382538,0.9999153916304182,-0.0029931331842606105,0.010769913676139652,0.08175649747564209,0.08269251872403093,-0.932148391332951,0.02621724458555008,0.1056521013118371,-0.11950015777785608,-0.09537710298467099,-0.1938384976772026,0.09808003504938911,-2.5105748894742788,0.014124593692822178,2.334516982982254,0.788454042417477
0.4497628915493254,0.00010747360752522382,0.24974713111356958,0.004273475989742347,0.999935283549225,-0.00585079215641367,0.008492401590999466,0.44941102226187557,6.971430113360257e-05,0.2501225838251595,0.00628063650382538,0.9999153916304182,-0.0029931331842606105,0.010769913676139652,0.09271927188760215,0.06906448073626757,-0.9474856584603345,0.029123974848322066,0.10933315231152357,-0.11615531901687101,-0.09537487923956203,-0.19383564488982455,0.09807206095233387,-2.510578589993594,0.014116192304944965,2.3345169786036584,0.7884585005052009
0.44976205018199783,0.00011041108638256494,0.24974697630751638,0.004275771847177196,0.9999353212101217,-0.005844803145571234,0.008490935483947613,0.44941102226187557,6.971430113360257e-05,0.2501225838251595,0.00628063650382538,0.9999153916304182,-0.0029931331842606105,0.010769913676139652,0.09670204128101605,0.07724035163034117,-0.9243964420160024,0.032059357415682395,0.10811899082270067,-0.11185059803679305,-0.09536868862646923,-0.19383386904105593,0.09807182266576915,-2.5105729445882794,0.014116904430541612,2.334516970367021,0.7884542624059699
0.44976174373565747,0.00010717894998378101,0.2497467846908088,0.004274661752179297,0.9999352805204061,-0.005853300924472703,0.008490432437261436,0.44941102226187557,6.971430113360257e-05,0.2501225838251595,0.00628063650382538,0.9999153916304182,-0.0029931331842606105,0.010769913676139652,0.09141050165227953,0.07246043758033666,-0.9343745604131584,0.033101802103147254,0.10662058717563552,-0.10393956954579543,-0.09536860952146717,-0.19384128364501965,0.09807718447653062,-2.510572824120889,0.01411299612764374,2.3345173187344406,0.7884567502146119
0.4497619888551474,0.00010900298727650248,0.249746174462549,0.004276475118659796,0.9999353317166695,-0.005845913221546141,0.008488579472377722,0.44941102226187557,6.971430113360257e-05,0.2501225838251595,0.00628063650382538,0.9999153916304182,-0.0029931331842606105,0.010769913676139652,0.11903908350517826,0.04285783649120862,-0.8955929550898253,0.040675778889695854,0.108383879350363,-0.10515211475405742,-0.09537640634163823,-0.19384352673464214,0.09807653084919168,-2.5105722883905206,0.014114318072974431,2.3345176775985292,0.7884549315886404
0.4497597883163058,0.00011049574343462474,0.24974278500500002,0.0042766388810952264,0.9999353706263986,-0.005845697958600864,0.008484060533478608,0.44941102226187557,6.971430113360257e-05,0.2501225838251595,0.00628063650382538,0.9999153916304182,-0.0029931331842606105,0.010769913676139652,0.10304512022895744,0.06692900473432394,-0.9372328188961555,0.03434645137511558,0.10612883671344513,-0.11175001668927578,-0.09537139359333789,-0.19383210800923184,0.09807489922028233,-2.510576177223466,0.0141126028515984,2.3345144400051856,0.7884503334606369
0.4497593713869564,0.00010870932968343237,0.24974417748413355,0.00427789282838324,0.9999353457765104,-0.005846475265905701,0.008485821369315296,0.44941102226187557,6.971430113360257e-05,0.2501225838251595,0.00628063650382538,0.9999153916304182,-0.0029931331842606105,0.010769913676139652,0.08998194075677149,0.07319364473244895,-0.9465437371613958,0.03575642563027322,0.10626743097967419,-0.1102074241866916,-0.09537138480013505,-0.19383455183838222,0.09807489185203104,-2.5105747250696937,0.014109391586156336,2.3345129092270236,0.7884568909119914
0.449757091859387,0.00011193475278967347,0.24973972472254613,0.004277245357680749,0.9999354088653793,-0.005842994493185105,0.008481109745358576,0.44941102226187557,6.971430113360257e-05,0.2501225838251595,0.00628063650382538,0.9999153916304182,-0.0029931331842606105,0.010769913676139652,0.09377551991571159,0.0644745220570786,-0.9422802865977905,0.03813016637474144,0.10543383505671033,-0.10776041279275561,-0.0953713672742404,-0.1938299701079275,0.09807537056311118,-2.510578944187363,0.014108185000857101,2.3345129092448924,0.7884565323606714
0.4497582780082798,0.00011119762754498711,0.2497410033174325,0.004278360625087807,0.9999354037176106,-0.0058408758969267765,0.008482613342603815,0.44941102226187557,6.971430113360257e-05,0.2501225838251595,0.00628063650382538,0.9999153916304182,-0.0029931331842606105,0.010769913676139652,0.08204963235327048,0.05610094857649356,-0.9556709498077289,0.0362037692960901,0.10398033963980853,-0.10855937466390893,-0.095375668291622,-0.19382959056914717,0.0980803562902332,-2.5105736395693397,0.014109721160004508,2.3345144395382844,0.7884504167542692
0.4497594357720406,0.0001084835734336878,0.2497433416046314,0.004278426338197592,0.9999353645892481,-0.00584420679531979,0.008484898142274792,0.44941102226187557,6.971430113360257e-05,0.2501225838251595,0.00628063650382538,0.9999153916304182,-0.0029931331842606105,0.010769913676139652,0.07492447987850635,0.0674815432731325,-0.9655324840310066,0.034242271078375894,0.10543514351541705,-0.1111960056536447,-0.09537173773109507,-0.19383210799613235,0.09807751313359189,-2.5105786871287323,0.014106075391596952,2.334512197150127,0.7884527343645114
0.4497583896070618,0.00011176557800465964,0.2497412166079558,0.004280277679129109,0.9999353852346258,-0.005842723549621919,0.008482552563448197,0.44941102226187557,6.971430113360257e-05,0.2501225838251595,0.00628063650382538,0.9999153916304182,-0.0029931331842606105,0.010769913676139652,0.08290559740277187,0.053862279170355506,-0.9362735310004001,0.03628104007505341,0.10857805437832688,-0.11008739655009053,-0.09537043662844079,-0.19383489206884097,0.09807747513421874,-2.5105715263655197,0.014102526790008417,2.3345130318822034,0.7884562578157951
0.44975840523929217,0.0001101712577054987,0.24974225807505218,0.004280152088759228,0.9999353952124398,-0.005839540436746071,0.00848363158702386,0.44941102226187557,6.971430113360257e-05,0.2501225838251595,0.00628063650382538,0.9999153916304182,-0.0029931331842606105,0.010769913676139652,0.0777958090450985,0.033010781923641624,-0.9378015279080415,0.04736683216352599,0.1102657942656537,-0.09643962350100323,-0.0953742740225813,-0.19382960234190288,0.09807213704667431,-2.5105817007636464,0.014101810382792,2.334512358494867,0.7884589268355143
0.44975861175945486,0.00011048514960251219,0.24974132957911038,0.004280299189307287,0.9999354123635619,-0.005837974135413608,0.00848261376130056,0.44941102226187557,6.971430113360257e-05,0.2501225838251595,0.00628063650382538,0.9999153916304182,-0.0029931331842606105,0.010769913676139652,0.09731003273629892,0.048369094316826726,-0.8946408775074564,0.04213553314503783,0.1072759952684527,-0.09805036450581348,-0.0953713804417709,-0.19383210898588665,0.09807947994856511,-2.510578610373351,0.014106329561358329,2.3345113852861856,0.7884579615947631
0.44975714543441714,0.0001083678149149836,0.24973886463860964,0.004279848770328244,0.9999353915817785,-0.005845080191658888,0.008480396919822704,0.44941102226187557,6.971430113360257e-05,0.2501225838251595,0.00628063650382538,0.9999153916304182,-0.0029931331842606105,0.010769913676139652,0.090509441129326,0.042374444659986056,-0.9303377750854691,0.045934564416675566,0.10695930845186336,-0.09644293589251132,-0.09537357429920086,-0.19383139892473214,0.09807263823246813,-2.5105774034691977,0.014102218087008242,2.3345139688650764,0.7884522069562312
0.44975782243798396,0.00011187406940403492,0.2497402509689264,0.004280962867507952,0.9999354084755047,-0.005838160996624784,0.008482608566074256,0.44941102226187557,6.971430113360257e-05,0.2501225838251595,0.00628063650382538,0.9999153916304182,-0.0029931331842606105,0.010769913676139652,0.07759671496765154,0.05008941981640013,-0.9350669757954618,0.04002481674675016,0.10437590076288351,-0.10441228639628287,-0.09537070293601181,-0.19383276518433398,0.09807740915812527,-2.5105796720809392,0.014099818560048416,2.3345144394665045,0.7884531527235731
0.44975884862026183,0.00011029514887576905,0.24974133072432889,0.0042815559633791155,0.9999353866430783,-0.005839653706788988,0.008483855258422211,0.44941102226187557,6.971430113360257e-05,0.2501225838251595,0.00628063650382538,0.9999153916304182,-0.0029931331842606105,0.010769913676139652,0.0714593307127753,0.03549548802330966,-0.9646357748957327,0.037297620701706544,0.10754500381439067,-0.10863804389485181,-0.09536819728215536,-0.19383739738520506,0.09807958820882738,-2.5105842873878856,0.014098796062548588,2.3345137230290307,0.7884562237072292
0.4497581306189384,0.0001089670738683325,0.24974063659104778,0.00428507119912222,0.9999354132867819,-0.005835067045834409,0.008482095885490565,0.44941102226187557,6.971430113360257e-05,0.2501225838251595,0.00628063650382538,0.9999153916304182,-0.0029931331842606105,0.010769913676139652,0.08756278612817664,0.0721390497119736,-0.9256835234173076,0.03149452631407088,0.10683042494812559,-0.11112168055039942,-0.09536956004344739,-0.1938321079956839,0.09807504375219475,-2.51057641412694,0.014098207894801576,2.334512913587598,0.788449977198754
0.449759286132968,0.00011299434288886732,0.249743120101491,0.00428542834386874,0.9999354200880782,-0.005829991408840375,0.008484603460091998,0.44941102226187557,6.971430113360257e-05,0.2501225838251595,0.00628063650382538,0.9999153916304182,-0.0029931331842606105,0.010769913676139652,0.08454518724110503,0.0260322085253833,-0.9330641479078987,0.03026253089096675,0.10659306194499887,-0.11849017950787012,-0.09536430612618778,-0.19383489205544394,0.09807512683646147,-2.5105814014702923,0.014088753666388966,2.334511383348263,0.7884540681103609
0.4497573246881299,0.00011317439849723511,0.2497411356491091,0.004288610852620235,0.9999354430398817,-0.005827103333477282,0.008482274164838084,0.44941102226187557,6.971430113360257e-05,0.2501225838251595,0.00628063650382538,0.9999153916304182,-0.0029931331842606105,0.010769913676139652,0.08667947540323653,0.06747670082463302,-0.9356879197380972,0.03553295980089229,0.10607882071213956,-0.11460705763619118,-0.09535677695593914,-0.19383210795567757,0.09807761970823327,-2.5105764507495265,0.0140892070803436,2.3345121986036745,0.7884497527576145
0.4497572849777988,0.0001126705708024235,0.24974105622574688,0.00428872659436812,0.9999354350976855,-0.005827664439852553,0.008482766413276962,0.44941102226187557,6.971430113360257e-05,0.2501225838251595,0.00628063650382538,0.9999153916304182,-0.0029931331842606105,0.010769913676139652,0.08468144401520981,0.07081432056873305,-0.939145523939429,0.03272312840770867,0.10219595957729186,-0.1167724540205253,-0.09536209662787966,-0.19383209909778742,0.09807788534531843,-2.5105764217466415,0.014080426045697434,2.334512909226947,0.788449746178413
0.4497580268871938,0.00011044300299141044,0.24974067251028598,0.004290502425238481,0.9999354292580237,-0.005827937072778907,0.008482369457658767,0.44941102226187557,6.971430113360257e-05,0.2501225838251595,0.00628063650382538,0.9999153916304182,-0.0029931331842606105,0.010769913676139652,0.07254544586104372,0.057650760316838856,-0.9352715610132312,0.03651164069283129,0.1011746058525186,-0.11287407448175323,-0.09535864252527028,-0.19383488316287376,0.09807857548682951,-2.5105819788379393,0.014075968398716788,2.3345137228675252,0.7884573678145074
0.44975787983160004,0.00011446095503750395,0.24974025110523537,0.004291181732729654,0.9999354673300309,-0.005821573894352223,0.008481907284824362,0.44941102226187557,6.971430113360257e-05,0.2501225838251595,0.00628063650382538,0.9999153916304182,-0.0029931331842606105,0.010769913676139652,0.08638564312392523,0.05996901297847182,-0.93532399373165,0.0331016218570721,0.10435174409225559,-0.11553442618836568,-0.09536115745564218,-0.19383418337437117,0.09807580135436769,-2.5105769613570263,0.014077131570351705,2.3345137099470783,0.7884562892495193
0.44975799548618733,0.0001158298097820553,0.24974053981043773,0.004290709766858749,0.9999354669134065,-0.005821498536356331,0.00848224688075229,0.44941102226187557,6.971430113360257e-05,0.2501225838251595,0.00628063650382538,0.9999153916304182,-0.0029931331842606105,0.010769913676139652,0.09030709064396769,0.06380915176707243,-0.9111997880707069,0.02843140750112394,0.10013793989572721,-0.1152995429442387,-0.09536112159729808,-0.193837397695739,0.09807508775755967,-2.5105786760373707,0.014073048347709637,2.334512909226947,0.7884581572586917
0.4497585957497324,0.00011329363551792682,0.24974208084781876,0.004290441406786847,0.9999354389736715,-0.005822848728063662,0.008484749181364827,0.44941102226187557,6.971430113360257e-05,0.2501225838251595,0.00628063650382538,0.9999153916304182,-0.0029931331842606105,0.010769913676139652,0.06637814063214661,0.06269810786908854,-0.9517975859846652,0.03341692098621372,0.10380599283748303,-0.11208166893426873,-0.09536135814838456,-0.1938351842845222,0.09808314295310894,-2.5105797786965156,0.014073891897843863,2.3345144365653856,0.7884529692760842
0.44975663807871175,0.00011167447070801846,0.24973954295484335,0.004290629166151677,0.9999354705016072,-0.005823975806993295,0.008480163839166483,0.44941102226187557,6.971430113360257e-05,0.2501225838251595,0.00628063650382538,0.9999153916304182,-0.0029931331842606105,0.010769913676139652,0.08730047593085108,0.0629331928068348,-0.9281945303573377,0.038195752049975946,0.1078956647465563,-0.11033100126904591,-0.09535872094277743,-0.19382960234190838,0.09808111448784886,-2.5105800283193864,0.014074625998158787,2.334513736111232,0.7884574366306191
0.4497575582410766,0.000114129677455876,0.24974048752241787,0.004290407139163812,0.9999354572825794,-0.005824761640751614,0.00848129508359255,0.44941102226187557,6.971430113360257e-05,0.2501225838251595,0.00628063650382538,0.9999153916304182,-0.0029931331842606105,0.010769913676139652,0.08681506803103177,0.0648744537409723,-0.9239159737328653,0.03427185889841099,0.10743445540951102,-0.11375839285560196,-0.09535861680756945,-0.19383485414323728,0.09807759737032705,-2.5105842873922453,0.01407374721946611,2.3345139732317173,0.7884492210685374
0.44975727645700175,0.00011350163440608051,0.2497385145622539,0.004292172098322751,0.9999354768412206,-0.00582330567871605,0.00847909563930523,0.44941102226187557,6.971430113360257e-05,0.2501225838251595,0.00628063650382538,0.9999153916304182,-0.0029931331842606105,0.010769913676139652,0.0910766400763845,0.06656535391178035,-0.9355669752874027,0.03437738706962073,0.11022223689040896,-0.11356499086192728,-0.0953613577002921,-0.19383213436340302,0.09807574640810844,-2.510581224767502,0.014072563471708922,2.3345121971501244,0.7884475638561816
0.4497558480700624,0.00011098289062850014,0.24973862068776542,0.004292767820199253,0.9999354528948339,-0.005826576675032938,0.008479370931911742,0.44941102226187557,6.971430113360257e-05,0.2501225838251595,0.00628063650382538,0.9999153916304182,-0.0029931331842606105,0.010769913676139652,0.07317040452442186,0.060522801110675505,-0.9376023935405731,0.03537296002129712,0.10488348157625949,-0.11260013475392709,-0.0953611214892906,-0.19383210362694675,0.09807525822765932,-2.5105847090724556,0.01407386253805755,2.334512907773397,0.7884517181057892
0.4497576670167801,0.00011298494071842685,0.2497403871217519,0.0042935400931350745,0.9999354605211519,-0.005821695508969331,0.008481433027557087,0.44941102226187557,6.971430113360257e-05,0.2501225838251595,0.00628063650382538,0.9999153916304182,-0.0029931331842606105,0.010769913676139652,0.09722575430738406,0.053471453563854666,-0.9129872617847185,0.03514905066529799,0.10381427709977245,-0.11804352705792043,-0.09535861691572994,-0.1938317928915117,0.09807825233853613,-2.510584955203022,0.014074354512976138,2.334512909226947,0.7884542635737267
0.4497581723226278,0.00011323238549628102,0.24974185976938562,0.004296624453278486,0.9999354660719618,-0.00581563790994004,0.008483372252539777,0.44941102226187557,6.971430113360257e-05,0.2501225838251595,0.00628063650382538,0.9999153916304182,-0.0029931331842606105,0.010769913676139652,0.08529714877218955,0.0586908424710441,-0.9478653000696406,0.027101559653357678,0.10911733827837507,-0.11992015715592484,-0.09536088474372867,-0.19383210799553763,0.09807595585210369,-2.5105819968154925,0.014063693831674391,2.334515380425163,0.7884556483376758
0.4497586930528,0.00011288575028003438,0.24974170635242945,0.004295609937508474,0.9999354494658595,-0.00582026692704265,0.008482668726978192,0.44941102226187557,6.971430113360257e-05,0.2501225838251595,0.00628063650382538,0.9999153916304182,-0.0029931331842606105,0.010769913676139652,0.09710302946363128,0.051224860809987484,-0.9324857736419927,0.035210944323870494,0.11139055025681391,-0.1135819979948858,-0.09535792627293282,-0.19383739770922737,0.09808068008774523,-2.5105799153730826,0.01406044554971516,2.3345125503708344,0.7884555836035032
0.44975846470416164,0.00011475211961868361,0.24974229206958126,0.004297997981384347,0.999935467315243,-0.005813869213832009,0.008483742250975436,0.44941102226187557,6.971430113360257e-05,0.2501225838251595,0.00628063650382538,0.9999153916304182,-0.0029931331842606105,0.010769913676139652,0.06719310716091276,0.07398667480586896,-0.9537608058781539,0.02713753605110352,0.10884415597764065,-0.11819886699293213,-0.09535439355943355,-0.19383488769724003,0.09808071062906223,-2.510579505554443,0.014051385308083982,2.33451372302844,0.7884496667450672
0.4497579874506947,0.00011206904417185372,0.24974225014759643,0.004299482807564191,0.999935456379052,-0.005815072047273983,0.008483454487404516,0.44941102226187557,6.971430113360257e-05,0.2501225838251595,0.00628063650382538,0.9999153916304182,-0.0029931331842606105,0.010769913676139652,0.07160825997805469,0.07229613690603719,-0.9507094524022774,0.03533525290864901,0.1077905785283265,-0.10831548245051667,-0.09535791194731803,-0.19382974586776022,0.09807532592782618,-2.5105822530697166,0.014054208234035973,2.334513723190536,0.7884498661176541
0.44975670998621353,0.00011427853734605171,0.24973979475659694,0.004301925117333022,0.9999354887618875,-0.005811764619082865,0.00848066544311312,0.44941102226187557,6.971430113360257e-05,0.2501225838251595,0.00628063650382538,0.9999153916304182,-0.0029931331842606105,0.010769913676139652,0.06530796048935456,0.009098475399008123,-0.9032536095847613,0.04249646102386886,0.10218412984223549,-0.11062682178271152,-0.09535573809116488,-0.19383489346607047,0.09807761968378123,-2.5105842934998424,0.014048469369460831,2.3345148014005157,0.7884576609433973
0.44975800591487836,0.00011484405849121185,0.24974280650262803,0.004303704702401903,0.9999354638259279,-0.005809781186309688,0.008484061013135445,0.44941102226187557,6.971430113360257e-05,0.2501225838251595,0.00628063650382538,0.9999153916304182,-0.0029931331842606105,0.010769913676139652,0.0652873653358326,0.04888705716896261,-0.9358047149608427,0.036684954973579514,0.1040482836119676,-0.11139819626051081,-0.09535534061552178,-0.1938347778429082,0.09807471073502999,-2.5105874482461665,0.014044840517465202,2.334512069993549,0.7884570684684216
0.4497556928086537,0.00011480361778583023,0.2497381877329369,0.004302842724171932,0.9999355179101149,-0.005807907739152049,0.008479405271958347,0.44941102226187557,6.971430113360257e-05,0.2501225838251595,0.00628063650382538,0.9999153916304182,-0.0029931331842606105,0.010769913676139652,0.08273595193533761,0.056853843730069076,-0.9243917166226505,0.03828363468512101,0.1055049052322598,-0.11013779105510524,-0.09534926413465636,-0.1938294973538526,0.09807992152768036,-2.5105772710201224,0.014041782057745448,2.3345137230290307,0.7884554702341975
0.44975807434134346,0.00011384790914282387,0.2497418859443882,0.004304281672374924,0.9999354829722723,-0.005807105142702918,0.008483343795415868,0.44941102226187557,6.971430113360257e-05,0.2501225838251595,0.00628063650382538,0.9999153916304182,-0.0029931331842606105,0.010769913676139652,0.07373004824302494,0.057690261036164314,-0.940815812349254,0.04004086264294235,0.10585511396057652,-0.10694380922680956,-0.0953547489133841,-0.1938348920415169,0.09808133762404835,-2.510582173117424,0.014036627762556948,2.3345121971501244,0.7884542514136542
0.44975581907067147,0.0001159417921929954,0.2497376590745001,0.004309393109844352,0.9999355677816284,-0.00579708043523958,0.008477606681187676,0.44941102226187557,6.971430113360257e-05,0.2501225838251595,0.00628063650382538,0.9999153916304182,-0.0029931331842606105,0.010769913676139652,0.08455584713291324,0.07723568260283441,-0.9371458584330393,0.03176754645788611,0.10792626066125421,-0.11637495509491756,-0.09535123676558911,-0.1938310043854142,0.09807820508354594,-2.510582799586123,0.01403708688039022,2.3345137235135476,0.7884546975134662
0.44975528916934115,0.00011186845608734718,0.24973783947345327,0.004310988279644958,0.9999355263188319,-0.005802012344313748,0.008478312235978848,0.44941102226187557,6.971430113360257e-05,0.2501225838251595,0.00628063650382538,0.9999153916304182,-0.0029931331842606105,0.010769913676139652,0.09288716352361466,0.07043664068729727,-0.9389124753853013,0.02697128886947873,0.1106706620129701,-0.12677070801225962,-0.09535161151703682,-0.19383418338451477,0.09807534210282225,-2.5105831997482984,0.014026432172095695,2.334512909226701,0.7884582834661733
0.44975750271572457,0.00011343987296251544,0.24973946037382977,0.004312557668023836,0.9999355210728954,-0.0057990957204247205,0.008480128071330546,0.44941102226187557,6.971430113360257e-05,0.2501225838251595,0.00628063650382538,0.9999153916304182,-0.0029931331842606105,0.010769913676139652,0.08610913126762855,0.07982093325348248,-0.9331157046197073,0.026202409655802734,0.10972191203526602,-0.12852774192762292,-0.09534614874139853,-0.1938341542590462,0.09807542393997228,-2.5105808056531767,0.014017457003393848,2.3345128699630715,0.7884554741717553
