platonics-delft/platonics_dataset/execution_data/data_trial3.csv
current_pos_x,current_pos_y,current_pos_z,current_orientation_w,current_orientation_x,current_orientation_y,current_orientation_z,goal_pos_x,goal_pos_y,goal_pos_z,goal_orientation_w,goal_orientation_x,goal_orientation_y,goal_orientation_z,force_x,force_y,force_z,torque_x,torque_y,torque_z,joint_1,joint_2,joint_3,joint_4,joint_5,joint_6,joint_7
0.45010967092672866,6.059588000380404e-05,0.2500361356496055,0.0010739911332887982,0.9999909167654344,0.0016437501517462723,-0.0030818345573826737,0.4509628910599106,-0.00010406485086217836,0.250631523953623,0.003192276459492909,0.9997970675031103,0.006100822058117594,-0.020163046099042528,-0.6677326440724183,0.2700074588008924,-1.4345943449546896,-0.021656328642169986,-0.27214077448751095,-0.21315251755557213,-0.09428093739699843,-0.18247652303200024,0.09477052102566967,-2.4916326082562583,0.020192734689791454,2.3036952247518565,0.7674267197429295
0.45010655002902805,5.920043014824772e-05,0.25003416552375346,0.001073923788906659,0.9999909008472934,0.0016420351962038496,-0.0030879313276844355,0.4509628910599106,-0.00010406485086217836,0.250631523953623,0.003192276459492909,0.9997970675031103,0.006100822058117594,-0.020163046099042528,-0.6972245882675622,0.28379854589119435,-1.4874429499159656,-0.026988366702490333,-0.2751329070898736,-0.2179778640665571,-0.09428344153210928,-0.18248386982380962,0.09476753625625457,-2.491629544072037,0.020193345029103815,2.303687779076367,0.7674292147884018
0.4501057943825085,5.9924545860325715e-05,0.2500341734604093,0.0010748678879414452,0.9999908897695913,0.001644791806116027,-0.0030897226204798646,0.4509628910599106,-0.00010406485086217836,0.250631523953623,0.003192276459492909,0.9997970675031103,0.006100822058117594,-0.020163046099042528,-0.700401026642413,0.2893208076638722,-1.4600140798304533,-0.02679439001540273,-0.27656464128630526,-0.2200440206209603,-0.09427559468314452,-0.18248078916447202,0.09477054831144822,-2.4916271752902146,0.02019393767446153,2.3036793950509247,0.7674320465225424
0.4501107473318991,6.140600670974973e-05,0.25003929869443603,0.0010743813433500345,0.9999909135318897,0.0016419748080472806,-0.003083693608703207,0.4509628910599106,-0.00010406485086217836,0.250631523953623,0.003192276459492909,0.9997970675031103,0.006100822058117594,-0.020163046099042528,-0.7000111350159881,0.2919109252517454,-1.4849822243991293,-0.02917499695720669,-0.2715035630770679,-0.22087406642267549,-0.09428089710785709,-0.182478315337147,0.0947709318681272,-2.4916292861874956,0.020192885477762094,2.3036768594930996,0.7674281920009339
0.45010736032279225,6.113692181750417e-05,0.2500341224437982,0.001075209148691588,0.9999908868953159,0.0016448340193091736,-0.0030905115703889316,0.4509628910599106,-0.00010406485086217836,0.250631523953623,0.003192276459492909,0.9997970675031103,0.006100822058117594,-0.020163046099042528,-0.6803137249278688,0.2896530573797291,-1.4528299795592856,-0.02535686948463924,-0.26965465536982697,-0.2170640396201071,-0.09428344196813147,-0.18247520005443726,0.09477489925719626,-2.4916208450303863,0.02018961754309643,2.3036757993433947,0.767425600033142
0.4501101924862232,6.012260748770228e-05,0.25003772318975886,0.0010755173985854826,0.9999909036814937,0.0016427431385442593,-0.003086081774772284,0.4509628910599106,-0.00010406485086217836,0.250631523953623,0.003192276459492909,0.9997970675031103,0.006100822058117594,-0.020163046099042528,-0.6831048828306217,0.26252739715904255,-1.4486064380085395,-0.025794260230128027,-0.26826222403657474,-0.2204356035858702,-0.09427881009133081,-0.18248320291449158,0.0947783436733602,-2.4916232274731227,0.020189536807229444,2.3036735615497617,0.7674291042128867
0.45011542295740153,5.995271965468562e-05,0.2500437955445864,0.001075863109019528,0.9999909240415938,0.0016449768530503923,-0.003078163945012216,0.4509628910599106,-0.00010406485086217836,0.250631523953623,0.003192276459492909,0.9997970675031103,0.006100822058117594,-0.020163046099042528,-0.6863177220155938,0.28880820611988633,-1.4528264843256458,-0.02423524194827192,-0.2694086501282119,-0.21639334535050392,-0.09428085757734675,-0.18247856926934028,0.09477282559307108,-2.4916116057727353,0.02018854806464916,2.3036735599280598,0.7674295398542877
0.4501122884693017,5.782731138103248e-05,0.25004012305255624,0.0010754854232769004,0.999990911958113,0.001641897393118392,-0.0030838603072003007,0.4509628910599106,-0.00010406485086217836,0.250631523953623,0.003192276459492909,0.9997970675031103,0.006100822058117594,-0.020163046099042528,-0.6802539214696065,0.28845580605366117,-1.4717275488447292,-0.02515251847886339,-0.26891057576814764,-0.21474435633536942,-0.09427843066056629,-0.18248289626968026,0.09476957493543559,-2.491613875352991,0.02018859043279987,2.3036746156506633,0.7674284874308425
0.45011225862611837,5.890343925789903e-05,0.25003966528030025,0.001076136586800134,0.9999908963694989,0.0016468046391283281,-0.003086070597658806,0.4509628910599106,-0.00010406485086217836,0.250631523953623,0.003192276459492909,0.9997970675031103,0.006100822058117594,-0.020163046099042528,-0.6946942980045508,0.29597990499251553,-1.4485539716245734,-0.029181892741282755,-0.27415993639121283,-0.21748988082702478,-0.09428344186010786,-0.18247830654858918,0.0947730361024615,-2.4916118105747023,0.020186857640015793,2.3036684410940524,0.7674307429355961
0.4501097588238139,6.185417288030307e-05,0.25003844295587835,0.0010759925461465134,0.9999908842725304,0.0016493002766407546,-0.003088706771714427,0.4509628910599106,-0.00010406485086217836,0.250631523953623,0.003192276459492909,0.9997970675031103,0.006100822058117594,-0.020163046099042528,-0.6810120159595343,0.27887682367004957,-1.4664580214184375,-0.024981179809930684,-0.2704247735966878,-0.21361007719199246,-0.09428067352966145,-0.18247825553444671,0.09477053073716442,-2.491616632810127,0.020185198816635927,2.3036664196583296,0.7674286763045662
0.4501099115042138,6.204349297575748e-05,0.250038664109216,0.0010761599782402962,0.9999908912479212,0.001644827915173099,-0.0030887750210723333,0.4509628910599106,-0.00010406485086217836,0.250631523953623,0.003192276459492909,0.9997970675031103,0.006100822058117594,-0.020163046099042528,-0.6820915549377171,0.2725246856829909,-1.4664973840055342,-0.0182969291917283,-0.2704032393071426,-0.2089654387085468,-0.09428621724332754,-0.18247825596834483,0.09477282595927965,-2.4916131531748675,0.02018827678816426,2.3036670764022404,0.7674274179418682
0.45010888539633276,5.999363203810153e-05,0.250037429818739,0.0010756281205865075,0.9999908887212785,0.0016451208210649206,-0.0030896221718881697,0.4509628910599106,-0.00010406485086217836,0.250631523953623,0.003192276459492909,0.9997970675031103,0.006100822058117594,-0.020163046099042528,-0.693511550533943,0.2696254454713923,-1.4519318300071016,-0.01823729069537312,-0.2717465224496255,-0.20695410353835675,-0.09428343905194629,-0.1824761201352897,0.0947696067274618,-2.4916112303274387,0.02018416630112439,2.303666262600157,0.767429957783053
0.4501090193392346,6.118445242084692e-05,0.25003832217979993,0.001077550603225859,0.9999908784237946,0.001647758711721325,-0.003090879195012286,0.4509628910599106,-0.00010406485086217836,0.250631523953623,0.003192276459492909,0.9997970675031103,0.006100822058117594,-0.020163046099042528,-0.6590455909110352,0.2709115452511962,-1.4447401785786362,-0.02279204929009846,-0.27010211926781436,-0.21494590519152335,-0.0942752408391448,-0.18247539279919076,0.09477306273417035,-2.4916141678438057,0.020183147648970286,2.3036620697824475,0.7674265818277262
0.450110729592131,5.9876767762598445e-05,0.25004139097460115,0.0010773312307161477,0.9999908859739018,0.0016478095102573336,-0.0030884849736653947,0.4509628910599106,-0.00010406485086217836,0.250631523953623,0.003192276459492909,0.9997970675031103,0.006100822058117594,-0.020163046099042528,-0.7053926619804608,0.28165615048318265,-1.460510619546702,-0.026751393322297243,-0.2755934228460782,-0.2155734425017612,-0.09428128588582695,-0.1824782559683446,0.09477272041845364,-2.4916163280700796,0.020183147648962025,2.3036601961658847,0.7674349197005436
0.450109363385067,6.44983584082004e-05,0.2500389623301139,0.0010779222030733568,0.9999908735217926,0.0016509616432467374,-0.003090626394952436,0.4509628910599106,-0.00010406485086217836,0.250631523953623,0.003192276459492909,0.9997970675031103,0.006100822058117594,-0.020163046099042528,-0.6930414893009927,0.27120634171063945,-1.4577587784405215,-0.02411565127269388,-0.272875206410092,-0.2125263604093768,-0.09428068843455215,-0.18247825595628797,0.09477235212074972,-2.4916117557679662,0.020182431241478286,2.30365759140706,0.7674208620264308
0.4501086216994708,5.9644322181550014e-05,0.2500392123919816,0.001077507369095415,0.9999908824888805,0.001644936472374472,-0.0030910823495171732,0.4509628910599106,-0.00010406485086217836,0.250631523953623,0.003192276459492909,0.9997970675031103,0.006100822058117594,-0.020163046099042528,-0.6967764236076639,0.27376461893110243,-1.4518290972763055,-0.02089262612121824,-0.27269319744432813,-0.21119636420647264,-0.09427881041533322,-0.18248076129480684,0.09477558259295035,-2.491614304595374,0.02018411314487457,2.3036554763524686,0.7674250528268423
0.45011130514980424,6.035199285377042e-05,0.2500412110257497,0.0010772502016181133,0.9999908875285253,0.0016460209587168444,-0.003088963582121,0.4509628910599106,-0.00010406485086217836,0.250631523953623,0.003192276459492909,0.9997970675031103,0.006100822058117594,-0.020163046099042528,-0.7054376566266652,0.2762940576304371,-1.456699226023728,-0.021310348044554953,-0.269233526650617,-0.21057799905830654,-0.09428265427406263,-0.18247837675498482,0.0947723433396912,-2.4916108625276663,0.020183639592906946,2.3036564879408754,0.7674313354148266
0.45010877344870986,6.072035714023642e-05,0.25003974485044395,0.0010780156582788163,0.9999908767901647,0.0016470669390389128,-0.003091614182395326,0.4509628910599106,-0.00010406485086217836,0.250631523953623,0.003192276459492909,0.9997970675031103,0.006100822058117594,-0.020163046099042528,-0.686719008628796,0.2771514205675304,-1.4506436457783842,-0.025008461713345503,-0.2698182804579194,-0.21510984515237708,-0.09428069907923428,-0.18247825499174075,0.09476842621394625,-2.49161280564903,0.02018362650865193,2.303655131624886,0.7674306170856326
0.45010966267886393,5.979384721406254e-05,0.2500411435391656,0.0010771317164350444,0.9999908793177921,0.0016475563995224892,-0.003090843812543864,0.4509628910599106,-0.00010406485086217836,0.250631523953623,0.003192276459492909,0.9997970675031103,0.006100822058117594,-0.020163046099042528,-0.679800090311976,0.2747094133972803,-1.459028792400436,-0.02451504576805498,-0.2705285432095017,-0.2164591568909936,-0.09428335436859075,-0.18247821983354495,0.09476981712472746,-2.491610750511507,0.02018277574965329,2.30365265276857,0.7674313359538514
0.4501097020590509,6.071913209066772e-05,0.250041210870761,0.0010776508581232967,0.9999908769305478,0.0016476986769178193,-0.0030913593188947063,0.4509628910599106,-0.00010406485086217836,0.250631523953623,0.003192276459492909,0.9997970675031103,0.006100822058117594,-0.020163046099042528,-0.6787561270939345,0.2711111520125161,-1.4644503119083339,-0.017721667855497888,-0.2712973615687891,-0.2069887951742293,-0.09427987662239028,-0.1824754714377016,0.09477093186817609,-2.4916075092768915,0.020182615139418176,2.303651006990009,0.7674308197394998
0.450109256408018,5.980302993482993e-05,0.2500405967787971,0.001078250808257796,0.9999908670249599,0.0016479748030552481,-0.0030942058712913455,0.4509628910599106,-0.00010406485086217836,0.250631523953623,0.003192276459492909,0.9997970675031103,0.006100822058117594,-0.020163046099042528,-0.6888001533564825,0.27067306662418567,-1.4623778165683445,-0.020884477005034006,-0.272451466259391,-0.2100957473742489,-0.09428107985813483,-0.18247611915861792,0.09477510693385517,-2.4916074172615614,0.02017835719728714,2.303646647978874,0.7674254692016577
0.4501065154977947,5.8976069833057284e-05,0.25003842398978426,0.0010803105667603087,0.9999908533051282,0.001650585310721862,-0.003096529075177205,0.4509628910599106,-0.00010406485086217836,0.250631523953623,0.003192276459492909,0.9997970675031103,0.006100822058117594,-0.020163046099042528,-0.6865633065298737,0.30712034449594955,-1.451785657562263,-0.03303825958743961,-0.2704544349687442,-0.2198168590954919,-0.09427535116307174,-0.1824758828042098,0.09477489974057594,-2.491610201779325,0.02018065393428532,2.3036493402258795,0.7674269235923121
0.4501088953226078,6.097937000192058e-05,0.250039223264539,0.0010811789132879022,0.999990854549569,0.0016503185500028595,-0.0030959662608324497,0.4509628910599106,-0.00010406485086217836,0.250631523953623,0.003192276459492909,0.9997970675031103,0.006100822058117594,-0.020163046099042528,-0.6764524020093667,0.26711640105425144,-1.4495399234657984,-0.020592484690782797,-0.26927759823788944,-0.21422547012982993,-0.09428093631412636,-0.18247815048284916,0.09477273795644092,-2.4916075352786713,0.020173560615055493,2.3036462386723366,0.767432418158306
0.45010922193574177,6.140600781146301e-05,0.25004011855885633,0.0010808178255635869,0.9999908552062958,0.0016526488726970167,-0.0030946368607995254,0.4509628910599106,-0.00010406485086217836,0.250631523953623,0.003192276459492909,0.9997970675031103,0.006100822058117594,-0.020163046099042528,-0.6729707382911198,0.2369335911450111,-1.453364689393297,-0.018978893342335684,-0.2711433539319454,-0.21670505914301136,-0.09428344099606792,-0.18247817685134143,0.09477368571153728,-2.491607756379065,0.020174170965949693,2.3036468329576807,0.767428134381682
0.45010913908859407,5.870126105493413e-05,0.25003928759011756,0.0010807537349570857,0.9999908544587853,0.001651658006832464,-0.0030954296930453527,0.4509628910599106,-0.00010406485086217836,0.250631523953623,0.003192276459492909,0.9997970675031103,0.006100822058117594,-0.020163046099042528,-0.6979213099079904,0.31803991010619853,-1.478395010687641,-0.028599895026414118,-0.27244766569125806,-0.21527664178634498,-0.09427774746585249,-0.18247296620516262,0.09477053077345617,-2.4916071724100273,0.020174781317512054,2.3036450481427564,0.7674306223581718
0.45010815096398993,5.9911505344060044e-05,0.25003978908822694,0.0010819926106836453,0.9999908502347593,0.0016513152750779925,-0.003096544142241059,0.4509628910599106,-0.00010406485086217836,0.250631523953623,0.003192276459492909,0.9997970675031103,0.006100822058117594,-0.020163046099042528,-0.6767546053527258,0.27525518467109034,-1.4472052051747821,-0.02630173653818624,-0.26994707783671235,-0.21700523940724928,-0.09428069135457112,-0.18247751765119566,0.094767746346845,-2.4916102002682123,0.020174425950612866,2.3036454183374984,0.7674295620811636
0.4501087862392758,6.059564521241823e-05,0.2500416880517318,0.001082514725582772,0.9999908536449905,0.001652893503551446,-0.003094417599755985,0.4509628910599106,-0.00010406485086217836,0.250631523953623,0.003192276459492909,0.9997970675031103,0.006100822058117594,-0.020163046099042528,-0.6856815532041259,0.27249819532934894,-1.4556430564900988,-0.022247317142617545,-0.273198761947655,-0.2160748265116128,-0.09428304056559128,-0.18248065224247104,0.09477047804981732,-2.4916042468866166,0.02017275022616068,2.3036421823236677,0.7674312966537081
0.4501080212266751,6.090031157735027e-05,0.25004000624677936,0.0010818710411767385,0.9999908451649634,0.0016521451718477286,-0.003097780921780115,0.4509628910599106,-0.00010406485086217836,0.250631523953623,0.003192276459492909,0.9997970675031103,0.006100822058117594,-0.020163046099042528,-0.6742820694362808,0.29472305090501816,-1.4578889112315117,-0.032136554583161614,-0.27029020913932034,-0.2257781268360505,-0.09427799635015767,-0.18247754270978103,0.09477581170582451,-2.4916074131413355,0.020170712773801842,2.303642996125751,0.7674270497106528
0.4501102477389199,6.080757308889352e-05,0.25004210665958243,0.0010829682014160812,0.9999908497506605,0.0016557489186022221,-0.003093990834398741,0.4509628910599106,-0.00010406485086217836,0.250631523953623,0.003192276459492909,0.9997970675031103,0.006100822058117594,-0.020163046099042528,-0.6810985528218698,0.288791482844527,-1.4517274506151712,-0.029022769554583522,-0.27027235293573315,-0.2214778900482436,-0.09427761268667344,-0.18248076064418337,0.09477055707866265,-2.491602363386846,0.020165708117976126,2.30364147024484,0.7674313756357731
0.4501087645698486,5.835019192275747e-05,0.25004265499575185,0.001083256025747041,0.9999908534408469,0.0016533526536137999,-0.0030939788312783992,0.4509628910599106,-0.00010406485086217836,0.250631523953623,0.003192276459492909,0.9997970675031103,0.006100822058117594,-0.020163046099042528,-0.6765150280816552,0.2680755572542792,-1.4461513611997088,-0.01498984901490938,-0.2704492546843559,-0.20774212481966575,-0.09428128058902971,-0.1824747598180465,0.09477053077339016,-2.491609914630897,0.0201689820577169,2.3036389598027713,0.7674284874300291
0.45010856760660706,5.8029140003795215e-05,0.2500410262901891,0.0010833070829485661,0.9999908494462644,0.0016500140558805881,-0.0030970327973147823,0.4509628910599106,-0.00010406485086217836,0.250631523953623,0.003192276459492909,0.9997970675031103,0.006100822058117594,-0.020163046099042528,-0.7027193937577553,0.27988076243829224,-1.459066817011424,-0.0223675457034614,-0.2760682179607411,-0.21334789553135625,-0.09428261923187031,-0.18247759699022018,0.0947732205761516,-2.491607413481908,0.020167792811408077,2.303637413952087,0.7674300961839942
0.45010835162138774,6.0921534344175205e-05,0.25004001017543,0.0010823119511422516,0.9999908435132306,0.001651661803799033,-0.003098417794157384,0.4509628910599106,-0.00010406485086217836,0.250631523953623,0.003192276459492909,0.9997970675031103,0.006100822058117594,-0.020163046099042528,-0.6847105358044012,0.27579812751431804,-1.4548139712857726,-0.030621581130878175,-0.2722149543397257,-0.21963595243758058,-0.09428051699705647,-0.1824805145237112,0.0947705540371028,-2.491603989005313,0.02016520018744429,2.3036374139520857,0.7674331245708207
0.4501089436590252,5.692523038344775e-05,0.25004219951225093,0.001084520099268481,0.9999908494227201,0.0016516435464459171,-0.0030957470148613676,0.4509628910599106,-0.00010406485086217836,0.250631523953623,0.003192276459492909,0.9997970675031103,0.006100822058117594,-0.020163046099042528,-0.6652213588850326,0.27275449659944495,-1.485260171503959,-0.024919648896939248,-0.26593328773336394,-0.21765527010035918,-0.09427990101655577,-0.18247610797792568,0.09477031932984442,-2.4916082101495163,0.02016458393337342,2.303635271402336,0.7674306233563956
0.4501078981070695,5.9089230439762436e-05,0.2500384141194059,0.0010853182420692486,0.9999908279872941,0.0016557523069454642,-0.00310019335455407,0.4509628910599106,-0.00010406485086217836,0.250631523953623,0.003192276459492909,0.9997970675031103,0.006100822058117594,-0.020163046099042528,-0.6810060597539224,0.26582371865336113,-1.4435168451584772,-0.02192082966854961,-0.270561123492412,-0.21507389567674254,-0.09428240527785328,-0.18247546590895852,0.0947705570644055,-2.4915988186623377,0.020165906287579215,2.303633483709035,0.7674312132567898
0.4501083274179232,5.667901032495654e-05,0.25004121062715545,0.0010853647198935945,0.9999908375536424,0.0016515493765612605,-0.003099333130110575,0.4509628910599106,-0.00010406485086217836,0.250631523953623,0.003192276459492909,0.9997970675031103,0.006100822058117594,-0.020163046099042528,-0.6696831635623391,0.26618048207105116,-1.449497417325523,-0.01764511945077717,-0.26814681641097804,-0.20479837172396265,-0.09427834176543354,-0.18247515504885928,0.09477265476664433,-2.491601924366373,0.020162855349696175,2.3036357305803215,0.7674305570648742
0.45010909067998367,5.650838022586804e-05,0.25004328622569216,0.0010844035403557864,0.9999908500629681,0.0016502249280327486,-0.0030963375166888746,0.4509628910599106,-0.00010406485086217836,0.250631523953623,0.003192276459492909,0.9997970675031103,0.006100822058117594,-0.020163046099042528,-0.6746351796948705,0.2619430056058319,-1.4527734074842278,-0.010580392144352366,-0.2687886359259835,-0.19956837755190213,-0.09428069135479275,-0.1824782441962019,0.09477560991746228,-2.4916023166992165,0.020163399449295513,2.303633004607414,0.7674249097676089
0.4501083456830625,6.157351014961266e-05,0.25004040788041504,0.0010845667390955915,0.9999908288978718,0.0016563055532060915,-0.0030998670906015767,0.4509628910599106,-0.00010406485086217836,0.250631523953623,0.003192276459492909,0.9997970675031103,0.006100822058117594,-0.020163046099042528,-0.6868549396838679,0.2681305601440434,-1.4593407703468775,-0.013515006189451725,-0.2716476439499329,-0.20382825897450074,-0.09428020012755046,-0.18247516693165994,0.09477581951083347,-2.4916070847322542,0.0201598353394426,2.303631933503681,0.7674265794063952
0.4501087639197194,5.721616224419621e-05,0.2500428471796882,0.0010854741026863788,0.9999908428638544,0.0016516901701101928,-0.003097505931431575,0.4509628910599106,-0.00010406485086217836,0.250631523953623,0.003192276459492909,0.9997970675031103,0.006100822058117594,-0.020163046099042528,-0.6789319179977806,0.27010290395045833,-1.462388616879202,-0.01852261554833889,-0.27178609186321645,-0.20767685582271456,-0.09427851819029694,-0.18247235639645187,0.09477488707607487,-2.4916072126850906,0.020160281221140587,2.303630953299165,0.7674274832094752
0.450106923142106,6.041348762668143e-05,0.2500419215804337,0.0010878182063346895,0.9999908247115507,0.0016592237900934937,-0.003098517316360292,0.4509628910599106,-0.00010406485086217836,0.250631523953623,0.003192276459492909,0.9997970675031103,0.006100822058117594,-0.020163046099042528,-0.6757255941755564,0.2831448020023541,-1.4561688600761336,-0.01896276381308015,-0.27033562252790816,-0.21326696110467555,-0.09427774746585582,-0.18248139765388552,0.09477581788877867,-2.491604121484185,0.02015726177547694,2.303631813767997,0.7674291991597664
0.45010788307393906,5.72845722432216e-05,0.2500395645779709,0.0010869926711620053,0.9999908230458598,0.0016544443346248137,-0.0031018984347282916,0.4509628910599106,-0.00010406485086217836,0.250631523953623,0.003192276459492909,0.9997970675031103,0.006100822058117594,-0.020163046099042528,-0.6770618984740371,0.28351558756031525,-1.455769719313115,-0.024137095211883987,-0.2707226371812169,-0.21675196311219963,-0.09427775071805962,-0.18247814165737306,0.09477235147076543,-2.4916062637469203,0.020156834654066313,2.303627995164155,0.7674270634186628
0.4501066459831504,5.9075085882882226e-05,0.25004034223127564,0.0010878719382053615,0.9999908143041853,0.0016589712943533936,-0.003101990494803428,0.4509628910599106,-0.00010406485086217836,0.250631523953623,0.003192276459492909,0.9997970675031103,0.006100822058117594,-0.020163046099042528,-0.6894687997604014,0.28324962342040416,-1.460940427855453,-0.022528707939359318,-0.2726855923622598,-0.21727749782113898,-0.09427987628165259,-0.1824776382969632,0.09477305966686658,-2.4916012463075066,0.020155563403365554,2.303627205993011,0.7674318891520037
0.45010930927394666,5.730797467080744e-05,0.2500438004963515,0.0010877044113041072,0.9999908347818679,0.0016553194474469783,-0.003097395332945976,0.4509628910599106,-0.00010406485086217836,0.250631523953623,0.003192276459492909,0.9997970675031103,0.006100822058117594,-0.020163046099042528,-0.6816776254844427,0.27675872581306704,-1.4438526954544724,-0.02038682795434787,-0.2728520898559261,-0.21526230138060762,-0.09427799375756617,-0.18247532794813393,0.0947677730193431,-2.4916040025389408,0.020152290619145866,2.3036263513300153,0.7674244787917043
0.45010389636106346,5.6964401746571935e-05,0.2500375721645982,0.0010888663688743614,0.9999907900849756,0.001658716597570474,-0.0031095760799295597,0.4509628910599106,-0.00010406485086217836,0.250631523953623,0.003192276459492909,0.9997970675031103,0.006100822058117594,-0.020163046099042528,-0.6760802152195747,0.2818027551711196,-1.4507712957906824,-0.022838951546170376,-0.2732403375495745,-0.2175143246150405,-0.09428013582109362,-0.1824750522186937,0.09477055697218346,-2.491602054410693,0.02015128633422064,2.303619047395569,0.7674225147975743
0.4501057050810005,5.783736735945288e-05,0.25004005217525704,0.001089567326490162,0.9999907970508736,0.0016574192456297392,-0.0031077816775773198,0.4509628910599106,-0.00010406485086217836,0.250631523953623,0.003192276459492909,0.9997970675031103,0.006100822058117594,-0.020163046099042528,-0.7076080680726541,0.2618885435074758,-1.4795395759725203,-0.01449823205634228,-0.2780711660093001,-0.2079411136326564,-0.0942756164610631,-0.18247503925781025,0.0947705566099664,-2.4915987611503514,0.020152648795616665,2.3036141869651083,0.7674212446306593
0.4501070245125112,5.561309790549834e-05,0.2500426637412052,0.0010890221977445217,0.9999908038548175,0.0016575197959298952,-0.003105729138995945,0.4509628910599106,-0.00010406485086217836,0.250631523953623,0.003192276459492909,0.9997970675031103,0.006100822058117594,-0.020163046099042528,-0.6544694412563347,0.25088034546645466,-1.4765234909080724,-0.0059491831747177345,-0.2669159550043738,-0.198611461601434,-0.09427843066056568,-0.18248040564994383,0.09477052059644435,-2.491598046632844,0.020153438214493977,2.303613333675629,0.7674281569940092
0.4501054716391849,5.80012892652972e-05,0.25003952963754894,0.0010891670850604602,0.999990787644813,0.0016582661092838698,-0.0031104956158371417,0.4509628910599106,-0.00010406485086217836,0.250631523953623,0.003192276459492909,0.9997970675031103,0.006100822058117594,-0.020163046099042528,-0.7031006669782606,0.27031351405797716,-1.4114900880992676,-0.020772351748638784,-0.27961672930296355,-0.21271025036193886,-0.09428128589462578,-0.18247505221868815,0.09477303609041611,-2.4915970433490475,0.020150202929396618,2.3036126085168185,0.767429881799967
0.4501045910915367,5.632475436486072e-05,0.25004002006436915,0.0010891307915816479,0.9999907875760844,0.0016572500667604946,-0.0031110718750492904,0.4509628910599106,-0.00010406485086217836,0.250631523953623,0.003192276459492909,0.9997970675031103,0.006100822058117594,-0.020163046099042528,-0.6782967745809841,0.2768853285664005,-1.4181263900326364,-0.021744057282433123,-0.2775717283187853,-0.21501076160571547,-0.0942813069946317,-0.18247755787604525,0.09477303610112232,-2.4915970845992965,0.020150149834159792,2.3036078517736382,0.7674291996690961
0.4501064579693115,5.8818401857153306e-05,0.2500420119338017,0.0010908382134882828,0.9999907848214,0.0016617056384738258,-0.0031089817442914057,0.4509628910599106,-0.00010406485086217836,0.250631523953623,0.003192276459492909,0.9997970675031103,0.006100822058117594,-0.020163046099042528,-0.6852072725241171,0.3013141001049774,-1.4742081750413076,-0.03311092699250042,-0.2749482546903264,-0.22111687644542125,-0.09427798799907053,-0.1824750512466262,0.09477055562495948,-2.4915975610226284,0.020151467872065697,2.3036084037983953,0.7674330995102395
0.4501043841750086,5.805647639668508e-05,0.25003911084147096,0.0010926159954126903,0.9999907692234654,0.001661283178476072,-0.0031135968267286063,0.4509628910599106,-0.00010406485086217836,0.250631523953623,0.003192276459492909,0.9997970675031103,0.006100822058117594,-0.020163046099042528,-0.6624755793881072,0.2847972026941713,-1.4305963856843866,-0.027720825787411894,-0.27715130988460723,-0.22413778944096463,-0.09427798401687709,-0.1824802630870729,0.09477031998067205,-2.491597588827532,0.020146591651702163,2.3036041894089445,0.7674314543910516
0.45010647311300767,5.522965697836535e-05,0.2500426850951947,0.0010926045824631277,0.9999907826483916,0.0016585808389246255,-0.003110728528410077,0.4509628910599106,-0.00010406485086217836,0.250631523953623,0.003192276459492909,0.9997970675031103,0.006100822058117594,-0.020163046099042528,-0.6852871691542674,0.28889196823992175,-1.5035244120614717,-0.025931261957641952,-0.2704702637581452,-0.22015152424208342,-0.09427555784147258,-0.1824722415887977,0.0947681017600531,-2.4915925516035156,0.02014123940051275,2.303602967117818,0.767426312059893
0.45010523592719004,5.584695787703154e-05,0.25004048758837955,0.0010942475624843347,0.9999907686760737,0.0016611728211586962,-0.003113258520744449,0.4509628910599106,-0.00010406485086217836,0.250631523953623,0.003192276459492909,0.9997970675031103,0.006100822058117594,-0.020163046099042528,-0.6623818917367396,0.31421743770199234,-1.4480810717228123,-0.029527596851226447,-0.2684845248387303,-0.2238092535790473,-0.09427524181784835,-0.18247755353975148,0.09477024042223575,-2.491586527017658,0.02014057589897427,2.3035990285548773,0.7674288464563772
0.450105260966345,5.5216605620627135e-05,0.25004031795025833,0.001095473906406284,0.9999907667411948,0.0016622446781868157,-0.0031128766024467198,0.4509628910599106,-0.00010406485086217836,0.250631523953623,0.003192276459492909,0.9997970675031103,0.006100822058117594,-0.020163046099042528,-0.6635947098033155,0.28368863679953693,-1.4580876417755684,-0.023575419476418124,-0.26884192566853726,-0.22252429855071626,-0.09427603310629631,-0.18247504832466283,0.09477055599785247,-2.4915911046184416,0.020131042094761357,2.303600475948043,0.767429561589562
0.4501051253723434,5.663556068444986e-05,0.2500405157828648,0.0010961612272551782,0.9999907559120467,0.0016678979374734832,-0.003113089499429429,0.4509628910599106,-0.00010406485086217836,0.250631523953623,0.003192276459492909,0.9997970675031103,0.006100822058117594,-0.020163046099042528,-0.6846124995282974,0.28205665282777165,-1.4535145904901507,-0.02427741266963226,-0.2733069299073549,-0.22169056894267253,-0.0942779875704572,-0.18247258122043608,0.09476842621290632,-2.4915893714374064,0.020129135510827782,2.303598315030477,0.7674280781740117
0.4501069892052921,5.501880723589174e-05,0.2500429758994764,0.0010964040878996147,0.9999907716607448,0.001664282578491323,-0.0031098784100035623,0.4509628910599106,-0.00010406485086217836,0.250631523953623,0.003192276459492909,0.9997970675031103,0.006100822058117594,-0.020163046099042528,-0.6846852588222786,0.2825558126026358,-1.4569514593909398,-0.021752536183929146,-0.2736036970390788,-0.21791532507268552,-0.09428048965466174,-0.182471558216298,0.09477305071743843,-2.4915886698256626,0.020131166269108765,2.303598896287556,0.7674225322430809
0.45010685785149074,5.6777233577358093e-05,0.25004304637006397,0.0010972735010809447,0.9999907563897579,0.0016684954626584537,-0.0031122238880020737,0.4509628910599106,-0.00010406485086217836,0.250631523953623,0.003192276459492909,0.9997970675031103,0.006100822058117594,-0.020163046099042528,-0.6871801657249605,0.27697091944034885,-1.4652049239920133,-0.02051467109026066,-0.2727623883611447,-0.2135955122025411,-0.09428311596839799,-0.18247539395100992,0.09477282272310922,-2.4915860437723594,0.020126707528353743,2.3035989886683064,0.7674301541629687
0.45010409957041086,5.5970873279859106e-05,0.25004048313794613,0.0010975859166597083,0.999990755408176,0.0016643112159204505,-0.0031146685729479787,0.4509628910599106,-0.00010406485086217836,0.250631523953623,0.003192276459492909,0.9997970675031103,0.006100822058117594,-0.020163046099042528,-0.6797777512629459,0.27032873560719134,-1.459740842749959,-0.016586559542173078,-0.2722450436407739,-0.21399480766317353,-0.09427470074854405,-0.18247497204152283,0.0947758466318017,-2.491588367694043,0.020127814052652324,2.3035939062241577,0.7674242037398085
0.45010821226517955,5.589143330230117e-05,0.2500461771867978,0.0010983407308807888,0.9999907655698619,0.0016688537122205764,-0.003108703693859587,0.4509628910599106,-0.00010406485086217836,0.250631523953623,0.003192276459492909,0.9997970675031103,0.006100822058117594,-0.020163046099042528,-0.6891535018194221,0.2789542486301304,-1.4927729199031026,-0.02422165538590116,-0.2729949661915827,-0.21887894433573676,-0.09427995213787624,-0.1824693505289956,0.09476841730105208,-2.4915837324336283,0.020126476232568462,2.3035950739913518,0.7674313344191339
0.4501054924849047,5.900732385285424e-05,0.25004259172425647,0.0010996206947091105,0.999990747366788,0.001670043832219323,-0.0031134638987127755,0.4509628910599106,-0.00010406485086217836,0.250631523953623,0.003192276459492909,0.9997970675031103,0.006100822058117594,-0.020163046099042528,-0.6774326283834191,0.2843062903657212,-1.4616101252850628,-0.027942620575958088,-0.27314613482509,-0.2269132794012641,-0.09427815638164251,-0.1824750216347961,0.09477306175974602,-2.4915828468349304,0.020122899762877733,2.303592614626085,0.767424907827464
0.4501075638457672,5.244614534247382e-05,0.2500435208275396,0.0011007146496515915,0.9999907479897376,0.0016681765873917277,-0.003113878256716382,0.4509628910599106,-0.00010406485086217836,0.250631523953623,0.003192276459492909,0.9997970675031103,0.006100822058117594,-0.020163046099042528,-0.6806337487552421,0.29714407621801525,-1.471211246982484,-0.02536679061155618,-0.2706498851684578,-0.21957699317495555,-0.09428303721539727,-0.18247186481448213,0.0947730596904952,-2.491587638111468,0.02012011703535244,2.303592601738337,0.7674316989615312
0.450107397098034,5.3121618290092615e-05,0.25004589949054934,0.0010993682013888276,0.9999907657787908,0.0016643919451909794,-0.0031106647132433897,0.4509628910599106,-0.00010406485086217836,0.250631523953623,0.003192276459492909,0.9997970675031103,0.006100822058117594,-0.020163046099042528,-0.6618437156790348,0.25669462708124435,-1.4505819278991867,-0.015040987039792057,-0.2689990654064557,-0.21204472852089654,-0.09428622568608984,-0.1824697999381781,0.09477282499565796,-2.4915798988249787,0.02011824440041131,2.303587970864615,0.7674251746981242
0.45010410862651323,5.36837209046564e-05,0.2500415905099786,0.0011006737561183436,0.9999907435244312,0.0016675196944931597,-0.0031156780251161416,0.4509628910599106,-0.00010406485086217836,0.250631523953623,0.003192276459492909,0.9997970675031103,0.006100822058117594,-0.020163046099042528,-0.6729044613488911,0.26289863067968317,-1.455415976728966,-0.016173621371157004,-0.26988580383656224,-0.21032122761324804,-0.09428093305666002,-0.1824740020504476,0.09477574152987883,-2.491584933491885,0.020117982535031192,2.3035894918176862,0.7674241759399871
0.45010658292388,5.3064081449276637e-05,0.25004237633145515,0.0011006671611673922,0.9999907443307876,0.0016679061365398409,-0.0031152146669369296,0.4509628910599106,-0.00010406485086217836,0.250631523953623,0.003192276459492909,0.9997970675031103,0.006100822058117594,-0.020163046099042528,-0.6851663155374171,0.2734595257813782,-1.475383473203473,-0.02084999110689578,-0.2695920488076602,-0.21257905129189342,-0.094283411726211,-0.18247010292743535,0.09477046641528673,-2.4915858435171803,0.020119755695276263,2.3035887802253803,0.7674212258530385
0.4501052404734433,5.8396323515688e-05,0.2500401628653758,0.0011012264900583761,0.9999907258174479,0.001673172983297681,-0.003118134079609493,0.4509628910599106,-0.00010406485086217836,0.250631523953623,0.003192276459492909,0.9997970675031103,0.006100822058117594,-0.020163046099042528,-0.6674857475177475,0.3020701727462624,-1.4472185191982576,-0.021270409566156504,-0.26889122337159144,-0.20890195616277346,-0.09428085461161219,-0.1824751944646139,0.09477306236261603,-2.491581810992263,0.020117105946143327,2.3035879613603183,0.767424220037065
0.45010401782535736,5.4223116020106966e-05,0.25004007814284823,0.0011007967652808001,0.9999907325220848,0.0016672742155561518,-0.0031192950918108877,0.4509628910599106,-0.00010406485086217836,0.250631523953623,0.003192276459492909,0.9997970675031103,0.006100822058117594,-0.020163046099042528,-0.6761033855215491,0.22153608316931775,-1.4591604825475661,-0.016736005810460194,-0.27001730986484945,-0.22150065904344793,-0.09428344196812938,-0.18247187503898488,0.09477055692390449,-2.491579525103531,0.02011638948674746,2.303585360472251,0.7674292040849288
0.4501116092947911,5.4223490572086255e-05,0.25004887745194443,0.0011013251879006297,0.999990758195947,0.0016701873061875962,-0.0031093035546504427,0.4509628910599106,-0.00010406485086217836,0.250631523953623,0.003192276459492909,0.9997970675031103,0.006100822058117594,-0.020163046099042528,-0.7027433006661702,0.2573470128070931,-1.4883616467683574,-0.022265056408097977,-0.26846384817503655,-0.2212440782624339,-0.09427215171572566,-0.18247257202057549,0.09477054733711553,-2.49157988496917,0.020117969323968657,2.3035848857592427,0.7674346497835817
0.4501105258578145,5.4297418326667345e-05,0.2500467444908524,0.0011008831060535422,0.9999907573003961,0.0016675821199127994,-0.0031111458965125084,0.4509628910599106,-0.00010406485086217836,0.250631523953623,0.003192276459492909,0.9997970675031103,0.006100822058117594,-0.020163046099042528,-0.6787271066697242,0.27353470843050304,-1.4468037710680282,-0.02105415309322263,-0.2687516844814328,-0.2116082970741158,-0.09428302403191233,-0.18247217934292395,0.09477055707999901,-2.491566481610946,0.02011612901960407,2.3035879877422016,0.7674288625479084
0.4501144756924913,5.525779689482413e-05,0.25005215805007136,0.0011012255070366116,0.9999907714956416,0.0016694233516315073,-0.0031054694212865838,0.4509628910599106,-0.00010406485086217836,0.250631523953623,0.003192276459492909,0.9997970675031103,0.006100822058117594,-0.020163046099042528,-0.7208321252462814,0.26097418358317265,-1.4915800584699523,-0.02121106626278262,-0.2716410208523884,-0.20665122233653682,-0.09427774778987368,-0.18246908222800926,0.0947730626259682,-2.4915711651361367,0.02011796930592541,2.3035848855707384,0.7674297593638149
0.45010927106305826,5.363065037487918e-05,0.25004615571807876,0.0011027972643031885,0.9999907421604256,0.0016699440472378638,-0.003114066027734118,0.4509628910599106,-0.00010406485086217836,0.250631523953623,0.003192276459492909,0.9997970675031103,0.006100822058117594,-0.020163046099042528,-0.667445315298611,0.2726301549877256,-1.4499840998646607,-0.019992809155758497,-0.26788362149370204,-0.21432241290040208,-0.09427524181207082,-0.18247436903998207,0.09477584679398617,-2.4915583911784793,0.020113844417863406,2.3035844850296185,0.7674302999962852
0.4501104868200721,5.6404223339325065e-05,0.2500481015453027,0.0011031440610811737,0.9999907497901197,0.0016724896141534456,-0.0031101245208711666,0.4509628910599106,-0.00010406485086217836,0.250631523953623,0.003192276459492909,0.9997970675031103,0.006100822058117594,-0.020163046099042528,-0.6904788231594057,0.2912815804594811,-1.447174575571165,-0.02392196277713455,-0.27506518462778734,-0.2142035036453391,-0.09427524224409764,-0.18246907931087836,0.09477584646920856,-2.4915636106411134,0.020115659115950965,2.3035833074298306,0.7674255084453724
0.45011306123922196,5.487693244915033e-05,0.2500520141688944,0.0011031235799741728,0.9999907583302065,0.001672532981083017,-0.003107361363366776,0.4509628910599106,-0.00010406485086217836,0.250631523953623,0.003192276459492909,0.9997970675031103,0.006100822058117594,-0.020163046099042528,-0.687284779705678,0.2639929260680108,-1.477133452554323,-0.017253944453868072,-0.2743356113691552,-0.21061054562726222,-0.09428398202477899,-0.18247162573401698,0.0947705567503126,-2.491568923604846,0.020115088694142327,2.3035805309631496,0.7674242151333545
0.45011279716946406,5.4995073267368116e-05,0.25005170752858624,0.0011029725255060272,0.9999907588543933,0.001671170742969275,-0.003107979160450176,0.4509628910599106,-0.00010406485086217836,0.250631523953623,0.003192276459492909,0.9997970675031103,0.006100822058117594,-0.020163046099042528,-0.6815288873692521,0.2609392468804381,-1.4757806240292726,-0.023400694712627946,-0.27092126784894577,-0.2187043047335563,-0.09427524181207028,-0.18247186337019264,0.09477055708045898,-2.491562868668143,0.020111242258686456,2.303580530458026,0.7674292524891769
0.4501136184820904,5.362515528558545e-05,0.25005131160883587,0.0011031503135667414,0.9999907565592195,0.0016688891403256003,-0.003109879944726356,0.4509628910599106,-0.00010406485086217836,0.250631523953623,0.003192276459492909,0.9997970675031103,0.006100822058117594,-0.020163046099042528,-0.6546881693878002,0.28058359733353133,-1.477052412939396,-0.028547991157578567,-0.2674842126030346,-0.22573800621205425,-0.09427774733969921,-0.18247415795618704,0.094767536618648,-2.491565345557371,0.020111397779393275,2.3035781950838765,0.7674315653361139
0.45011324245234996,5.668185375139092e-05,0.25005081603173795,0.001104408410958283,0.9999907458181021,0.0016739000144073825,-0.0031101941429451546,0.4509628910599106,-0.00010406485086217836,0.250631523953623,0.003192276459492909,0.9997970675031103,0.006100822058117594,-0.020163046099042528,-0.6904944356492827,0.2804407072889704,-1.4640404193111844,-0.027616117929764733,-0.27520408232379207,-0.22295687905314618,-0.09427774746585303,-0.18247401509295874,0.09476777302068506,-2.491559190761019,0.020107515033778094,2.3035778353869554,0.7674313213642857
0.45011215160994233,5.196995002119629e-05,0.25004889675135056,0.0011044398042191913,0.9999907433977341,0.001671183385555382,-0.0031124213000202784,0.4509628910599106,-0.00010406485086217836,0.250631523953623,0.003192276459492909,0.9997970675031103,0.006100822058117594,-0.020163046099042528,-0.6892477937371653,0.2984445468579318,-1.4731227360614645,-0.02728338386547926,-0.27679831741852085,-0.21477334522335828,-0.09427524181207021,-0.1824694021832505,0.09477306273422681,-2.4915572250294233,0.020107670375185353,2.3035732952548647,0.7674299115844131
0.45011318137708994,5.064317033699151e-05,0.25005154486723474,0.0011038193250429386,0.999990750325754,0.0016684704598422116,-0.0031118709633465385,0.4509628910599106,-0.00010406485086217836,0.250631523953623,0.003192276459492909,0.9997970675031103,0.006100822058117594,-0.020163046099042528,-0.6940222605086567,0.3123349667801001,-1.5122531684802345,-0.025595842951706308,-0.27326745747212705,-0.20981205902571506,-0.09428089695125066,-0.18247079561640225,0.09477203676148645,-2.49155730880423,0.020107670700067727,2.3035725198359533,0.7674313356058999
0.4501143418690704,5.570477024861432e-05,0.25005256921319796,0.0011050267211061716,0.9999907409614758,0.001676037691410675,-0.0031103847887735425,0.4509628910599106,-0.00010406485086217836,0.250631523953623,0.003192276459492909,0.9997970675031103,0.006100822058117594,-0.020163046099042528,-0.6648252361364217,0.21607956598603326,-1.4715803456185503,-0.008233868274461863,-0.27231043405115596,-0.20829897487415355,-0.09428519270879183,-0.18247425183148636,0.09477581936829492,-2.4915538601317673,0.020110825809618375,2.3035701799314627,0.7674235030545129
0.4501118381606623,5.2951531799929995e-05,0.25005209907522025,0.001106457406614025,0.9999907387715095,0.0016726874140175212,-0.003112383122298152,0.4509628910599106,-0.00010406485086217836,0.250631523953623,0.003192276459492909,0.9997970675031103,0.006100822058117594,-0.020163046099042528,-0.669805069865607,0.25384517931172557,-1.4712253182454311,-0.005206346350800792,-0.2757007683111788,-0.19979264365048574,-0.0942752460643421,-0.18247361764121695,0.09477054829402214,-2.491559097834513,0.020107073180914842,2.303569422751969,0.7674259971631879
0.45011286997821187,5.345641562057853e-05,0.2500518868800287,0.0011039551078050947,0.9999907339021454,0.0016749082773184158,-0.0031136415757339496,0.4509628910599106,-0.00010406485086217836,0.250631523953623,0.003192276459492909,0.9997970675031103,0.006100822058117594,-0.020163046099042528,-0.6881775887146074,0.27430166215024115,-1.483818043361476,-0.019998588956902662,-0.27842682285084286,-0.2132831726747363,-0.09428025312363626,-0.18246889698762742,0.09477055706707857,-2.491554355912851,0.02010838221735717,2.30356610615216,0.7674292263103802
0.45011182494912455,5.3921807958417124e-05,0.25005098191935204,0.0011060605548301552,0.9999907233468094,0.00167668931723975,-0.003115325329667977,0.4509628910599106,-0.00010406485086217836,0.250631523953623,0.003192276459492909,0.9997970675031103,0.006100822058117594,-0.020163046099042528,-0.6950694203747743,0.27694754238744695,-1.4739244467802903,-0.02279984740754584,-0.27889480129860506,-0.21614020985568252,-0.09428025311607087,-0.1824694858329412,0.09477055708043107,-2.491553636505838,0.020105856877890137,2.303563984093032,0.7674258750661128
0.4501130989155833,5.162516347840293e-05,0.250050516514596,0.0011051622526621141,0.9999907302449043,0.001671840096690567,-0.003116035948128925,0.4509628910599106,-0.00010406485086217836,0.250631523953623,0.003192276459492909,0.9997970675031103,0.006100822058117594,-0.020163046099042528,-0.6881429906020113,0.28548065427582275,-1.4786617690789052,-0.020241133195073133,-0.274011707960373,-0.2146990987997316,-0.0942777474658532,-0.18247115093768806,0.094770320281018,-2.4915551203358905,0.02010292990187118,2.3035638444005198,0.7674306236014194
0.4501129010287234,5.4416672922414726e-05,0.25005313068774837,0.0011083299132082238,0.9999907233421828,0.0016788251726004917,-0.0031133693949511373,0.4509628910599106,-0.00010406485086217836,0.250631523953623,0.003192276459492909,0.9997970675031103,0.006100822058117594,-0.020163046099042528,-0.6794357247121212,0.2745761527516504,-1.4732830169984168,-0.02667151169871898,-0.2715133393509415,-0.22260521787873358,-0.09428332807492382,-0.18246971435756681,0.09476983802276484,-2.491555359361038,0.020102267416156283,2.3035622097748427,0.7674308574948018
0.4501126944802674,5.342648445732129e-05,0.25005216323539814,0.0011080098612807204,0.9999907161791466,0.0016807892498957454,-0.0031147240164148032,0.4509628910599106,-0.00010406485086217836,0.250631523953623,0.003192276459492909,0.9997970675031103,0.006100822058117594,-0.020163046099042528,-0.6671464407490824,0.28832078595562916,-1.4535815539233776,-0.028308262439329823,-0.27299317104737314,-0.22093946576193743,-0.09427500067069212,-0.1824697177589347,0.09476842632324706,-2.4915557190085007,0.020097589589016862,2.3035607007100567,0.767426195424633
0.4501121144499778,5.3726410703901206e-05,0.25005344926910045,0.0011074077863121815,0.9999907228813563,0.0016741181198525158,-0.00311637872890829,0.4509628910599106,-0.00010406485086217836,0.250631523953623,0.003192276459492909,0.9997970675031103,0.006100822058117594,-0.020163046099042528,-0.6650095495966629,0.27125306613811223,-1.43282506578905,-0.023371762262616388,-0.2789490247103556,-0.21769306393732019,-0.09427524278411543,-0.18246865962202471,0.09477147489803521,-2.491553290761508,0.020100058391050796,2.3035599310927646,0.7674331118069627
0.45011557682923936,5.351252269008317e-05,0.25005568346301127,0.001109079308986199,0.999990730196939,0.0016763608753865699,-0.0031122284785192254,0.4509628910599106,-0.00010406485086217836,0.250631523953623,0.003192276459492909,0.9997970675031103,0.006100822058117594,-0.020163046099042528,-0.6788701437935148,0.24483689658051344,-1.4698806908273931,-0.023478391583014156,-0.276900284121232,-0.22345615084204354,-0.09427774782587596,-0.18247394933408387,0.09477032114753545,-2.491552853709319,0.020096862128138163,2.3035597403766492,0.767430943440927
0.4501134388351979,5.2120300704480585e-05,0.25005417997948165,0.0011080713433096396,0.999990720074192,0.0016758660423036437,-0.0031161041415488032,0.4509628910599106,-0.00010406485086217836,0.250631523953623,0.003192276459492909,0.9997970675031103,0.006100822058117594,-0.020163046099042528,-0.6744414888993197,0.2805238688196717,-1.457347729949886,-0.02831454839333351,-0.2774154642773715,-0.21839996272158416,-0.09428000461062533,-0.18247395812351375,0.09477314198003589,-2.4915476488810584,0.02009686075678448,2.3035553338328763,0.7674237275318663
0.4501132725321398,5.206781201978292e-05,0.25005399228039504,0.0011078900143984551,0.99999072191168,0.0016745538705757793,-0.003116284365122482,0.4509628910599106,-0.00010406485086217836,0.250631523953623,0.003192276459492909,0.9997970675031103,0.006100822058117594,-0.020163046099042528,-0.7004575450762202,0.2936187150724195,-1.4888726222432618,-0.01930201552637666,-0.2747546480839014,-0.2056598014673439,-0.09427524180665624,-0.182465505740154,0.0947670630567798,-2.49154376342701,0.020098076770435847,2.3035550196711085,0.7674254184437639
0.4501119142542561,5.212171918976155e-05,0.2500527438878387,0.0011085947147677383,0.9999907113790739,0.0016771784826297323,-0.00311800164592492,0.4509628910599106,-0.00010406485086217836,0.250631523953623,0.003192276459492909,0.9997970675031103,0.006100822058117594,-0.020163046099042528,-0.6831699480037676,0.20715178061804768,-1.4629957575343235,-0.014261699048679789,-0.27444353676340266,-0.21761990197392528,-0.09427774784386887,-0.18246889693534743,0.09477055596035613,-2.491544509353987,0.020098793392380077,2.3035501559290466,0.7674306974702592
0.45011094147520825,5.323190741985863e-05,0.2500513361694726,0.0011099491300142592,0.999990692804033,0.0016804318441840031,-0.003121723177637213,0.4509628910599106,-0.00010406485086217836,0.250631523953623,0.003192276459492909,0.9997970675031103,0.006100822058117594,-0.020163046099042528,-0.6794740199348208,0.2404314434969463,-1.461509222981667,-0.02094064227124903,-0.27487168842911913,-0.22213345396212217,-0.09427800399309491,-0.18246587559711405,0.09477055708043902,-2.4915387509023734,0.020094474200703302,2.3035496321682194,0.7674301583078601
0.4501152482581547,5.3017127796871336e-05,0.25005561927815323,0.0011092211211531653,0.9999907170228962,0.0016769823883653842,-0.0031160736841255084,0.4509628910599106,-0.00010406485086217836,0.250631523953623,0.003192276459492909,0.9997970675031103,0.006100822058117594,-0.020163046099042528,-0.6705569152832764,0.3002419765944714,-1.479576347517493,-0.024870962997916232,-0.2723947121643415,-0.21680222994095463,-0.09427417773203751,-0.18246587556077723,0.09476564215463748,-2.4915413599935907,0.02009148939943627,2.3035469135998787,0.7674269177582309
0.45011239009703935,5.3432924628326784e-05,0.2500532888484674,0.0011085141381055198,0.9999907059930102,0.001675426593447914,-0.0031206983768633104,0.4509628910599106,-0.00010406485086217836,0.250631523953623,0.003192276459492909,0.9997970675031103,0.006100822058117594,-0.020163046099042528,-0.6792380718878959,0.26075135380288095,-1.4593313003741082,-0.018808239475040806,-0.27649698811501533,-0.2128233491924164,-0.09428303718517202,-0.18246587560900462,0.09477282593346445,-2.491543727906615,0.020097555307740163,2.303546099642501,0.7674309877003114
0.4501117400609642,5.298736681230221e-05,0.25005519894335027,0.0011099062076281264,0.9999907030070032,0.001677138720441534,-0.0031202407082179476,0.4509628910599106,-0.00010406485086217836,0.250631523953623,0.003192276459492909,0.9997970675031103,0.006100822058117594,-0.020163046099042528,-0.6786220578981682,0.26626804007289995,-1.4575176963014191,-0.015738807514083696,-0.2814954241507415,-0.20782080483130097,-0.0942777474658531,-0.18246865054795988,0.09477302473479313,-2.4915434748411966,0.020094001475979794,2.303542870225566,0.7674309825455389
0.4501115421181134,5.35483164391763e-05,0.25005484081112117,0.0011103157418534434,0.999990689844462,0.001678863149795928,-0.0031233844530959465,0.4509628910599106,-0.00010406485086217836,0.250631523953623,0.003192276459492909,0.9997970675031103,0.006100822058117594,-0.020163046099042528,-0.7108180034222688,0.21754473160527923,-1.5146384104638206,-0.012913628360503734,-0.2803950959532233,-0.21252582779952395,-0.09427782625085605,-0.18246763506732755,0.0947705569240535,-2.491540690965881,0.020093165030559516,2.3035374988173576,0.7674245797195216
0.4501089401315482,5.466660620397448e-05,0.2500515422596471,0.001109443487250818,0.9999906710553477,0.0016794909807468737,-0.0031293667133763334,0.4509628910599106,-0.00010406485086217836,0.250631523953623,0.003192276459492909,0.9997970675031103,0.006100822058117594,-0.020163046099042528,-0.6743383879273507,0.2857964973634558,-1.5016305988418728,-0.027807686237340444,-0.2760408882318845,-0.22189070667276034,-0.09427111714857173,-0.18247078806933317,0.09477279751684567,-2.491540775034765,0.020092796768258297,2.303532608323635,0.7674313337222056
0.4501088301215064,5.5559061555422666e-05,0.25005262357608665,0.001110157377128629,0.9999906693865064,0.0016815936107216947,-0.003128517536515972,0.4509628910599106,-0.00010406485086217836,0.250631523953623,0.003192276459492909,0.9997970675031103,0.006100822058117594,-0.020163046099042528,-0.659649421154229,0.29713633578849596,-1.436988039683474,-0.02731571508490262,-0.27941566878094437,-0.2193351780319773,-0.09427121684280829,-0.1824655332330555,0.09477306370863185,-2.491543201750403,0.020089363210311146,2.303526314073139,0.76742705891407
0.45011100720284974,5.323274947314413e-05,0.25005538134366023,0.0011102128813568063,0.9999906791575358,0.0016798574326703278,-0.0031263066012996404,0.4509628910599106,-0.00010406485086217836,0.250631523953623,0.003192276459492909,0.9997970675031103,0.006100822058117594,-0.020163046099042528,-0.695868070683066,0.26017229905343836,-1.5112951187667092,-0.019042900540737342,-0.2775509939355115,-0.21274650064713732,-0.09427523706685931,-0.18246852985162884,0.09477053078547953,-2.491540740124079,0.02009255983418686,2.3035230657655728,0.7674291994996232
0.4501118088864594,5.436339788969321e-05,0.25005458488959764,0.0011090461867086952,0.9999906723232841,0.001681203495740856,-0.0031281825901425236,0.4509628910599106,-0.00010406485086217836,0.250631523953623,0.003192276459492909,0.9997970675031103,0.006100822058117594,-0.020163046099042528,-0.6753041641246722,0.2636285052758141,-1.456801311648821,-0.0209430769930857,-0.27837820420446024,-0.2136224313669487,-0.0942805555414165,-0.1824684102987751,0.09477329105290348,-2.491534448965073,0.02009096297056659,2.303520479756503,0.7674306238247636
0.45011240803257196,5.577862315709396e-05,0.25005620554433333,0.001109883469939391,0.9999906776509963,0.0016808687568894514,-0.003126361869866572,0.4509628910599106,-0.00010406485086217836,0.250631523953623,0.003192276459492909,0.9997970675031103,0.006100822058117594,-0.020163046099042528,-0.6692689539917214,0.2699688909471179,-1.4706999895518822,-0.02439667002717442,-0.27521085057454137,-0.21722214174054755,-0.09427599582148503,-0.1824627654492816,0.09477056584944062,-2.491539375175503,0.020091895514741834,2.3035183036933984,0.7674315595595783
0.4501098718142837,5.5455959558495836e-05,0.25005454661900056,0.0011092302974813066,0.9999906582723918,0.0016837571504613705,-0.0031312340126254568,0.4509628910599106,-0.00010406485086217836,0.250631523953623,0.003192276459492909,0.9997970675031103,0.006100822058117594,-0.020163046099042528,-0.6563405977327389,0.24571038634632072,-1.4830760420405456,-0.01988042627304854,-0.2705275446050166,-0.2183125990981528,-0.09427463209663368,-0.1824654708080428,0.09477087724530223,-2.491531285147075,0.020088507671366006,2.3035174937674565,0.7674263514742213
0.4501069490329544,5.433496225301835e-05,0.25005251375572757,0.0011109448921692328,0.9999906421098878,0.0016820723926131485,-0.003136688553595274,0.4509628910599106,-0.00010406485086217836,0.250631523953623,0.003192276459492909,0.9997970675031103,0.006100822058117594,-0.020163046099042528,-0.6763121586911002,0.3110901513187621,-1.4583689753449174,-0.02791135968942167,-0.28067545693791174,-0.2130167791608701,-0.09427625835476547,-0.1824679764258234,0.09476777302068576,-2.491534812033865,0.020094435266799163,2.3035105578035973,0.7674313491449594
0.4501075845924118,5.218424529704106e-05,0.2500518735725081,0.0011096451369002494,0.9999906526522183,0.0016772047274394115,-0.0031363942285786745,0.4509628910599106,-0.00010406485086217836,0.250631523953623,0.003192276459492909,0.9997970675031103,0.006100822058117594,-0.020163046099042528,-0.6881409605659984,0.23386774218802933,-1.5417526313829994,-0.020930640277523435,-0.27537182715027664,-0.21839550261422758,-0.09427489836440077,-0.18246797642582338,0.0947723524455414,-2.491537318061095,0.020090275177813064,2.3035054678038844,0.7674331303987557
0.45010627799621045,5.336163184289622e-05,0.25005033547647654,0.0011103431365847983,0.9999906290999951,0.001681930224609896,-0.003141122339596261,0.4509628910599106,-0.00010406485086217836,0.250631523953623,0.003192276459492909,0.9997970675031103,0.006100822058117594,-0.020163046099042528,-0.6665750350338279,0.26526244620430905,-1.4469356587921025,-0.020443599494712243,-0.2817102880858555,-0.21361492322602105,-0.09426998489533885,-0.18246505878454988,0.09476777006159516,-2.4915320780367782,0.02008764193784481,2.303502580667304,0.767430623830809
0.450104756915629,5.396157991533122e-05,0.25005041479250845,0.0011105507507970266,0.9999906290441605,0.0016781904627546972,-0.003143066375835691,0.4509628910599106,-0.00010406485086217836,0.250631523953623,0.003192276459492909,0.9997970675031103,0.006100822058117594,-0.020163046099042528,-0.6550262085634931,0.25527906398487593,-1.4933251090163062,-0.019661476152664965,-0.27771033331002115,-0.2140047124404082,-0.09427524132507427,-0.18246021524534103,0.09477055708089009,-2.4915340199558798,0.020089600969339618,2.303499216640527,0.7674327599908459
0.4501036380945743,5.095723529335164e-05,0.25005022792704895,0.0011106872459100442,0.9999906174903054,0.001680466886968807,-0.003145476876814324,0.4509628910599106,-0.00010406485086217836,0.250631523953623,0.003192276459492909,0.9997970675031103,0.006100822058117594,-0.020163046099042528,-0.7075293941172897,0.2682630424565989,-1.5162668749873058,-0.025249401350871475,-0.2829316399232184,-0.21813789479288961,-0.09427422286930878,-0.18246228192339617,0.09477048823946721,-2.491538989519338,0.0200881996306309,2.3034885940415677,0.7674269987098787
0.45010374080827414,5.4002682703588874e-05,0.2500502867928441,0.0011101942648849028,0.9999906195861339,0.0016791863718494595,-0.003145668470310337,0.4509628910599106,-0.00010406485086217836,0.250631523953623,0.003192276459492909,0.9997970675031103,0.006100822058117594,-0.020163046099042528,-0.704180387899349,0.29198021715227607,-1.49988483650778,-0.021918262174422776,-0.2796848016253183,-0.2091578499905014,-0.09427492189211782,-0.18246228193556954,0.09477305396524782,-2.4915309832486976,0.020088533903845306,2.3034895752418185,0.7674270634118122
0.45010519614079114,5.414529834691583e-05,0.2500520480772408,0.0011106538145024061,0.9999906157735092,0.0016832251604707962,-0.0031445595204943706,0.4509628910599106,-0.00010406485086217836,0.250631523953623,0.003192276459492909,0.9997970675031103,0.006100822058117594,-0.020163046099042528,-0.6545704122978829,0.27741835087655625,-1.4771625755087734,-0.017684979903095165,-0.271195611505965,-0.2072554859364765,-0.094274555118023,-0.18245949754004803,0.09477305977469683,-2.4915283752617534,0.020086562962525503,2.303484110886476,0.7674313358998127
0.450105002494651,5.3030461252795695e-05,0.2500518691212845,0.0011105443608695248,0.9999906244689535,0.0016774257044994566,-0.0031449319565560116,0.4509628910599106,-0.00010406485086217836,0.250631523953623,0.003192276459492909,0.9997970675031103,0.006100822058117594,-0.020163046099042528,-0.6245936038653371,0.21477419921131816,-1.4707454209950888,-0.009260045526896006,-0.2683331881740715,-0.20745887187684367,-0.09427812225358528,-0.182459497863808,0.09477584668572678,-2.491528814478733,0.02008727357784907,2.3034864504873775,0.7674303213481708
0.45010361921235287,5.323017065110681e-05,0.2500517116781396,0.001111009160296771,0.9999906127988266,0.001681443225345587,-0.0031463327984199495,0.4509628910599106,-0.00010406485086217836,0.250631523953623,0.003192276459492909,0.9997970675031103,0.006100822058117594,-0.020163046099042528,-0.6644751384649755,0.2666259039155549,-1.4709147229075075,-0.0214158540521058,-0.274524426618786,-0.21387823314010337,-0.09426958582765167,-0.18246228192354502,0.09477127175162113,-2.491528287139777,0.02008594611734132,2.3034808014037687,0.7674301168488905
0.45010604456410924,5.317412660482889e-05,0.25005470835549776,0.001110966245137814,0.999990621092451,0.0016805926064157345,-0.0031441657346260574,0.4509628910599106,-0.00010406485086217836,0.250631523953623,0.003192276459492909,0.9997970675031103,0.006100822058117594,-0.020163046099042528,-0.6602135129273421,0.23301938822478482,-1.4425559121904235,-0.02597178499036959,-0.27468252178115715,-0.22046224552727173,-0.09427705682011442,-0.18246228192354502,0.09477055708044452,-2.491530106940622,0.02008468865566187,2.303481729817767,0.7674320479764044
0.45010312608350517,5.3223294683819184e-05,0.2500499054750404,0.0011110510531168985,0.9999906018496375,0.001679346158055432,-0.003150914628812756,0.4509628910599106,-0.00010406485086217836,0.250631523953623,0.003192276459492909,0.9997970675031103,0.006100822058117594,-0.020163046099042528,-0.6940740382613899,0.27405237619836775,-1.4545890264545973,-0.02666254195273994,-0.2802222982408593,-0.21748136948075145,-0.09427705682055992,-0.18246228094694095,0.09477079384338855,-2.491530574515862,0.020083505511551265,2.303476738903254,0.7674287286413535
0.4501048120700444,5.497504025290858e-05,0.2500515387840655,0.001110725620417745,0.9999906043055072,0.0016837623401752006,-0.00314789170277227,0.4509628910599106,-0.00010406485086217836,0.250631523953623,0.003192276459492909,0.9997970675031103,0.006100822058117594,-0.020163046099042528,-0.6830884600935554,0.2831173683020861,-1.4822319957570105,-0.02905183773259597,-0.27690590567880985,-0.21997605176705345,-0.0942745510224314,-0.18245949786318902,0.09476984691206547,-2.4915313660851397,0.02008427488646455,2.303475532408649,0.7674265588151477
0.4501025634955558,5.4126667629867836e-05,0.25004978731691047,0.0011122948147598841,0.9999905872539191,0.0016857007451097391,-0.003151714654237537,0.4509628910599106,-0.00010406485086217836,0.250631523953623,0.003192276459492909,0.9997970675031103,0.006100822058117594,-0.020163046099042528,-0.6704217996653837,0.2582128223549939,-1.471474792557715,-0.023475506684110335,-0.2740403405148758,-0.2203857256317916,-0.09427770124527181,-0.1824622819235395,0.09477056000344342,-2.491532861606799,0.020083879010916118,2.3034756252421755,0.7674293869543812
0.45010338392760585,4.9961595498994074e-05,0.25004994653902035,0.0011098176304485743,0.9999906073761676,0.0016747702883868627,-0.003152030676399157,0.4509628910599106,-0.00010406485086217836,0.250631523953623,0.003192276459492909,0.9997970675031103,0.006100822058117594,-0.020163046099042528,-0.6670852718788594,0.2848921897950189,-1.4620557312045441,-0.0226185007800067,-0.27349564264420234,-0.21399016015494315,-0.0942720455129923,-0.18246478757777237,0.09477306273421832,-2.4915256073230343,0.020087528866027972,2.3034743356509217,0.7674274222528437
0.4501035437410729,5.4518756966025264e-05,0.2500530220892272,0.001110575409145439,0.9999906053196101,0.0016806443550854901,-0.003149288470503468,0.4509628910599106,-0.00010406485086217836,0.250631523953623,0.003192276459492909,0.9997970675031103,0.006100822058117594,-0.020163046099042528,-0.6504486906689029,0.22233285992578164,-1.467698682217316,-0.0163496392421467,-0.27433591438091326,-0.21727330816258203,-0.09427442629008188,-0.18245854860462318,0.09477306273422742,-2.4915299493702716,0.020084162881926083,2.3034736235671573,0.7674291981617094
0.4501062993248367,5.531379301822709e-05,0.2500541080500644,0.0011126045353429374,0.9999905985561834,0.0016858111219764825,-0.0031479580222135784,0.4509628910599106,-0.00010406485086217836,0.250631523953623,0.003192276459492909,0.9997970675031103,0.006100822058117594,-0.020163046099042528,-0.6781708947331072,0.25727251519276256,-1.4726676671783638,-0.022844607763349904,-0.27594610752757365,-0.21926171173008527,-0.09427705714518905,-0.18246502342646728,0.09476868929676742,-2.4915304899646395,0.020086780675809046,2.303473923580533,0.7674313358986293
0.4501044333222315,5.6344734896852324e-05,0.2500538818418368,0.0011128531713723877,0.9999906002232674,0.0016834930782361965,-0.003148581025832011,0.4509628910599106,-0.00010406485086217836,0.250631523953623,0.003192276459492909,0.9997970675031103,0.006100822058117594,-0.020163046099042528,-0.6636646082536877,0.23975949250203393,-1.4809417408791847,-0.022157590365283475,-0.269063322190966,-0.2225944763846448,-0.09427139286690676,-0.18245935503667712,0.09477055709247331,-2.4915305568937223,0.020085518723146678,2.303469965760756,0.7674265975924389
0.4501045825237509,5.293199663269795e-05,0.250052732028747,0.0011123775538698672,0.999990598164333,0.0016809440484137858,-0.003150764154447857,0.4509628910599106,-0.00010406485086217836,0.250631523953623,0.003192276459492909,0.9997970675031103,0.006100822058117594,-0.020163046099042528,-0.6466860713967868,0.27699596730878295,-1.4719049762017795,-0.028131996386448515,-0.26674458556012814,-0.22035096207926685,-0.09427133522416208,-0.18246478757866133,0.09477268697218069,-2.4915276062445164,0.020084274716041777,2.3034688595562995,0.7674295904296613
0.4501049288861346,5.299486371682601e-05,0.25005263169824304,0.0011121392330336612,0.9999906003615878,0.001680754416866631,-0.0031502520414325957,0.4509628910599106,-0.00010406485086217836,0.250631523953623,0.003192276459492909,0.9997970675031103,0.006100822058117594,-0.020163046099042528,-0.6804336527430089,0.2746192402774046,-1.4393765010766468,-0.023467283406458556,-0.27606924460242155,-0.2148337197330067,-0.09427706559089255,-0.18246478757732792,0.09477303642723854,-2.491524682034374,0.020083707544828907,2.3034711323978256,0.7674306564949176
0.4501036126525242,5.343267815166677e-05,0.25005291566030674,0.0011123412596124745,0.9999905934917768,0.001682775893041938,-0.0031512820698964953,0.4509628910599106,-0.00010406485086217836,0.250631523953623,0.003192276459492909,0.9997970675031103,0.006100822058117594,-0.020163046099042528,-0.6627057427987534,0.2436466186426839,-1.454461405317031,-0.01636613130414499,-0.2720206382667321,-0.2115220585182222,-0.09427700069380716,-0.1824622817788623,0.09476564181649205,-2.4915247597898413,0.020081887250513308,2.3034703810744817,0.767430866222093
0.4501026436345063,5.397529928919571e-05,0.2500506689048849,0.0011114760572634775,0.9999905864297227,0.0016835360896802457,-0.003153421576597871,0.4509628910599106,-0.00010406485086217836,0.250631523953623,0.003192276459492909,0.9997970675031103,0.006100822058117594,-0.020163046099042528,-0.6760573309502723,0.2413565810768821,-1.454777572410226,-0.012799247771814983,-0.2768061570002455,-0.20478005834119636,-0.09427693095701173,-0.18245934223543847,0.09477306274640472,-2.491526760432173,0.02008309280437514,2.303465653590721,0.7674265532398324
0.45010370134441596,5.467865623153927e-05,0.2500522342267915,0.0011123398172624263,0.9999905831783287,0.0016863589363926028,-0.003152639652811372,0.4509628910599106,-0.00010406485086217836,0.250631523953623,0.003192276459492909,0.9997970675031103,0.006100822058117594,-0.020163046099042528,-0.7058972830504027,0.2348500487028017,-1.505373290348092,-0.011062757955445028,-0.27621305922393513,-0.20092294887475518,-0.09427774320765188,-0.18246129356355234,0.09477055707688042,-2.4915256257577036,0.020081158726043994,2.3034647989074624,0.7674281458659551
0.4501027300130578,5.053727908457473e-05,0.25005296655585996,0.0011122639794050335,0.9999905901427455,0.0016804382892695654,-0.0031536186360205856,0.4509628910599106,-0.00010406485086217836,0.250631523953623,0.003192276459492909,0.9997970675031103,0.006100822058117594,-0.020163046099042528,-0.6942471920384143,0.25055955284600695,-1.4667182021270628,-0.009867124415069326,-0.2764514480943773,-0.19686694383339953,-0.09427524137768033,-0.18246149087424707,0.09477305980721912,-2.491524433471004,0.020083135877574508,2.303464553064769,0.7674299691459006
0.4501028632888905,5.4038393215110524e-05,0.25005341574870543,0.0011132535081864274,0.9999905810461164,0.001687111967903123,-0.0031525905726072366,0.4509628910599106,-0.00010406485086217836,0.250631523953623,0.003192276459492909,0.9997970675031103,0.006100822058117594,-0.020163046099042528,-0.7018259038397558,0.2356465025643521,-1.4615661951176466,-0.012474669964635997,-0.27639700563695785,-0.2080316649974316,-0.09428025311963333,-0.1824626386142744,0.09476834729327495,-2.4915243370394,0.0200824814788582,2.3034604246118286,0.7674269812775009
0.4501043200506339,5.5551043263888346e-05,0.2500529137589851,0.001113518326570115,0.9999905852488256,0.0016853400756269637,-0.0031521116635568978,0.4509628910599106,-0.00010406485086217836,0.250631523953623,0.003192276459492909,0.9997970675031103,0.006100822058117594,-0.020163046099042528,-0.7078713737697447,0.2648168233078681,-1.4516519210584289,-0.023491755377761093,-0.2791400175140372,-0.2147706896332525,-0.09427512306827202,-0.18246162337862842,0.09477210680539402,-2.4915216502332673,0.020081253169369925,2.3034634451103257,0.7674327595676974
0.4501032714349146,5.491399591652795e-05,0.2500484505718792,0.001112104925371595,0.999990568637532,0.0016838433841919122,-0.003158673545092237,0.4509628910599106,-0.00010406485086217836,0.250631523953623,0.003192276459492909,0.9997970675031103,0.006100822058117594,-0.020163046099042528,-0.6257280267830727,0.2896754098050397,-1.4440010920297903,-0.0221080749209157,-0.2665706096988941,-0.20904134821836068,-0.0942770685546051,-0.18245850953906922,0.09477584683008848,-2.491527108772975,0.020082437092766962,2.303460378098541,0.7674297752727774
0.45009856463758363,5.986127492814286e-05,0.25001617294476536,0.0010421778631438314,0.9999914941429344,0.0012994298902181559,-0.0030698017933076817,0.44989252957594017,9.712667937316965e-05,0.2497811750539742,0.0041510670252988295,0.9999547655332011,-0.005832771279578866,0.005865223572614835,-0.5829295795444663,0.07097126019433365,-1.4958871042791693,0.09222084826431869,-0.21844999533166587,-0.08988962595212696,-0.09428297280287672,-0.18245180747890494,0.09477444788630557,-2.491520551963244,0.020104659626465623,2.3034833994676776,0.7674437287999297
0.45004122418316383,6.255070744490634e-05,0.24972589993176356,0.0010295157636279809,0.9999931011157464,0.0007309880851003276,-0.0027184874814517625,0.44989252957594017,9.712667937316965e-05,0.2497811750539742,0.0041510670252988295,0.9999547655332011,-0.005832771279578866,0.005865223572614835,-0.6110354980338796,-0.23795796192836752,-1.2191232622986798,0.24222777878008667,-0.18829691276711796,0.09322817482879699,-0.0942962302202239,-0.1824904471517857,0.09476667024878958,-2.4917043538305976,0.020283550737635717,2.3037771865188303,0.768033835678108
0.45004506486518014,5.816691929950152e-05,0.24959987995720495,0.0010063733104041283,0.9999938160620889,0.0006603598400853254,-0.0024709664623317443,0.44989252957594017,9.712667937316965e-05,0.2497811750539742,0.0041510670252988295,0.9999547655332011,-0.005832771279578866,0.005865223572614835,-0.4788260758610002,-0.38059362357193327,-0.9872805019640545,0.28867717113997593,-0.09290591767873663,0.1472238461222278,-0.09429722835352808,-0.18249225957622736,0.09477265094190632,-2.493045737107586,0.020369138236182905,2.3058734849983384,0.7691775836701931
0.45013879462722467,7.272471258640346e-05,0.24966083010742218,0.0008968068843238654,0.9999945261076907,0.0005239613414173583,-0.0022484789064766792,0.44989252957594017,9.712667937316965e-05,0.2497811750539742,0.0041510670252988295,0.9999547655332011,-0.005832771279578866,0.005865223572614835,-0.18409659124336117,-0.42722637735789315,-0.9363468876770142,0.31397587373054464,0.0013878409764038226,0.1866511654637628,-0.09430304293542487,-0.18249969163511168,0.09477195986215999,-2.4932348111909373,0.020446836628253813,2.3065154966973584,0.7691794512622727
0.4501741513852798,4.147768908228974e-05,0.24968376201165748,0.0008385719949877606,0.9999948762667107,0.00035917458866685785,-0.0021452115195122272,0.44989252957594017,9.712667937316965e-05,0.2497811750539742,0.0041510670252988295,0.9999547655332011,-0.005832771279578866,0.005865223572614835,-0.09599340228354117,-0.3983222023800361,-0.9477669704256833,0.317724929457142,0.03898074965464916,0.22773413097209086,-0.09435319283267475,-0.1825479370930448,0.09476902423306453,-2.493242010197694,0.020827984871452803,2.307016579869588,0.7692595319985387
0.45019793458424406,1.3708098311698136e-05,0.24971236083681303,0.000766780306406324,0.9999951246837971,0.00023375048538065734,-0.002072370425529016,0.44989252957594017,9.712667937316965e-05,0.2497811750539742,0.0041510670252988295,0.9999547655332011,-0.005832771279578866,0.005865223572614835,-0.17266429823103457,-0.3982453090084668,-0.9027501872835341,0.3040978894463192,0.03569585508290253,0.23660478724527803,-0.09445455948714071,-0.18257334866688596,0.09477126923994207,-2.4932350802554435,0.020941117781997937,2.3070971217890235,0.769341122258244
0.4502083945624285,1.6866022988366176e-05,0.24972513276402986,0.0006850132788755294,0.9999952671543172,0.0001257598053646456,-0.0020413995941508363,0.44989252957594017,9.712667937316965e-05,0.2497811750539742,0.0041510670252988295,0.9999547655332011,-0.005832771279578866,0.005865223572614835,-0.1934907613557109,-0.4372551466944855,-0.8693679898124046,0.3075070563646408,0.03167180868641985,0.24795190202498887,-0.0945415853239285,-0.1826373781193883,0.09476799106068398,-2.493246781563615,0.02127488196773315,2.3071853940574365,0.7693663538528335
0.45021875211094886,1.6431931332304828e-05,0.2497300634236021,0.000643058319171013,0.9999953564984349,5.21145168738249e-05,-0.0020143097489492808,0.44989252957594017,9.712667937316965e-05,0.2497811750539742,0.0041510670252988295,0.9999547655332011,-0.005832771279578866,0.005865223572614835,-0.11397380162045906,-0.4266883716855651,-0.973393175840722,0.312121708782978,0.056943063789808644,0.26958655655972524,-0.09457638463463856,-0.18263530688971236,0.0947647767306709,-2.4932439370466883,0.02136366371010866,2.3072119416076373,0.769366160025339
0.45022551711498754,1.9866397121230874e-05,0.24973583022308388,0.0006250795836660115,0.9999954121041804,3.1821531995529536e-06,-0.001992922003639342,0.44989252957594017,9.712667937316965e-05,0.2497811750539742,0.0041510670252988295,0.9999547655332011,-0.005832771279578866,0.005865223572614835,-0.07629147003165043,-0.4028630915856061,-0.9638897717774566,0.29546297257537524,0.06403247780691387,0.2692877508859653,-0.09459659994217205,-0.18264458862835914,0.09476450185993791,-2.4932442895316886,0.0214984808591253,2.3072899387169805,0.7694788077247761
0.45022680133657167,1.2255224874890126e-05,0.24973859179246388,0.0006070007351141065,0.9999954388516424,-3.615390488856203e-05,-0.001984747097663363,0.44989252957594017,9.712667937316965e-05,0.2497811750539742,0.0041510670252988295,0.9999547655332011,-0.005832771279578866,0.005865223572614835,-0.13912509026470712,-0.4241130191430704,-0.9249783647391395,0.29047995563315954,0.05410186170249123,0.27412569839314616,-0.09459980938857941,-0.182651234231748,0.09476766066593097,-2.4932502130799112,0.02152228470887968,2.3073048431796988,0.7694896816068945
0.4502368644798376,1.4225176382982583e-05,0.24974676281616906,0.00059725438015691,0.9999954915768382,-5.345301065873034e-05,-0.0019606014636453424,0.44989252957594017,9.712667937316965e-05,0.2497811750539742,0.0041510670252988295,0.9999547655332011,-0.005832771279578866,0.005865223572614835,-0.18842189219233152,-0.43228004648554536,-0.9059626901177965,0.2866675704737942,0.04747950200815848,0.27434106772193023,-0.09462756116988964,-0.18266045616852455,0.09476487371925861,-2.4932555005881714,0.021579200797434837,2.3073293201021987,0.7695041422827338
0.45023508164337495,1.343044324660069e-05,0.2497436667704783,0.0005906358532259856,0.9999954977192194,-6.595661734604644e-05,-0.0019590922432275995,0.44989252957594017,9.712667937316965e-05,0.2497811750539742,0.0041510670252988295,0.9999547655332011,-0.005832771279578866,0.005865223572614835,-0.07346221911456394,-0.39899388305114386,-0.9371160468788132,0.29194992837691763,0.06375700015864992,0.2799381557380367,-0.09462392771933746,-0.18266193048080212,0.09476205527268741,-2.493248174104625,0.021589074845532012,2.307360187364753,0.7695085287100117
0.4502391371131182,1.1796044588059473e-05,0.24974796560485896,0.0005891053829352855,0.9999955127331648,-7.341353819268089e-05,-0.0019516098338028974,0.44989252957594017,9.712667937316965e-05,0.2497811750539742,0.0041510670252988295,0.9999547655332011,-0.005832771279578866,0.005865223572614835,-0.09054833259201837,-0.40653148401242295,-0.9315120361676889,0.29335696692499796,0.06331704136500814,0.28069969075063367,-0.09463353285675737,-0.18266782418318464,0.09476487628139396,-2.4932566592521286,0.021606940853413737,2.3073691988903553,0.7695265771883156
0.4502359026787698,1.0400232775966991e-05,0.24974331383539627,0.0005850717558337108,0.9999955060293702,-8.570472390997124e-05,-0.0019557527715929144,0.44989252957594017,9.712667937316965e-05,0.2497811750539742,0.0041510670252988295,0.9999547655332011,-0.005832771279578866,0.005865223572614835,-0.16608478164246276,-0.4112418385099371,-0.9053506334711579,0.28503949091937253,0.0485270737053394,0.27550208810966337,-0.09463488225897566,-0.18267319295893397,0.09476237094030487,-2.4932588845971733,0.02160938036108876,2.307373722366922,0.7695218372332724
0.45023774983746195,1.346643517565448e-05,0.24974585789393206,0.0005809797829564301,0.9999955205913216,-9.16868251215581e-05,-0.0019492448289964092,0.44989252957594017,9.712667937316965e-05,0.2497811750539742,0.0041510670252988295,0.9999547655332011,-0.005832771279578866,0.005865223572614835,-0.15357725161360153,-0.39875304719299215,-0.9309820360662722,0.28898226254400433,0.05276564170946968,0.2815308630589286,-0.09464135517085832,-0.1826706491479445,0.09476237098981159,-2.493265495958396,0.021625128017530443,2.3073769648604885,0.7695393630398394
0.45024019456864,1.063594409173447e-05,0.24974499529541416,0.0005784299427117352,0.9999955242939184,-9.802800659590819e-05,-0.001947794529885233,0.44989252957594017,9.712667937316965e-05,0.2497811750539742,0.0041510670252988295,0.9999547655332011,-0.005832771279578866,0.005865223572614835,-0.11372580987867144,-0.3997805623668489,-0.9392833046603648,0.29111650728951655,0.0586047689947657,0.2824154747040526,-0.0946495614386423,-0.18266805892526133,0.09476487660617156,-2.4932661219598895,0.021633179342927533,2.3073814921054563,0.7695502420315739
0.4502411404836017,7.687702141838731e-06,0.24974962229832334,0.0005788798337818927,0.9999955397850306,-0.00010355277477629531,-0.0019394037972806774,0.44989252957594017,9.712667937316965e-05,0.2497811750539742,0.0041510670252988295,0.9999547655332011,-0.005832771279578866,0.005865223572614835,-0.1136772980165116,-0.39556380610175146,-0.9364414179377045,0.2898145384634968,0.05994971657275215,0.2805434027372107,-0.0946484576911661,-0.18267326317233323,0.09476765933073342,-2.493265497537344,0.021636906897028282,2.30739613942971,0.7695551983394423
0.4502411647074549,7.962748858061063e-06,0.24974963278514326,0.0005771724210955686,0.9999955483906262,-0.00010946274519777727,-0.0019351462247297673,0.44989252957594017,9.712667937316965e-05,0.2497811750539742,0.0041510670252988295,0.9999547655332011,-0.005832771279578866,0.005865223572614835,-0.16431969177599842,-0.40560294505310907,-0.9509452338260131,0.2844997463161886,0.05421228684919729,0.2755035966901893,-0.09465377494147813,-0.18267429569783242,0.09476236214879122,-2.493272031089382,0.021642749349160634,2.307394397512275,0.7695554029499173
0.4502408579779264,4.336743781935687e-06,0.249747369473174,0.0005763727287403335,0.9999955475555493,-0.00011361696434222413,-0.001935576609709349,0.44989252957594017,9.712667937316965e-05,0.2497811750539742,0.0041510670252988295,0.9999547655332011,-0.005832771279578866,0.005865223572614835,-0.15329730968518263,-0.3599667308347621,-0.8966939722793981,0.2846667991016713,0.048390411198574235,0.28258013511432395,-0.09464843707544761,-0.18267483363862153,0.09476766066597986,-2.4932670248605784,0.0216417013456387,2.3074047537079307,0.7695582212086107
0.450240972518059,4.666785538778331e-06,0.24974889271074174,0.0005755741875633352,0.9999955499317296,-0.00011720068352772467,-0.0019343725494882218,0.44989252957594017,9.712667937316965e-05,0.2497811750539742,0.0041510670252988295,0.9999547655332011,-0.005832771279578866,0.005865223572614835,-0.11361544615593558,-0.43842841030121227,-0.943895850117046,0.2928501218751837,0.05990641231668844,0.2764354102006224,-0.09465064304760071,-0.18268294911859026,0.09476487628139395,-2.4932725257530666,0.021643039897131205,2.3074088066656904,0.7695615784546316
0.45024148092638744,7.690263956583583e-06,0.24974859482541106,0.0005735333452533153,0.9999955556757465,-0.00011877360755188037,-0.0019319117871482265,0.44989252957594017,9.712667937316965e-05,0.2497811750539742,0.0041510670252988295,0.9999547655332011,-0.005832771279578866,0.005865223572614835,-0.10675315256618075,-0.37425767024336576,-0.9291844274589374,0.27719212973495,0.05903543828356802,0.2719012158174831,-0.09465091728946254,-0.18268602862357464,0.09476488537518418,-2.493274419708102,0.02164186563932115,2.3074144615685466,0.7695576915004696
0.45024003566160037,4.9642413434795015e-06,0.24974755537279464,0.0005746574831281523,0.9999955508248047,-0.00011947131835297546,-0.0019340444778123736,0.44989252957594017,9.712667937316965e-05,0.2497811750539742,0.0041510670252988295,0.9999547655332011,-0.005832771279578866,0.005865223572614835,-0.14638047224207779,-0.37087517413004706,-0.9262744000173059,0.2861741383907713,0.052070745268676374,0.28029436192304324,-0.09465058965139739,-0.18267814946164965,0.0947623748502382,-2.4932717052391897,0.021644200294582947,2.3074168761306333,0.7695619992406413
0.4502911801007373,-5.990968400803298e-06,0.24977440032575723,0.000582691892253185,0.9999957470066543,-0.00058865101601153,-0.0017339634395991687,0.4495451901470125,0.00018970058992152044,0.24981255227706367,0.007727422946323525,0.9998078291086365,-0.011538806118420258,0.013661409726538601,-0.15237203416701117,-0.366933538009809,-0.9686689302620995,0.28308257900941425,0.041720955603865385,0.27273507379920925,-0.09465815641884083,-0.18268071761703342,0.09476487624134676,-2.493284397059194,0.02165093178872588,2.307413867979329,0.7695738092238585
0.4503205655626603,-9.475997677989127e-06,0.24977970120802456,0.0006014225515066615,0.9999960308476021,-0.0009997939173227684,-0.001328039683844295,0.4495451901470125,0.00018970058992152044,0.24981255227706367,0.007727422946323525,0.9998078291086365,-0.011538806118420258,0.013661409726538601,-0.06511351707602984,-0.5244628116953084,-0.9538482537455522,0.3412633779606702,0.06094320715644666,0.3129011648736198,-0.09466942147156465,-0.1827431786951888,0.09475945276490193,-2.493355390696758,0.02164650931643747,2.3077545998970135,0.7703657131181457
0.4502525044990217,-2.2518433408996057e-05,0.24971971547178062,0.0006311385158626963,0.999995891588711,-0.0014170492714434542,-0.0009985658235190419,0.4495451901470125,0.00018970058992152044,0.24981255227706367,0.007727422946323525,0.9998078291086365,-0.011538806118420258,0.013661409726538601,0.03300113140670284,-0.5185946640870768,-1.0066018087235413,0.3701399747235738,0.08381099030170412,0.34004827820838684,-0.0946694208413502,-0.18314508475096986,0.09476308092854555,-2.4940830289167697,0.021659114833846867,2.3091246845979656,0.7715220642381941
0.4502200039181817,-3.7282558613821886e-05,0.24971630858472688,0.0006637619328149843,0.9999958330450575,-0.0016926456639214716,-0.0004636287503258319,0.4495451901470125,0.00018970058992152044,0.24981255227706367,0.007727422946323525,0.9998078291086365,-0.011538806118420258,0.013661409726538601,-0.010758566365829817,-0.5793547174064174,-0.9979524088150499,0.38677455523527593,0.0718322862330103,0.3586819181029648,-0.09467298113255136,-0.18344185217241304,0.09476700780256883,-2.4946221263355586,0.021659509924056512,2.309782229808915,0.7720663784734868
0.4502157874702346,-4.720476763718692e-05,0.24971884990003193,0.0007148919166963398,0.9999945447399198,-0.0023524169109860062,0.00022853910483595487,0.44922939520618344,0.00032928117715061824,0.2498872742861973,0.011201768403632845,0.9996151518000508,-0.01561780163537228,0.01988313793322973,0.08974124905101051,-0.5751246507184147,-1.127217481792195,0.3840598375743946,0.0812791460204746,0.35359148317618644,-0.09467191276820118,-0.18422518475758934,0.09476223308988485,-2.4958903795900906,0.021666280052596396,2.311673721668899,0.7727894299911434
0.4502021798955813,-4.529209859036202e-05,0.2497417246899352,0.0007712733059243913,0.9999921002437521,-0.003046842417071302,0.0010526140381162596,0.44922939520618344,0.00032928117715061824,0.2498872742861973,0.011201768403632845,0.9996151518000508,-0.01561780163537228,0.01988313793322973,0.16137072519867304,-0.6968676664596116,-1.1091955643460778,0.4326308993517986,0.08917100815391471,0.3713522673238766,-0.0946478909675239,-0.18471021676935945,0.09476211701256168,-2.4966313050136404,0.02164170874113158,2.312987046878145,0.7739386460924326
0.4501757356239496,-4.977951525306725e-05,0.24972683819532646,0.0008092920230909533,0.9999895502994204,-0.0035589442192876584,0.001662797520885135,0.44922939520618344,0.00032928117715061824,0.2498872742861973,0.011201768403632845,0.9996151518000508,-0.01561780163537228,0.01988313793322973,0.2879667907140103,-0.7796655913067252,-1.0751366496323278,0.46162345301645125,0.12425118033789141,0.38062186692803324,-0.09458506193456165,-0.18581340576538924,0.09476240510585564,-2.498304815912978,0.021638109610872123,2.315699367779672,0.7759198241014283
0.4501958413518544,-6.889823431614102e-05,0.24972821517109903,0.0008406774399241377,0.999986916069095,-0.003937377173987115,0.0022681800114429792,0.44922939520618344,0.00032928117715061824,0.2498872742861973,0.011201768403632845,0.9996151518000508,-0.01561780163537228,0.01988313793322973,0.27437738694420044,-0.8429506516848422,-0.9808152796051745,0.4768302652935013,0.12635306753726747,0.39154511998378855,-0.09456822144536339,-0.18621418769650594,0.09476975974569896,-2.498965057667617,0.021642922506586747,2.316773224878599,0.776454293256513
0.4501962023273893,-6.010195754096549e-05,0.24973323004931974,0.0008876698954573996,0.9999827492187299,-0.00456977073898596,0.0028314491193857103,0.44894185053975033,0.0004986400509313122,0.2499426289597422,0.014493592612297296,0.9994684065205557,-0.017370081620145073,0.023373201450356002,0.27014798960871933,-0.7488650070065739,-1.1283832634598712,0.4597862035650693,0.14483240348821455,0.39094884836176896,-0.0945653474508465,-0.18693011432202067,0.09476444194469685,-2.5001617980445237,0.02164116677167334,2.318784663019034,0.777504896797948
0.4501490346720284,1.017408678747007e-05,0.24973460537469688,0.0009623625885223109,0.9999773864247987,-0.005294814430101432,0.0033840810590335616,0.44894185053975033,0.0004986400509313122,0.2499426289597422,0.014493592612297296,0.9994684065205557,-0.017370081620145073,0.023373201450356002,0.2781467101312515,-0.8608331577156285,-0.9887275137786056,0.4761253619080697,0.13424971936998695,0.38475746095002916,-0.09450170295051769,-0.18727402818560981,0.0947585714719075,-2.500703520920451,0.02160658627881822,2.319826094627029,0.7785958872387287
0.45003930041242884,4.591033099848068e-05,0.24969078474838782,0.0010324586713460289,0.99997082875675,-0.00605083173593343,0.003981158855128013,0.44894185053975033,0.0004986400509313122,0.2499426289597422,0.014493592612297296,0.9994684065205557,-0.017370081620145073,0.023373201450356002,0.3654762064171801,-0.9732105816669804,-1.0386083428570294,0.5087840728272118,0.14873198502649945,0.379061174810296,-0.09427065014966567,-0.188218419497118,0.0948014171905942,-2.502134374340976,0.02150565955332763,2.321944381466699,0.7808715137564876
0.44998774707835676,4.529302420622699e-05,0.24969313137576965,0.0010931621666580248,0.9999640983969792,-0.006579451887806573,0.004743861318005046,0.44894185053975033,0.0004986400509313122,0.2499426289597422,0.014493592612297296,0.9994684065205557,-0.017370081620145073,0.023373201450356002,0.3476589659845463,-1.0604291899460259,-1.0802233419973606,0.5388982169374275,0.14364132756057793,0.38131662112611214,-0.09419084493047404,-0.18878252138535173,0.09480818884713,-2.503057517507536,0.021419675950464644,2.3230475415721252,0.7819958964166107
0.44992120064862545,4.226658832667632e-05,0.24968680242513633,0.001216809843586222,0.9999586588149487,-0.006918962681886445,0.005339893436383148,0.44886153808999063,0.0005530883953050864,0.25003574234884884,0.01751140192072061,0.999412949668843,-0.016443455302044514,0.02432911443342708,0.37936266713415073,-1.03462683378059,-1.003343390176572,0.5429975654335036,0.14658208438908402,0.3904489812630048,-0.09414789930569062,-0.1899132444974923,0.09483954999715283,-2.504783097640062,0.021384138897790693,2.325731488121023,0.7834438669050349
0.4499260543823628,4.4060817948921995e-05,0.24975209558695008,0.0013686952769852978,0.9999513191441802,-0.0073830905647974225,0.006013520474654398,0.44886153808999063,0.0005530883953050864,0.25003574234884884,0.01751140192072061,0.999412949668843,-0.016443455302044514,0.02432911443342708,0.31510569912159864,-1.066476333080235,-0.9546594988828845,0.5715107722482375,0.1433957184634461,0.39406321673521405,-0.09412551840018926,-0.19039946810400596,0.09487150872027464,-2.505496914720566,0.021144158031276915,2.326629105156953,0.7840150023734074
0.44987705648759696,8.700199467796569e-05,0.24978758738363224,0.001489265692550134,0.9999457435844523,-0.007643696208474951,0.006561425469103157,0.44886153808999063,0.0005530883953050864,0.25003574234884884,0.01751140192072061,0.999412949668843,-0.016443455302044514,0.02432911443342708,0.25428809965363364,-1.071367769424375,-0.9120734163969892,0.6121710794707932,0.13410718783659467,0.3942205273483666,-0.09405202963358412,-0.19139721690191977,0.09501719636829889,-2.5067503526955948,0.020783759223456714,2.328637193892762,0.7856128020798195
0.4498019270752914,8.677107903446733e-05,0.24974730660455247,0.0015730092499034556,0.9999399039743901,-0.007901241959825134,0.007104284530049139,0.44886153808999063,0.0005530883953050864,0.25003574234884884,0.01751140192072061,0.999412949668843,-0.016443455302044514,0.02432911443342708,0.3002762808989761,-1.1116704265438742,-1.063589639881094,0.6492867133825566,0.15261984840310425,0.39588380746857665,-0.0940342180932172,-0.19185034171716422,0.09508267480933705,-2.507420733446129,0.020673492313941527,2.3295562746263037,0.7860579499647844
0.44981109585894963,7.659849190413017e-05,0.24975855754070717,0.0017234564934230075,0.9999342483589003,-0.007923480312252928,0.007805992331812747,0.4489377916469586,0.0005606952277263383,0.2500611036148063,0.020043261579257475,0.9994330096573342,-0.014261463007461558,0.022885014314308606,0.22310410515303333,-1.0614746617961779,-0.8928542705742079,0.6440685545061362,0.13526976175689037,0.39799085892019587,-0.09402070011997748,-0.19276365172699433,0.0951426122189224,-2.508947591185834,0.02053543208310338,2.331885848833628,0.786816041002572
0.4497397210490105,6.593140551244054e-05,0.24976154844841736,0.0019212333849529285,0.9999329484636884,-0.007769786134761364,0.008076154650104249,0.4489377916469586,0.0005606952277263383,0.2500611036148063,0.020043261579257475,0.9994330096573342,-0.014261463007461558,0.022885014314308606,0.3693978172117254,-1.0933211126124125,-0.8341464443067581,0.6762383125001584,0.17912070314312528,0.39172636173975944,-0.09400301710812171,-0.1931420725070917,0.0951988269766431,-2.5095268182787867,0.02016509737025538,2.3327858396202683,0.7869295793765635
0.4497759980903063,7.696652925214381e-05,0.24981309479553576,0.0020127172701591193,0.9999303597257867,-0.007707285408855345,0.008426674056111798,0.4489377916469586,0.0005606952277263383,0.2500611036148063,0.020043261579257475,0.9994330096573342,-0.014261463007461558,0.022885014314308606,0.29384717084004686,-1.097835173185422,-0.9885005164936052,0.7046768525362295,0.19500349608360054,0.3917880290770264,-0.094000827373353,-0.19370806748424588,0.09531563255388857,-2.510236945700207,0.0197117029466827,2.333778354558837,0.7870554876567183
0.4497769345439909,8.152365248121843e-05,0.24983323474740463,0.0020771816351809165,0.9999291811313908,-0.007647510344550622,0.008603490249929888,0.4489377916469586,0.0005606952277263383,0.2500611036148063,0.020043261579257475,0.9994330096573342,-0.014261463007461558,0.022885014314308606,0.33432029632505716,-1.0860998500913788,-0.8320180693918096,0.7100884524216909,0.20390465741683456,0.3879958017471753,-0.09399620400093434,-0.193868039517118,0.09535958353320062,-2.510427368237323,0.019588342150766987,2.3342300958072904,0.7870881961167149
0.44976131761437615,7.213809861289833e-05,0.24982896308052882,0.0022542667239724345,0.9999293565777122,-0.00746970588919526,0.008694254601655205,0.449041113764037,0.0005812370948592878,0.2499949650735044,0.022083872632536243,0.9994746867536,-0.01237967285340258,0.02011425514422716,0.3109329644277862,-1.0721309101348728,-0.7500838663766901,0.6891353082573365,0.20678890221434046,0.37263782362346387,-0.09398625378180124,-0.19411739271875833,0.09541850776111976,-2.510724627978594,0.01934905249637707,2.334774681551152,0.7871434559388577
0.4497499674462938,8.727254606321582e-05,0.24981544079241144,0.0024434433500405504,0.9999305007580036,-0.0072437532370662775,0.008702742499838309,0.449041113764037,0.0005812370948592878,0.2499949650735044,0.022083872632536243,0.9994746867536,-0.01237967285340258,0.02011425514422716,0.26877766217591326,-1.0564849976410189,-0.7357998550821486,0.6850166735553486,0.20164689096360214,0.3659379445405891,-0.09396493899736684,-0.1941343671709267,0.09549088506487532,-2.510813994991128,0.018886205681296665,2.33480964022448,0.7871559169186553
0.44973694305090145,9.552892599149335e-05,0.24979989310150166,0.0026083687513013473,0.9999315628536564,-0.0070497481130847375,0.008692153699058631,0.449041113764037,0.0005812370948592878,0.2499949650735044,0.022083872632536243,0.9994746867536,-0.01237967285340258,0.02011425514422716,0.21468987650286986,-1.0860326598208265,-0.7599893256789623,0.6940869523542483,0.19463370670527186,0.3573422415947749,-0.09395258168902974,-0.19415064353064707,0.09565840757358209,-2.510893415533348,0.01830224154161641,2.3348633732639734,0.7871703927942925
0.44974322953666673,9.676564139799412e-05,0.2498080994844521,0.0027744561384531116,0.9999322990562399,-0.006854851273527878,0.008711899172196228,0.449041113764037,0.0005812370948592878,0.2499949650735044,0.022083872632536243,0.9994746867536,-0.01237967285340258,0.02011425514422716,0.1954642875733955,-1.0371312617466621,-0.764525878305751,0.6825229272640819,0.1976747806822031,0.3532722590985095,-0.09393800730643309,-0.19416454285980375,0.09571609854103506,-2.510904990829573,0.017978599964203902,2.334874294511348,0.7871685661025676
0.44974424987939915,6.594849876275762e-05,0.24980695448306792,0.003007903123503172,0.9999331937399649,-0.006610720160852486,0.008720404033331623,0.4491914108750916,0.0005783306307587332,0.24997187289999503,0.02344944921022823,0.9995091610441177,-0.011305339344899775,0.017289769685760115,0.1937177604937244,-1.072084488328626,-0.7476955008547987,0.6825069595266685,0.19246406259985707,0.34846407477433555,-0.09394188075660516,-0.19417726348983452,0.09581591398711307,-2.510912340440357,0.017431951109179965,2.33493426862734,0.7871805779144383
0.4497394385890223,4.61179534318999e-05,0.24980339475471777,0.003287702605505654,0.999934303993648,-0.006310849303331686,0.008714264156933596,0.4491914108750916,0.0005783306307587332,0.24997187289999503,0.02344944921022823,0.9995091610441177,-0.011305339344899775,0.017289769685760115,0.1317615814432089,-1.0726388113689802,-0.7226502481648193,0.699554105358771,0.1679430948657618,0.36164102579709323,-0.09392978125372249,-0.19418016697391755,0.09585781121032089,-2.5109185426690264,0.016785155706400264,2.3349326375481834,0.7871921844398642
0.4497341526510752,4.508624671366607e-05,0.24979737152220277,0.0035348229406704876,0.9999352863841281,-0.006027533215967193,0.008705368529719594,0.4491914108750916,0.0005783306307587332,0.24997187289999503,0.02344944921022823,0.9995091610441177,-0.011305339344899775,0.017289769685760115,0.12850898409548073,-1.0999444327699748,-0.7182066138932889,0.7209195088113631,0.1595775274414814,0.3698924834783126,-0.0938995379765858,-0.19417405984276226,0.09601545205103316,-2.510928854723123,0.01585548260325071,2.3349299986892245,0.7872019479144281
0.4497301406544116,5.3192543459846286e-05,0.24979221059551396,0.0037363370500131466,0.9999360506227304,-0.005784574752921006,0.008698257667295747,0.4491914108750916,0.0005783306307587332,0.24997187289999503,0.02344944921022823,0.9995091610441177,-0.011305339344899775,0.017289769685760115,0.10802831112067561,-1.140691043238743,-0.7438092634846551,0.7243930860066106,0.1574428038483437,0.3668783422133495,-0.0938806100824914,-0.19417408621105567,0.09608820361274392,-2.5109429094389197,0.015501651245439237,2.334934150345109,0.7872191498683934
0.4497286251628784,7.870133234097941e-05,0.24979059582401628,0.003939546630320468,0.9999367835338099,-0.005523838757446363,0.008693829365463729,0.44935325026891904,0.0006148138657403164,0.24996017971901913,0.023815566244218603,0.9995447122731428,-0.011374102256271175,0.014456945560199337,0.09859936322609986,-1.0514363818745975,-0.7325336810277793,0.7061107387241917,0.1514006466548275,0.36269907839661814,-0.09384382998852407,-0.19417616070981403,0.09624526472791675,-2.510945865617919,0.014746995671396037,2.3349311016167578,0.7872255301279759
0.4497273585649592,7.753364296151887e-05,0.2497888764780067,0.004136684106069626,0.9999371933574169,-0.0053054037371678435,0.008691170399846754,0.44935325026891904,0.0006148138657403164,0.24996017971901913,0.023815566244218603,0.9995447122731428,-0.011374102256271175,0.014456945560199337,0.04804230445937629,-1.1229224242525242,-0.7687929536228479,0.7224483751014017,0.13025202624951365,0.3717633423377178,-0.09382640825516861,-0.19417297055111757,0.09632714101821756,-2.510946536568343,0.014409008264101441,2.334934719383607,0.7872388153277237
0.44972620858300605,8.023667009403291e-05,0.24978752274823293,0.004302357690447978,0.9999374618154062,-0.005126507167877146,0.00868721338192942,0.44935325026891904,0.0006148138657403164,0.24996017971901913,0.023815566244218603,0.9995447122731428,-0.011374102256271175,0.014456945560199337,0.036789354078551724,-1.1635754245860035,-0.7602717777126052,0.7419521975331835,0.12454091063152106,0.3845806189242531,-0.0938246562226496,-0.19416458161393066,0.09639170670978466,-2.510944367439041,0.014056785201411386,2.334932195489349,0.7872570033421015
0.44972612528440814,8.03559125757686e-05,0.24978851515892622,0.004470761424412287,0.9999375847208865,-0.004955648254840354,0.008687179584431088,0.44935325026891904,0.0006148138657403164,0.24996017971901913,0.023815566244218603,0.9995447122731428,-0.011374102256271175,0.014456945560199337,0.03970979946929636,-1.1579185236021776,-0.7848664598825751,0.7423533307893124,0.12709777561655894,0.38414999052639737,-0.09381613625779167,-0.19417038673266965,0.0964477001668291,-2.5109418271331005,0.013778112981772393,2.3349298622608146,0.7872807486814242
0.4497250809045898,8.269173568834568e-05,0.24978451405471297,0.004560251572858509,0.9999375739261958,-0.00488306012014761,0.008683010272867686,0.44952151267405577,0.000630979827837622,0.249956515616741,0.023470377524042723,0.9995794963014514,-0.012253219662215313,0.01161968236207531,0.051076612942895165,-1.130275552855207,-0.7642602161341577,0.751615269658002,0.12450544368225634,0.39295929994606305,-0.09380834180151511,-0.19417011004803478,0.09656649809342661,-2.5109434748932493,0.013164683321710152,2.3349313815365638,0.787337184428541
0.4497256814382166,8.780442630511134e-05,0.24978455489101062,0.004601054866991801,0.9999375258705316,-0.0048566475677639265,0.008681832353904505,0.44952151267405577,0.000630979827837622,0.249956515616741,0.023470377524042723,0.9995794963014514,-0.012253219662215313,0.01161968236207531,-0.0003073232780075857,-1.2100167549545606,-0.750944056209962,0.760389505034648,0.10170702371884542,0.39763431656899406,-0.09380285828015741,-0.19416656483403044,0.09659907532372745,-2.5109409437471553,0.013012496074798324,2.3349304197008505,0.7873956807167902
