platonics-delft/platonics_dataset/execution_data/data_trial4.csv
current_pos_x,current_pos_y,current_pos_z,current_orientation_w,current_orientation_x,current_orientation_y,current_orientation_z,goal_pos_x,goal_pos_y,goal_pos_z,goal_orientation_w,goal_orientation_x,goal_orientation_y,goal_orientation_z,force_x,force_y,force_z,torque_x,torque_y,torque_z,joint_1,joint_2,joint_3,joint_4,joint_5,joint_6,joint_7
0.44974544482298534,4.356043746557851e-05,0.24992158603035677,0.0009458532843756291,0.9999910980598123,0.0006831607434597003,0.0034101545392673242,0.449652474094347,-6.686971161308703e-05,0.25058546872332915,0.003561985496468385,1.0000024343974339,0.00549030238809579,-0.0006597329506586192,-0.06406316212279156,0.23597957723390262,-1.0852097327029764,-0.028026899392130506,0.014724461963467344,-0.2506022262444386,-0.09436792250711223,-0.18946526140452613,0.09489346766041407,-2.502759944307328,0.021823812332171167,2.3208321064024817,0.7681034886352615
0.44974927636518036,4.4020892269087394e-05,0.24992488085742734,0.0009452839890808016,0.9999910761296088,0.0006842594026501554,0.0034165169804010716,0.449652474094347,-6.686971161308703e-05,0.25058546872332915,0.003561985496468385,1.0000024343974339,0.00549030238809579,-0.0006597329506586192,-0.10258973023857998,0.2526341530871887,-1.1313002685221691,-0.026009308972382624,0.01408907198294569,-0.24630284636237915,-0.09437492383572295,-0.1894652227824538,0.09489560263192132,-2.5027606621777116,0.021823087003089083,2.3208326421289085,0.7681052567144758
0.4497488599252868,4.3153598524095504e-05,0.24992477760251164,0.0009477032820747318,0.9999910764412798,0.000686858876974128,0.003415233673716273,0.449652474094347,-6.686971161308703e-05,0.25058546872332915,0.003561985496468385,1.0000024343974339,0.00549030238809579,-0.0006597329506586192,-0.055043726454150975,0.254332041944731,-1.0848032352168278,-0.018703752639764645,0.014911670382279434,-0.24161675870422827,-0.0943811010580672,-0.18946282741121287,0.09490088834922501,-2.502756817377291,0.021823333279896225,2.32083385467657,0.768103333374356
0.4497467541653597,4.3249105661842827e-05,0.24992260370211672,0.0009478012357478729,0.9999910834870548,0.0006904600848780134,0.0034124161402798803,0.449652474094347,-6.686971161308703e-05,0.25058546872332915,0.003561985496468385,1.0000024343974339,0.00549030238809579,-0.0006597329506586192,-0.055598018615154045,0.1934959974809457,-1.1057874632563345,-0.023392726434755873,0.0191300830395592,-0.25630502775604225,-0.09437862972294925,-0.18946810858998592,0.09489582924223698,-2.5027522938952087,0.02181973288315559,2.32083431438322,0.7681028437510123
0.4497470320899388,4.4461526071766925e-05,0.24992311782388835,0.0009474169014860528,0.9999910839867491,0.0006912495581762085,0.0034122165968576076,0.449652474094347,-6.686971161308703e-05,0.25058546872332915,0.003561985496468385,1.0000024343974339,0.00549030238809579,-0.0006597329506586192,-0.05822857771178851,0.2648075639033337,-1.0192107100502303,-0.027024474429589992,0.009215414922112367,-0.24736702985924114,-0.09437568858331974,-0.1894649053529292,0.09489815033658897,-2.502755372166733,0.02181533677605018,2.3208315822568273,0.7680955813472439
0.4497471950794617,4.48389822326272e-05,0.24992326233300402,0.0009490941259387854,0.9999910813413562,0.0006914783759902033,0.003412479388012785,0.449652474094347,-6.686971161308703e-05,0.25058546872332915,0.003561985496468385,1.0000024343974339,0.00549030238809579,-0.0006597329506586192,-0.062149850209093735,0.2302121418314418,-1.1201595266871442,-0.019003448007831727,0.019644936010904373,-0.24471622815605246,-0.09437319396162168,-0.1894677666968968,0.0948955676257569,-2.5027582812973552,0.021818404552226302,2.3208282851100783,0.7680907472069808
0.44974527805956493,4.2487015329237644e-05,0.24992062541148471,0.0009488869110120294,0.9999910973438386,0.0006887435890906848,0.0034083982770553812,0.449652474094347,-6.686971161308703e-05,0.25058546872332915,0.003561985496468385,1.0000024343974339,0.00549030238809579,-0.0006597329506586192,-0.05168281428490329,0.20427310824867265,-1.0829831686837872,-0.016396457137776526,0.017005678808450688,-0.24591758382120435,-0.09437798025210961,-0.18946247664424323,0.09489560263198717,-2.5027550462476547,0.021814949550087705,2.3208272851606027,0.7680885717845148
0.4497469911244346,4.408372496481603e-05,0.24992321249976948,0.0009494205039139582,0.9999910823813586,0.0006919329189482185,0.00341199166633674,0.449652474094347,-6.686971161308703e-05,0.25058546872332915,0.003561985496468385,1.0000024343974339,0.00549030238809579,-0.0006597329506586192,-0.08304767596148681,0.23933316563518411,-1.0985641766285639,-0.022797241089692197,0.015031386663456433,-0.24694083480233409,-0.09437568857777057,-0.18946526235124742,0.09489560263197071,-2.5027550861956156,0.02181254365809228,2.3208311703437063,0.7680903983309499
0.44974766506401986,4.345415967460317e-05,0.24992500805977277,0.0009509927185484574,0.9999910748158817,0.0006955849369644647,0.0034130283953750055,0.449652474094347,-6.686971161308703e-05,0.25058546872332915,0.003561985496468385,1.0000024343974339,0.00549030238809579,-0.0006597329506586192,-0.08633949030046362,0.22800823614082874,-1.094648589396084,-0.016734411680814108,0.01383466611144419,-0.24259252368110198,-0.0943747555638912,-0.18946557697523192,0.09489559388343101,-2.502755467476203,0.021813814589687185,2.3208283858956165,0.7681001087303607
0.4497457655486799,4.0992242790691967e-05,0.24992174543931367,0.0009511123233294929,0.999991088358584,0.0006903328396176188,0.0034100922530163275,0.449652474094347,-6.686971161308703e-05,0.25058546872332915,0.003561985496468385,1.0000024343974339,0.00549030238809579,-0.0006597329506586192,-0.08426547329993797,0.21966568573328288,-1.1045941479123484,-0.015398326628753367,0.013975433714840169,-0.2394341123383898,-0.09437568847461753,-0.1894678746438021,0.09489307062038237,-2.5027575656068977,0.021809826003223256,2.3208289772747905,0.7680932523677635
0.44974592437216443,4.10005219733894e-05,0.24992136804374054,0.0009510717008261969,0.9999910867581471,0.0006931233370558417,0.0034100068535508257,0.449652474094347,-6.686971161308703e-05,0.25058546872332915,0.003561985496468385,1.0000024343974339,0.00549030238809579,-0.0006597329506586192,-0.06086065041289307,0.21697251114700905,-1.1534628216415599,-0.0192014655311745,0.023373112652394088,-0.24668686680010093,-0.09437293089153229,-0.18946558708287514,0.09489560230781843,-2.502752522442931,0.02181014731007185,2.3208326418929626,0.7680941768167519
0.449746303500619,4.244821109055173e-05,0.24992309683037015,0.0009504209887805875,0.9999910871130798,0.0006920381349562578,0.003410304589576923,0.449652474094347,-6.686971161308703e-05,0.25058546872332915,0.003561985496468385,1.0000024343974339,0.00549030238809579,-0.0006597329506586192,-0.09141156277301334,0.21674959799410543,-1.0742167820874153,-0.01491607469954371,0.009287602016217644,-0.23972076198748607,-0.0943757149514397,-0.18946339651889452,0.09489560263197071,-2.5027571930290122,0.02180881885532701,2.3208319298152444,0.7680913459587054
0.44974535039662145,3.9669398508230324e-05,0.24992251846456426,0.0009519101917478975,0.9999910857646153,0.0006917389248924193,0.003410345346666799,0.449652474094347,-6.686971161308703e-05,0.25058546872332915,0.003561985496468385,1.0000024343974339,0.00549030238809579,-0.0006597329506586192,-0.0824815473271336,0.21122099337373793,-1.0977908005951467,-0.010793559177168791,0.012424147352219365,-0.2341480725112093,-0.09437608740518562,-0.1894656066053293,0.09489732809250234,-2.502755338475758,0.02180557089786319,2.320833412028711,0.7680969224269176
0.4497467556725752,4.099839450510642e-05,0.24992461981684302,0.0009524165509549055,0.9999910783475551,0.0006936901330014815,0.0034119820961800965,0.449652474094347,-6.686971161308703e-05,0.25058546872332915,0.003561985496468385,1.0000024343974339,0.00549030238809579,-0.0006597329506586192,-0.08376439229558423,0.1861218422439539,-1.1255960103058436,-0.009139573941819946,0.015172518254823627,-0.2318920081551115,-0.09437928165375561,-0.1894655477265488,0.09489814950866747,-2.502757919718198,0.021808409307192304,2.320830957030004,0.7680890346523496
0.44974657185273453,4.2057310525320986e-05,0.24992303981425018,0.0009518082909848295,0.9999910814733762,0.000694983027894182,0.003410972454454256,0.449652474094347,-6.686971161308703e-05,0.25058546872332915,0.003561985496468385,1.0000024343974339,0.00549030238809579,-0.0006597329506586192,-0.060986280965831745,0.21989280525609675,-1.0926147290931152,-0.01396929088365745,0.01485751655912359,-0.2348587507438878,-0.09437293089168175,-0.18946494713643533,0.09489561129164298,-2.5027522455723528,0.021805467219873517,2.3208330835675617,0.7680963302768941
0.4497456547703437,4.022878385389007e-05,0.24992197261069696,0.0009523272888775318,0.9999910860160417,0.0006919323935379909,0.00341011591954693,0.449652474094347,-6.686971161308703e-05,0.25058546872332915,0.003561985496468385,1.0000024343974339,0.00549030238809579,-0.0006597329506586192,-0.07262714110234676,0.22578725421364146,-1.0937473353609477,-0.017728188851275323,0.013973232250811518,-0.2348179829742096,-0.09437571491531953,-0.18946844589520528,0.09489805680411158,-2.502754778711419,0.02180442674497493,2.3208322695979207,0.7680921799034294
0.44974724337855515,4.1762577205374694e-05,0.24992481910793024,0.0009532012361607963,0.999991076126673,0.0006956324152714264,0.0034120184304437112,0.449652474094347,-6.686971161308703e-05,0.25058546872332915,0.003561985496468385,1.0000024343974339,0.00549030238809579,-0.0006597329506586192,-0.04937163107280669,0.18852502167593285,-1.063431914134644,-0.007585096612094535,0.014571263649815243,-0.22957619382752725,-0.094370831577944,-0.18946322098800628,0.09489252168834375,-2.5027521906412855,0.021804759519533253,2.320830594278415,0.7680942831749068
0.4497452012059308,4.1738920396597396e-05,0.24992156756292108,0.0009538156689281059,0.9999910879388713,0.0006932040927880874,0.003408877587921483,0.449652474094347,-6.686971161308703e-05,0.25058546872332915,0.003561985496468385,1.0000024343974339,0.00549030238809579,-0.0006597329506586192,-0.07121443207385346,0.17135618939165612,-1.0980736320174707,-0.008440255143229691,0.015764935913531442,-0.2384168445452429,-0.09437364118452471,-0.18946492074614377,0.09489560263198717,-2.5027547787599476,0.02180607756445574,2.3208314448943628,0.7680986087004283
0.44974697849391065,4.3890371421537794e-05,0.2499237095223103,0.0009541703173901236,0.9999910728167365,0.0006991757744435027,0.0034119933844377554,0.449652474094347,-6.686971161308703e-05,0.25058546872332915,0.003561985496468385,1.0000024343974339,0.00549030238809579,-0.0006597329506586192,-0.06827970018348534,0.23177048343499534,-1.090932887561074,-0.023158014585346044,0.015653561102868443,-0.25387131993508816,-0.09437354282121749,-0.1894625123515777,0.0948958393950302,-2.5027546962935006,0.021802363228662292,2.320831400213089,0.7680960943025178
0.4497462625465215,4.353147513306599e-05,0.24992399282275277,0.0009562556734015659,0.9999910746404194,0.0006985687107876014,0.003410999285843716,0.449652474094347,-6.686971161308703e-05,0.25058546872332915,0.003561985496468385,1.0000024343974339,0.00549030238809579,-0.0006597329506586192,-0.06672966591659314,0.23834664218173743,-1.0852443040576092,-0.022762726043210786,0.014035054255061338,-0.2504463207435785,-0.0943697271415783,-0.18946788057223335,0.09489309730298191,-2.5027545572872647,0.02179688405146844,2.320827891448747,0.7680906656918866
0.44974622363664674,4.238662235953435e-05,0.24992299987637703,0.0009563772452301025,0.9999910733046329,0.0007057202330499773,0.0034098844999088536,0.449652474094347,-6.686971161308703e-05,0.25058546872332915,0.003561985496468385,1.0000024343974339,0.00549030238809579,-0.0006597329506586192,-0.06907497592385214,0.2330336812302286,-1.0887591320425556,-0.026455724731765863,0.014236913401740789,-0.2542373556155626,-0.09436972292011925,-0.18946460583457547,0.09489560263197071,-2.502752273363968,0.021794994825546064,2.32082634764181,0.7680877194439478
0.4497454982827392,4.296911537011363e-05,0.24992226240480958,0.000958449018147937,0.9999910728285095,0.0007065125583890226,0.0034092782964667027,0.449652474094347,-6.686971161308703e-05,0.25058546872332915,0.003561985496468385,1.0000024343974339,0.00549030238809579,-0.0006597329506586192,-0.08436774341913807,0.22127615185685634,-1.1168980313594064,-0.024664396204528552,0.01668636495138061,-0.25443724613791013,-0.09436745786480256,-0.18946282984181187,0.09489560263198717,-2.502754531571389,0.021791328325164658,2.320827873521381,0.768081944882245
0.449747380045142,4.152828131763397e-05,0.24992488375513142,0.0009586191276908906,0.9999910624441974,0.0007064921173186412,0.0034122792548654025,0.449652474094347,-6.686971161308703e-05,0.25058546872332915,0.003561985496468385,1.0000024343974339,0.00549030238809579,-0.0006597329506586192,-0.052992753620534815,0.25242544829435937,-1.0603384705246623,-0.026653988769386083,0.014715312915561062,-0.2523774419502232,-0.09436402508115863,-0.18946600893526572,0.0948984717889659,-2.5027517842525513,0.021785462899331438,2.320827161444561,0.7680851199981216
0.44974760078404136,4.019554094591109e-05,0.24992552070073815,0.0009601032428616035,0.9999910623361868,0.0007026167946732608,0.003412693790160786,0.449652474094347,-6.686971161308703e-05,0.25058546872332915,0.003561985496468385,1.0000024343974339,0.00549030238809579,-0.0006597329506586192,-0.07636264905414676,0.20617066959517352,-1.086139156677962,-0.011794694895684917,0.014786872234942156,-0.23708649120138567,-0.09437038033573214,-0.18946844974742974,0.09489560248442334,-2.5027547785969713,0.021789382894968862,2.320827165805209,0.768085506935376
0.4497474815209969,4.436854124112724e-05,0.2499244538946404,0.0009603918448331836,0.9999910576126266,0.0007117579375395897,0.0034121023752116436,0.449652474094347,-6.686971161308703e-05,0.25058546872332915,0.003561985496468385,1.0000024343974339,0.00549030238809579,-0.0006597329506586192,-0.0489239458610563,0.20067336815406367,-1.0766498105020201,-0.01315879884640766,0.016881076306332222,-0.24200472708993673,-0.09437182185604609,-0.18946565372919985,0.09489847439373568,-2.5027545314625166,0.021786159746029127,2.320827161444561,0.768086381672914
0.44974752313716254,4.315196301296725e-05,0.24992552633993578,0.0009597202287071231,0.9999910573819242,0.0007101214286644728,0.0034126998882801703,0.449652474094347,-6.686971161308703e-05,0.25058546872332915,0.003561985496468385,1.0000024343974339,0.00549030238809579,-0.0006597329506586192,-0.07723601827861441,0.2533504522173108,-1.1205514542679662,-0.02484337453525138,0.0178537421209566,-0.24768787037381612,-0.09436416873295173,-0.18946776669696858,0.09489560263200368,-2.502752349592671,0.02178506409926801,2.3208278735134056,0.7680797773025976
0.4497463455570065,4.131563804482978e-05,0.24992360089855628,0.0009604943680040121,0.9999910663305875,0.0007088533526707994,0.003410122611224655,0.449652474094347,-6.686971161308703e-05,0.25058546872332915,0.003561985496468385,1.0000024343974339,0.00549030238809579,-0.0006597329506586192,-0.06949692015182725,0.2130302511582816,-1.0889189600943796,-0.017463557204151527,0.016160021678226926,-0.24366081176721707,-0.09437427589190285,-0.18946542670321026,0.09489815048074621,-2.5027547776518375,0.02178493114748326,2.3208271614445337,0.7680801375734608
0.44974628761003066,4.107849052943114e-05,0.24992187315190284,0.0009600795885542368,0.9999910680855795,0.0007101722253078784,0.0034094503021253946,0.449652474094347,-6.686971161308703e-05,0.25058546872332915,0.003561985496468385,1.0000024343974339,0.00549030238809579,-0.0006597329506586192,-0.07574131684108705,0.20718008457455345,-1.0950545028827432,-0.012589544811495294,0.014709475317161033,-0.23665029425386683,-0.09436152379959263,-0.1894654973066137,0.09489309683375059,-2.5027568459380145,0.021785777033099932,2.3208267544504073,0.7680849972563725
0.4497466735135424,4.325989664562473e-05,0.24992431739212576,0.0009628279462436891,0.9999910513043787,0.0007185291160032758,0.003411845405086376,0.449652474094347,-6.686971161308703e-05,0.25058546872332915,0.003561985496468385,1.0000024343974339,0.00549030238809579,-0.0006597329506586192,-0.06826645398731336,0.218103055179353,-1.0974916663611243,-0.014142403901345406,0.014596293136487718,-0.23230944206215692,-0.09437067607640622,-0.18947068140669987,0.09489797907253089,-2.5027575351844726,0.021780427601806644,2.3208286873234645,0.7680818510274618
0.44974544694050606,4.542355113391486e-05,0.24992166515818218,0.0009611691404089464,0.9999910633315731,0.0007244058327047325,0.0034075426147265405,0.449652474094347,-6.686971161308703e-05,0.25058546872332915,0.003561985496468385,1.0000024343974339,0.00549030238809579,-0.0006597329506586192,-0.06718833728542938,0.16758785090044145,-1.0985594196307935,-0.017439518089309262,0.015668942246819122,-0.24913353147060863,-0.09436866176246055,-0.18946632395658672,0.09489838669176244,-2.50275450285848,0.02178065464291494,2.320827860439418,0.7680705718954842
0.4497462274569662,4.1034083276049936e-05,0.2499248300979557,0.0009635325309716432,0.9999910506997319,0.0007203489892698635,0.0034114399420315067,0.449652474094347,-6.686971161308703e-05,0.25058546872332915,0.003561985496468385,1.0000024343974339,0.00549030238809579,-0.0006597329506586192,-0.07650536370207878,0.22921067276333495,-1.0948398239656338,-0.018897679353356796,0.014583446949526029,-0.24365455316162707,-0.0943686346243278,-0.18946008939510078,0.09489380726689546,-2.502754659650614,0.021776500400979393,2.3208263461888423,0.7680649163541141
0.449746449390216,4.55236856368013e-05,0.2499242985412163,0.0009633350799976739,0.999991044190035,0.0007293344884706586,0.0034114946907360423,0.449652474094347,-6.686971161308703e-05,0.25058546872332915,0.003561985496468385,1.0000024343974339,0.00549030238809579,-0.0006597329506586192,-0.07147031842751665,0.2158831488357218,-1.0979119933335795,-0.01691494928863259,0.01584087532851213,-0.24068091605874475,-0.0943641298484828,-0.1894656920395525,0.09490051803091488,-2.502749704924899,0.021780135567212675,2.320827161282385,0.7680637976063625
0.44974305978216994,4.59759795001606e-05,0.24991684323446067,0.0009651455331086327,0.9999910740531921,0.0007278346731351084,0.003402537922793764,0.449652474094347,-6.686971161308703e-05,0.25058546872332915,0.003561985496468385,1.0000024343974339,0.00549030238809579,-0.0006597329506586192,-0.0596591308601959,0.18949890254528964,-1.0625571130366818,-0.010700829700933638,0.0127068201229447,-0.2472513131041973,-0.09436612605419333,-0.1894652610566632,0.09489563772015618,-2.502747910200357,0.0217758738348964,2.320822643433849,0.7680641579040675
0.44974717156703475,4.241272915444489e-05,0.24992333680557977,0.000963563983557928,0.9999910542062921,0.0007215948999262767,0.003410139625633217,0.449652474094347,-6.686971161308703e-05,0.25058546872332915,0.003561985496468385,1.0000024343974339,0.00549030238809579,-0.0006597329506586192,-0.08540807764393518,0.22556059835503658,-1.1252271786279242,-0.021890595468729998,0.01675089721190704,-0.2475333432415445,-0.09436612609421413,-0.18946604841449607,0.09489560263599944,-2.5027575889023908,0.021775092432806918,2.3208255778562865,0.7680630836328042
0.44974875156580085,4.5029849140129825e-05,0.2499267590910247,0.0009653548995097744,0.9999910320728163,0.0007305161641571527,0.00341422166258306,0.449652474094347,-6.686971161308703e-05,0.25058546872332915,0.003561985496468385,1.0000024343974339,0.00549030238809579,-0.0006597329506586192,-0.06636601825875263,0.2103783702903573,-1.0925844716679058,-0.016942223166683184,0.014080542657193912,-0.24378841525090567,-0.09436684635394574,-0.18946844661495715,0.09490122785850913,-2.5027549951604318,0.021775046770228672,2.3208278734646655,0.768059753782873
0.4497465409195033,4.2048174851974914e-05,0.24992537739716963,0.000963928068044425,0.99999104475008,0.0007232180010620546,0.0034124650419690506,0.449652474094347,-6.686971161308703e-05,0.25058546872332915,0.003561985496468385,1.0000024343974339,0.00549030238809579,-0.0006597329506586192,-0.06954068154087624,0.20977848850695013,-1.0962874340273456,-0.012661147538193538,0.013988917812254498,-0.23803820557567346,-0.09436337116074943,-0.18946813447540867,0.0948986234546405,-2.502749790053965,0.02177479372976929,2.3208266364974772,0.7680634170056061
0.4497469692273753,4.2439628252080836e-05,0.24992723256102944,0.0009636959090781072,0.9999910416160827,0.0007249790473923425,0.0034130752646480346,0.449652474094347,-6.686971161308703e-05,0.25058546872332915,0.003561985496468385,1.0000024343974339,0.00549030238809579,-0.0006597329506586192,-0.06142467728865746,0.20819469341008698,-1.091181871255007,-0.013514664398063618,0.015527537916426757,-0.2380596781498633,-0.09436934044914877,-0.18946484314318968,0.0948977598050427,-2.502753786608477,0.02177511263942151,2.3208266335897387,0.7680619804650856
0.44974563988741545,4.306136683658335e-05,0.24992463211788893,0.0009654315323266597,0.9999910505004601,0.0007245657532256487,0.003410068183941245,0.449652474094347,-6.686971161308703e-05,0.25058546872332915,0.003561985496468385,1.0000024343974339,0.00549030238809579,-0.0006597329506586192,-0.08370260447314463,0.20723795501884448,-1.0366234460293469,-0.01653442993041,0.006705562543665032,-0.24147856667696627,-0.09436154497381735,-0.18946218874778858,0.0948958423218976,-2.502752235358966,0.021772541541217657,2.3208228007317837,0.7680662809048473
0.449744085200172,4.334761651764177e-05,0.24992230661971102,0.0009637753887210011,0.9999910618576527,0.0007255536729287864,0.0034069947566933347,0.449652474094347,-6.686971161308703e-05,0.25058546872332915,0.003561985496468385,1.0000024343974339,0.00549030238809579,-0.0006597329506586192,-0.0737892631402769,0.19842631348523213,-1.1018012185282542,-0.014621334253338527,0.015840054650139566,-0.24065415590489933,-0.0943661523358815,-0.18946620978089304,0.09489309741183516,-2.502754033567523,0.02177107939231318,2.32082431141136,0.768066648874424
0.4497443152977383,4.1701645925031174e-05,0.24992162237519366,0.0009651304711796482,0.9999910652131785,0.000725736844961211,0.0034055869710423233,0.449652474094347,-6.686971161308703e-05,0.25058546872332915,0.003561985496468385,1.0000024343974339,0.00549030238809579,-0.0006597329506586192,-0.08521395821173575,0.20238660958125754,-1.0545469178300506,-0.016046379507536877,0.009212877069591093,-0.23835457737800664,-0.09436609552556413,-0.18946247829608304,0.09489593047831761,-2.502754778696979,0.021774670298221006,2.3208245124037457,0.7680620204926971
0.4497447367101249,4.3154161756714835e-05,0.24992452263324022,0.0009659557217120096,0.9999910548544749,0.0007281809356861896,0.0034078721638488596,0.449652474094347,-6.686971161308703e-05,0.25058546872332915,0.003561985496468385,1.0000024343974339,0.00549030238809579,-0.0006597329506586192,-0.07620653214113204,0.1985399428113257,-1.0690950635049004,-0.019091272799813028,0.01068724237638334,-0.2453440491961173,-0.0943633379888627,-0.1894662059950197,0.09489309712706062,-2.502757559720165,0.021771791408988803,2.3208219324829376,0.7680658451104884
0.4497456177113508,4.054260660095415e-05,0.2499244632307173,0.0009650329648280422,0.9999910570534289,0.0007247986546903159,0.00340820936245875,0.449652474094347,-6.686971161308703e-05,0.25058546872332915,0.003561985496468385,1.0000024343974339,0.00549030238809579,-0.0006597329506586192,-0.05424111144067896,0.18265810085561246,-1.100035108575316,-0.020023528124417583,0.019561408565768598,-0.2428250443936586,-0.09436334199889762,-0.1894624779554151,0.09489571111353087,-2.5027554675118435,0.02177107938627371,2.3208176378015373,0.76805933193387
0.44974358483137444,4.2743894200181396e-05,0.24991996614854828,0.000964806849939085,0.9999910697937152,0.0007262447534165112,0.0034042251272393006,0.449652474094347,-6.686971161308703e-05,0.25058546872332915,0.003561985496468385,1.0000024343974339,0.00549030238809579,-0.0006597329506586192,-0.06789580481775236,0.2139049299706958,-1.0916643751045163,-0.017923126701856865,0.016586023516962454,-0.2385520660985167,-0.09436617652644799,-0.18946272197941424,0.09489839582566524,-2.502753789699699,0.021770469034712435,2.320823105143078,0.7680647507839455
0.4497447189907437,4.197368361321157e-05,0.2499221348896647,0.000964836468117972,0.9999910666614219,0.0007275952818251093,0.003404848400933755,0.449652474094347,-6.686971161308703e-05,0.25058546872332915,0.003561985496468385,1.0000024343974339,0.00549030238809579,-0.0006597329506586192,-0.07193398002407679,0.18545958015287264,-1.087189386469649,-0.012856837208838113,0.015588843425973784,-0.23276748297745403,-0.09436428683845216,-0.18946255605642628,0.0948958432922133,-2.502757534238325,0.021771196289421795,2.320822045492961,0.7680623043362644
0.4497466268736427,4.319066615495187e-05,0.2499242896574548,0.0009647106563767334,0.9999910558529793,0.0007244353853929208,0.003408730023585616,0.449652474094347,-6.686971161308703e-05,0.25058546872332915,0.003561985496468385,1.0000024343974339,0.00549030238809579,-0.0006597329506586192,-0.06633695053540484,0.1534550469212031,-1.0921960833710371,-0.005727963673438684,0.017412547251873727,-0.23284725302246162,-0.09436086292235796,-0.18946526136896488,0.09490051766740891,-2.5027550081359093,0.021771094001267505,2.320819409277106,0.7680590311742874
0.4497451397017748,4.295282991051836e-05,0.24992195878735243,0.0009666214270934148,0.999991063508186,0.0007272438911715575,0.003405343256560907,0.449652474094347,-6.686971161308703e-05,0.25058546872332915,0.003561985496468385,1.0000024343974339,0.00549030238809579,-0.0006597329506586192,-0.09048911263246162,0.2222554044918838,-1.0713065646303181,-0.0149257211917575,0.009763711592095879,-0.23633550560208264,-0.0943633420065195,-0.18946557613714787,0.0949016037181246,-2.50275216282632,0.021770113378372515,2.320822020477525,0.7680622476460292
0.44974312401715233,4.360815495521595e-05,0.24992218011982642,0.000967158973348597,0.9999910620163267,0.0007322978307830279,0.0034045455525458347,0.449652474094347,-6.686971161308703e-05,0.25058546872332915,0.003561985496468385,1.0000024343974339,0.00549030238809579,-0.0006597329506586192,-0.09074484236787772,0.21572961086379355,-1.0548636030375202,-0.02038809897197943,0.008575679285289791,-0.24199169795836933,-0.09436334307452147,-0.18946502273264088,0.09489838669189465,-2.502757639337302,0.021768576534529776,2.3208176421626807,0.768057586978291
0.4497440769594786,4.222592469343517e-05,0.24992228408633108,0.0009675454198884958,0.9999910623392784,0.0007304378952697373,0.0034047404407886992,0.449652474094347,-6.686971161308703e-05,0.25058546872332915,0.003561985496468385,1.0000024343974339,0.00549030238809579,-0.0006597329506586192,-0.06108543428472288,0.1887481853660128,-1.150384166081378,-0.010068261724233796,0.02207009702019708,-0.2338655330750135,-0.09436461639801633,-0.18946803778732818,0.0949009220098893,-2.5027521843473366,0.021765671847726077,2.3208176241987104,0.7680577085856881
0.4497458838092678,4.4707430910486313e-05,0.2499249616333545,0.0009673059680521672,0.9999910499910747,0.0007305113137407188,0.0034084174770829924,0.449652474094347,-6.686971161308703e-05,0.25058546872332915,0.003561985496468385,1.0000024343974339,0.00549030238809579,-0.0006597329506586192,-0.0741762281831816,0.22261209029516965,-1.0848080308354842,-0.01696310861881153,0.014415750017798925,-0.23976768909530916,-0.09436091604993535,-0.18946741742002496,0.09490091962818717,-2.5027504412224095,0.021762926109368273,2.320816811063031,0.7680626404605139
0.449747359111992,4.171598610401811e-05,0.24992560656901433,0.0009686726465051479,0.9999910475239815,0.0007311992403541453,0.003408605642457309,0.449652474094347,-6.686971161308703e-05,0.25058546872332915,0.003561985496468385,1.0000024343974339,0.00549030238809579,-0.0006597329506586192,-0.09004942334834412,0.21395869035189166,-1.0579968673449844,-0.02357320890342905,0.010804274150668557,-0.2426511923263675,-0.09436612605421167,-0.18946103427911876,0.09489849484448064,-2.5027541932434088,0.021764747786386575,2.3208176639472513,0.7680621785823845
0.4497428327589053,4.1541493977408925e-05,0.24991876349829753,0.0009676093502048134,0.9999910734109401,0.0007315498095782991,0.0034012299268785474,0.449652474094347,-6.686971161308703e-05,0.25058546872332915,0.003561985496468385,1.0000024343974339,0.00549030238809579,-0.0006597329506586192,-0.060867903810645364,0.21170616916128493,-1.0948964282735372,-0.018381909723188723,0.015533563979302419,-0.23909261499062104,-0.09436616439798177,-0.18946561535963877,0.09489568188354582,-2.502748071352618,0.021762005358010837,2.3208159570765745,0.768061113454677
0.4497476804685317,4.430351916263956e-05,0.24992616575275575,0.0009685983664977629,0.9999910437427326,0.000731964638006903,0.0034095716517727965,0.449652474094347,-6.686971161308703e-05,0.25058546872332915,0.003561985496468385,1.0000024343974339,0.00549030238809579,-0.0006597329506586192,-0.0812921825432044,0.2605339297619609,-1.0991546158717331,-0.02624030483338956,0.01347437257230294,-0.23969869564499255,-0.09436934077484826,-0.18946835900410797,0.09490052648767269,-2.502751440850984,0.021762204917693345,2.320816810845475,0.7680589862546058
0.44974666739054353,3.96539373785776e-05,0.2499255602094714,0.000968018671391226,0.9999910494844615,0.0007276695245661133,0.0034089716141028317,0.449652474094347,-6.686971161308703e-05,0.25058546872332915,0.003561985496468385,1.0000024343974339,0.00549030238809579,-0.0006597329506586192,-0.06457762700445534,0.2111992553692178,-1.098271578792154,-0.020275809953694768,0.01660375318711357,-0.2387464442870738,-0.09436692653098523,-0.18946739681944916,0.09490147338298004,-2.5027514408471188,0.021761544972003645,2.3208191505802973,0.7680588653755359
0.4497439280189203,4.217921620477642e-05,0.24992057982034385,0.000968279622883687,0.9999910742251149,0.0007290577724497843,0.0034013348869087784,0.449652474094347,-6.686971161308703e-05,0.25058546872332915,0.003561985496468385,1.0000024343974339,0.00549030238809579,-0.0006597329506586192,-0.0751039162570545,0.22085416746360548,-1.077319859057114,-0.02250953606903989,0.011582368763718931,-0.24308003481911045,-0.09436707105827069,-0.189465498266738,0.09490113315477844,-2.5027461501198194,0.02176230310075544,2.320815270401373,0.7680546534926049
0.44974581229464616,4.466255309515072e-05,0.24992464613835452,0.0009683408849445309,0.9999910493039826,0.0007318218989186931,0.003408044030633831,0.449652474094347,-6.686971161308703e-05,0.25058546872332915,0.003561985496468385,1.0000024343974339,0.00549030238809579,-0.0006597329506586192,-0.07008999457520833,0.22406554911879786,-1.1005834754766741,-0.021308686715475957,0.014850946841454708,-0.2434981747260096,-0.0943682519536532,-0.18946282805568135,0.09489584377343219,-2.5027432787189126,0.021762204428761454,2.3208156239431004,0.7680588071408834
0.44974747668453485,4.4384225914369874e-05,0.24992573059663026,0.0009691476691115002,0.9999910441916741,0.000734645240470421,0.0034087072546543206,0.449652474094347,-6.686971161308703e-05,0.25058546872332915,0.003561985496468385,1.0000024343974339,0.00549030238809579,-0.0006597329506586192,-0.08052318080167596,0.22526508263041728,-1.1236700491030436,-0.02082870691631454,0.016308818957635637,-0.24283415850287748,-0.09436897275729883,-0.18946321521493106,0.09490146786939996,-2.502754133336934,0.021761492351690927,2.320812061612305,0.7680594792376405
0.44974458596105976,4.3329015355935366e-05,0.24992090541478007,0.000970141367966921,0.9999910628691017,0.0007337918164104968,0.0034031245588811193,0.449652474094347,-6.686971161308703e-05,0.25058546872332915,0.003561985496468385,1.0000024343974339,0.00549030238809579,-0.0006597329506586192,-0.06001840086923063,0.22443447118566984,-1.0883685353719303,-0.02179313697457612,0.01441282467726984,-0.24312557557116268,-0.09436260252362698,-0.18947086513955047,0.09489879892705365,-2.5027541423425657,0.02176088053919687,2.3208182053099398,0.768055958848654
0.4497476599361218,4.7227913422490335e-05,0.24992670155833954,0.0009689993222595176,0.9999910431105429,0.000738024285630292,0.003408336642427378,0.449652474094347,-6.686971161308703e-05,0.25058546872332915,0.003561985496468385,1.0000024343974339,0.00549030238809579,-0.0006597329506586192,-0.06841365791850477,0.21387652140349472,-1.0877300777304895,-0.021108081751350524,0.01502009882555248,-0.2429713105947823,-0.09436854840258116,-0.18946281509027627,0.09489879016204514,-2.502753977619784,0.02176115049213692,2.320812199733252,0.7680612490703871
0.4497443409300458,4.313403554024493e-05,0.24992211049678087,0.000970461137935715,0.9999910624378214,0.000733198660037189,0.003403287958508367,0.449652474094347,-6.686971161308703e-05,0.25058546872332915,0.003561985496468385,1.0000024343974339,0.00549030238809579,-0.0006597329506586192,-0.05591571326701247,0.20175786015636216,-1.082272269591711,-0.016085605615560113,0.015070482967349468,-0.23856485426156174,-0.09436331437498874,-0.18946280634581986,0.09490086977735505,-2.5027482331327087,0.02175794032139713,2.320815222094354,0.7680628892059042
0.4497445549499491,4.3632820701341405e-05,0.24992471160464622,0.0009687558648085508,0.9999910506938542,0.000734273001539115,0.0034069908973084944,0.449652474094347,-6.686971161308703e-05,0.25058546872332915,0.003561985496468385,1.0000024343974339,0.00549030238809579,-0.0006597329506586192,-0.0814561115381543,0.20663362271942992,-1.1208851215082667,-0.015897297941228784,0.01565409608132497,-0.23653419401570303,-0.09436325891599727,-0.189465261047183,0.0949015565354712,-2.5027546957863773,0.021762072457622406,2.3208135640639305,0.7680502525385722
0.44974317785419166,4.4548227680798356e-05,0.24991990138779885,0.0009688786170292594,0.9999910674940098,0.0007384983170026776,0.003401106608319097,0.449652474094347,-6.686971161308703e-05,0.25058546872332915,0.003561985496468385,1.0000024343974339,0.00549030238809579,-0.0006597329506586192,-0.04863487009721539,0.20989276388503625,-1.0965281172877588,-0.018432073502258672,0.017549108384004735,-0.24004345350649028,-0.09436251769673355,-0.1894653508839009,0.09489912756181748,-2.502750328596925,0.021760842500562698,2.3208146324622407,0.7680613314792377
0.44974498415781344,4.211646686030545e-05,0.2499241847531727,0.0009693596196334952,0.9999910554049884,0.0007315522851269687,0.0034060215438752707,0.449652474094347,-6.686971161308703e-05,0.25058546872332915,0.003561985496468385,1.0000024343974339,0.00549030238809579,-0.0006597329506586192,-0.04266024028984473,0.21916744350597858,-1.090889547482532,-0.014170369912583757,0.01870175937732425,-0.2352861473162246,-0.09435977090919598,-0.1894683672544056,0.09490149140352766,-2.502751172455089,0.021761690159894896,2.3208161661417055,0.7680525736396527
0.4497426183285894,4.343935995717605e-05,0.24992225770048335,0.0009703936593206782,0.9999910642464226,0.0007350514832570482,0.0034023759791557465,0.449652474094347,-6.686971161308703e-05,0.25058546872332915,0.003561985496468385,1.0000024343974339,0.00549030238809579,-0.0006597329506586192,-0.026699445227719616,0.21732128614264212,-1.078949551440494,-0.018532258113819245,0.0175296129249898,-0.2407749600891978,-0.09436014906938134,-0.189467455635673,0.09489877261811219,-2.5027525030611577,0.02175752699174451,2.320812510709231,0.7680635393398264
0.4497454888609456,4.412724597087712e-05,0.24992543359141897,0.0009705536769840092,0.9999910490413859,0.0007368308100076543,0.0034064119755324238,0.449652474094347,-6.686971161308703e-05,0.25058546872332915,0.003561985496468385,1.0000024343974339,0.00549030238809579,-0.0006597329506586192,-0.05834943496826132,0.21223562035814653,-1.096477702266994,-0.022968540252259403,0.016511167567968974,-0.24551978139756223,-0.09436601644195874,-0.18946350477668747,0.09490376029263582,-2.5027489362713773,0.021760138208021834,2.3208123851555182,0.7680585267798622
0.4497437009355048,4.479620942727478e-05,0.24992230274472282,0.0009694488335688485,0.9999910610485157,0.0007341913438694287,0.003403770649324132,0.449652474094347,-6.686971161308703e-05,0.25058546872332915,0.003561985496468385,1.0000024343974339,0.00549030238809579,-0.0006597329506586192,-0.05617763558640709,0.21622560171574778,-1.0905229338637046,-0.02510909990612501,0.016183538010952018,-0.24381444448883588,-0.09436293272765753,-0.18946739583919486,0.09489878967491913,-2.502754477852519,0.021756089637522465,2.3208128563118917,0.7680631826983637
0.4497426368351806,4.407365305342773e-05,0.24992072324993855,0.0009704386442515573,0.9999910720840768,0.0007349000245528462,0.0034000915377515634,0.449652474094347,-6.686971161308703e-05,0.25058546872332915,0.003561985496468385,1.0000024343974339,0.00549030238809579,-0.0006597329506586192,-0.07374411335222943,0.21599189834347182,-1.10063222623015,-0.023299771182790058,0.014230952827038663,-0.2426833711301627,-0.09436025193374924,-0.18946326467757443,0.09489848313849916,-2.5027514374582966,0.021757764862983142,2.320812817064016,0.7680593122941255
0.44974615357500314,4.2053472415720535e-05,0.24992501143703116,0.0009706029220138257,0.9999910534563607,0.0007324931205763653,0.003406037372896976,0.449652474094347,-6.686971161308703e-05,0.25058546872332915,0.003561985496468385,1.0000024343974339,0.00549030238809579,-0.0006597329506586192,-0.06519197265654254,0.19548345826295851,-1.094541152962022,-0.015456122341172685,0.015687901902007383,-0.23422555901188735,-0.09436604676013191,-0.18946495428073842,0.09490195485416152,-2.502751355369989,0.021756550087753124,2.3208143822087184,0.76805754340204
0.449743377196417,4.3878750184226624e-05,0.24992250601046603,0.0009690628142537338,0.9999910682177381,0.0007330517677729594,0.0034020194976946967,0.449652474094347,-6.686971161308703e-05,0.25058546872332915,0.003561985496468385,1.0000024343974339,0.00549030238809579,-0.0006597329506586192,-0.05140634392764937,0.19161446087793416,-1.0699513011776607,-0.012199198240908043,0.01552884578343755,-0.23213597711280243,-0.09436050069358903,-0.1894628269376494,0.09489621095214738,-2.5027489320948213,0.021756713130565004,2.3208128563298036,0.7680540172543535
0.44974372761796033,4.55700736534826e-05,0.24992292507977548,0.0009709379967474781,0.9999910610239745,0.0007390507200541519,0.0034023014402823366,0.449652474094347,-6.686971161308703e-05,0.25058546872332915,0.003561985496468385,1.0000024343974339,0.00549030238809579,-0.0006597329506586192,-0.035079334660119116,0.20421687275984,-1.131467551497803,-0.014929570970722814,0.02570875552694037,-0.23730908805895054,-0.09436622465465336,-0.1894603631048676,0.0948962655615858,-2.5027506987654595,0.02175598933906477,2.320812732760014,0.7680589768998776
0.4497451635529436,4.41660275302072e-05,0.2499243503499331,0.0009709537464593175,0.9999910548253504,0.0007353573907006371,0.0034049180819016255,0.449652474094347,-6.686971161308703e-05,0.25058546872332915,0.003561985496468385,1.0000024343974339,0.00549030238809579,-0.0006597329506586192,-0.08431767774766388,0.22448910353094442,-1.0808743957494356,-0.02393991658802769,0.012452572959051176,-0.24299354629922945,-0.09436231600245688,-0.18946851432182693,0.0948966648172362,-2.5027509250805533,0.021756220393242494,2.3208128170837066,0.7680607317259251
0.4497442039477968,4.50060836019258e-05,0.24992329479551162,0.0009716597748757089,0.999991055876568,0.0007381474099114841,0.003403804057436054,0.449652474094347,-6.686971161308703e-05,0.25058546872332915,0.003561985496468385,1.0000024343974339,0.00549030238809579,-0.0006597329506586192,-0.07583394977494624,0.2082735745220868,-1.0852093621055956,-0.0175268177514997,0.014065546017254174,-0.23836848714398035,-0.09436612308931208,-0.1894656110387222,0.09489870831809812,-2.502751357417062,0.02175568993555502,2.320808849077165,0.7680558703400154
0.44974362680493946,4.190234089895475e-05,0.2499216493500664,0.0009707669388621785,0.9999910666222495,0.000733822000836054,0.0034018365715755483,0.449652474094347,-6.686971161308703e-05,0.25058546872332915,0.003561985496468385,1.0000024343974339,0.00549030238809579,-0.0006597329506586192,-0.08179091673614829,0.1960539221073937,-1.0846037702335491,-0.012989148102041218,0.013750276722914873,-0.23310646878095231,-0.09436083637660628,-0.18945999854890527,0.0948987958458489,-2.5027489408776638,0.021754215380386924,2.3208114391162953,0.7680550202202375
0.449745784350946,4.4263949915851666e-05,0.24992448624709335,0.0009715537632622558,0.9999910478158289,0.0007392380399404143,0.0034059650775787086,0.449652474094347,-6.686971161308703e-05,0.25058546872332915,0.003561985496468385,1.0000024343974339,0.00549030238809579,-0.0006597329506586192,-0.061491983436778024,0.2028568582187344,-1.0813585002987545,-0.015515209828710822,0.014861989393006475,-0.23674321371669987,-0.09436515134376552,-0.18946566567174214,0.09489879888247992,-2.5027456286147722,0.021751861224821107,2.320811924784103,0.76805670532873
0.44974267442733584,4.0919171004437816e-05,0.2499214233358964,0.0009710942040690342,0.9999910686226651,0.0007338980581025258,0.0034011386518679326,0.449652474094347,-6.686971161308703e-05,0.25058546872332915,0.003561985496468385,1.0000024343974339,0.00549030238809579,-0.0006597329506586192,-0.05973054801962127,0.2151801127909777,-1.0898182493654094,-0.019163574723422228,0.014602806386419273,-0.23990894523652836,-0.09436515134376552,-0.18946566567174214,0.09489879888247992,-2.5027456286147722,0.021751861224821107,2.320811924784103,0.76805670532873
0.4497433605644381,4.4375195673351736e-05,0.24992066873142735,0.0009708591403488406,0.9999910707038743,0.0007383349915820107,0.003399633215418162,0.449652474094347,-6.686971161308703e-05,0.25058546872332915,0.003561985496468385,1.0000024343974339,0.00549030238809579,-0.0006597329506586192,-0.05151355203034591,0.2048103558941539,-1.0911815914534666,-0.018463820851272836,0.016462434417066046,-0.24204408105212413,-0.09436083617828919,-0.18946844697498022,0.09489846577110568,-2.502750671163555,0.02175735416953059,2.3208129286516037,0.768056792838611
0.4497443454586859,4.41530969677101e-05,0.2499242991883599,0.0009725020481882345,0.999991052958134,0.0007383082557790925,0.0034043859767643645,0.449652474094347,-6.686971161308703e-05,0.25058546872332915,0.003561985496468385,1.0000024343974339,0.00549030238809579,-0.0006597329506586192,-0.04969500303627727,0.24427903663823639,-1.068610519728937,-0.025590806246543776,0.015378019919532917,-0.2415664704790807,-0.09436328197513454,-0.18946342522961235,0.09489869271224359,-2.5027488583059903,0.02175332607513802,2.3208116658114575,0.7680601681173941
0.4497438443381519,4.30278841467037e-05,0.24992398809553557,0.0009720891435402763,0.9999910569859756,0.0007372233501425214,0.0034035557904296106,0.449652474094347,-6.686971161308703e-05,0.25058546872332915,0.003561985496468385,1.0000024343974339,0.00549030238809579,-0.0006597329506586192,-0.06647825713115404,0.1830227325229923,-1.093359574635408,-0.021284950616314947,0.014776078312785115,-0.24753498080701813,-0.09436309644501663,-0.18946281821308084,0.09489877154148195,-2.5027514408894445,0.021751905810291572,2.3208080884427464,0.7680556178332028
0.4497448829526468,4.2768475405720203e-05,0.24992402856166396,0.0009728022312154868,0.9999910569401175,0.0007378253954001726,0.0034032350499827845,0.449652474094347,-6.686971161308703e-05,0.25058546872332915,0.003561985496468385,1.0000024343974339,0.00549030238809579,-0.0006597329506586192,-0.03389946884165983,0.1929376850029219,-1.0289653310627258,-0.013737270752089116,0.013685523865021441,-0.24787768084229816,-0.09436014569537689,-0.1894655866093636,0.09489666806501229,-2.50274668235953,0.021751909918124306,2.320811384771915,0.7680585934196956
0.44974452303986795,4.332490280616422e-05,0.24992394053400238,0.0009728445370188478,0.9999910570873647,0.0007394963098674791,0.0034028169964639863,0.449652474094347,-6.686971161308703e-05,0.25058546872332915,0.003561985496468385,1.0000024343974339,0.00549030238809579,-0.0006597329506586192,-0.09850574916566583,0.24313338299600978,-1.0952082841134338,-0.02470311641248271,0.010461103483649675,-0.24482902910211346,-0.09436018077136116,-0.1894652737745634,0.09490087270169273,-2.502748936723577,0.021752617321451773,2.3208065599531644,0.7680582820521049
0.4497429486882097,4.434177261325906e-05,0.2499236872219451,0.000974548452567715,0.9999910529862713,0.0007420111101520557,0.003402987175767465,0.449652474094347,-6.686971161308703e-05,0.25058546872332915,0.003561985496468385,1.0000024343974339,0.00549030238809579,-0.0006597329506586192,-0.06554342139380466,0.21134847146784058,-1.0766538039303633,-0.023750979355294334,0.014312576558088125,-0.24447002897184056,-0.09436304763738759,-0.18946597874918336,0.09489875995373764,-2.5027515154670468,0.021748606466426162,2.3208103258601236,0.7680566233859188
0.44974364981488707,4.287686899145179e-05,0.24992421277071417,0.0009727029525700473,0.9999910599571711,0.0007398379838873563,0.0034019397344521246,0.449652474094347,-6.686971161308703e-05,0.25058546872332915,0.003561985496468385,1.0000024343974339,0.00549030238809579,-0.0006597329506586192,-0.05320076510415772,0.21018511654704505,-1.0702606796792768,-0.014823211586749235,0.015065144332531671,-0.23251570649392173,-0.09436401116874968,-0.18946258293813342,0.09489844826725181,-2.502751244325468,0.021750679558879122,2.3208045173170366,0.7680580787874614
0.4497442808385359,4.260711894681013e-05,0.24992523341097875,0.00097394786238166,0.9999910486518406,0.0007409043481713593,0.003404673551503496,0.449652474094347,-6.686971161308703e-05,0.25058546872332915,0.003561985496468385,1.0000024343974339,0.00549030238809579,-0.0006597329506586192,-0.08030476919356294,0.20698949415339946,-1.1152936014291546,-0.02124311222585529,0.015247171123631824,-0.2391861266966124,-0.09436120712088629,-0.18946526104316985,0.0948986923879438,-2.5027567319733572,0.02174748321974401,2.3208025072381893,0.7680575168878487
0.44974390704277056,4.2084646368439714e-05,0.24992345621176873,0.0009727495885926807,0.9999910622824331,0.0007380289959290498,0.0034016358127485643,0.449652474094347,-6.686971161308703e-05,0.25058546872332915,0.003561985496468385,1.0000024343974339,0.00549030238809579,-0.0006597329506586192,-0.061051989236973636,0.22290487454692334,-1.085684137201728,-0.02590184461315785,0.014280211923586169,-0.24463643438156416,-0.09436292975513558,-0.18946495718645553,0.09489856212005351,-2.5027511070975654,0.021746504955781624,2.320808442282233,0.7680573821155863
0.44974192305481775,4.246648741267656e-05,0.24992059686862478,0.0009735628143339474,0.9999910739908566,0.000739295032959742,0.0033976839784465407,0.449652474094347,-6.686971161308703e-05,0.25058546872332915,0.003561985496468385,1.0000024343974339,0.00549030238809579,-0.0006597329506586192,-0.051931756722677865,0.17603997250221828,-1.095903043661764,-0.01643530656737547,0.01707871053933546,-0.24252710757548585,-0.09436088565109382,-0.18946460581597832,0.09490146863300883,-2.502754249292961,0.02174650248633834,2.3208025072581613,0.7680527930101309
0.44974193409314217,4.412275835061316e-05,0.24992079021857758,0.0009735363919490558,0.9999910730608476,0.000742326346276311,0.003397304311590009,0.449652474094347,-6.686971161308703e-05,0.25058546872332915,0.003561985496468385,1.0000024343974339,0.00549030238809579,-0.0006597329506586192,-0.07027474558621491,0.18865024723827392,-1.096073272091398,-0.021208942855910882,0.016009533394275337,-0.2493635850479376,-0.09435764004158834,-0.1894625528129679,0.094901345867509,-2.5027497715703406,0.02174711092463637,2.3208029721888406,0.7680538936029964
0.4497441578079132,4.148318285504292e-05,0.24992570170423525,0.0009745487065604705,0.9999910536309937,0.0007389815962080709,0.003403456845574686,0.449652474094347,-6.686971161308703e-05,0.25058546872332915,0.003561985496468385,1.0000024343974339,0.00549030238809579,-0.0006597329506586192,-0.06870898509932202,0.22536706764689468,-1.0909781462695005,-0.025421902085711413,0.015581076129750663,-0.25155740738529203,-0.09436294939860021,-0.18946526979172115,0.09489880770535597,-2.5027542249110706,0.021747110868485468,2.3208040345705627,0.7680527204440206
0.44974223585781653,4.6894457161429415e-05,0.24992309250012143,0.0009762820352065308,0.9999910564288227,0.0007506056469818925,0.0033995920843414387,0.449652474094347,-6.686971161308703e-05,0.25058546872332915,0.003561985496468385,1.0000024343974339,0.00549030238809579,-0.0006597329506586192,-0.04229196720254607,0.20574570599593325,-1.070511660164166,-0.029821920316637697,0.014431508180937193,-0.2572928139951419,-0.09436234433764762,-0.18946750068673618,0.09489842414333108,-2.5027484338302766,0.021741229065936653,2.3208026235241364,0.7680525828841679
0.44974267710028726,4.2515881575033645e-05,0.2499211972919685,0.0009741472106210387,0.9999910633582667,0.000746334909652035,0.003399106422386661,0.449652474094347,-6.686971161308703e-05,0.25058546872332915,0.003561985496468385,1.0000024343974339,0.00549030238809579,-0.0006597329506586192,-0.07489819986859801,0.2134255355986009,-1.0955727217921678,-0.026733825641287227,0.014138495606336624,-0.2500552425148804,-0.09435444049410072,-0.1894673869427534,0.09489887786539342,-2.502754234219176,0.021742480935873585,2.320803319524837,0.768052597976492
0.4497425290712069,4.3400316294646884e-05,0.24992030440396773,0.0009756786440767317,0.9999910645542615,0.0007487019161973594,0.003397794533984734,0.449652474094347,-6.686971161308703e-05,0.25058546872332915,0.003561985496468385,1.0000024343974339,0.00549030238809579,-0.0006597329506586192,-0.06020663061745373,0.19321309502411982,-1.1463048892967471,-0.011917146430899396,0.0212836293537068,-0.23293098562301795,-0.09436761222691724,-0.18946307137862708,0.09489386654229941,-2.5027459681938624,0.021747704441221836,2.320803565566473,0.768045665220854
0.44974372864868056,4.5923863121478465e-05,0.24992345713362962,0.0009757539111454981,0.9999910494024956,0.0007531979737775724,0.003401236748052697,0.449652474094347,-6.686971161308703e-05,0.25058546872332915,0.003561985496468385,1.0000024343974339,0.00549030238809579,-0.0006597329506586192,-0.067390235472779,0.1680643699502333,-1.0876622145399168,-0.012052534038046639,0.014089273243417242,-0.23825578107395767,-0.09436258407180394,-0.18946566453581817,0.09489879893106325,-2.5027455973374217,0.021747295467870506,2.3208050956629496,0.7680427900557685
0.4497421337517167,4.771914585510823e-05,0.24992004233576648,0.0009742473732309664,0.9999910676911383,0.000750857068997149,0.0033968063052294923,0.449652474094347,-6.686971161308703e-05,0.25058546872332915,0.003561985496468385,1.0000024343974339,0.00549030238809579,-0.0006597329506586192,-0.052861802524987254,0.21790869458448103,-1.0980883707067592,-0.01974243231007855,0.016502929049195,-0.24100305938664793,-0.09435702734286644,-0.18946542082414405,0.09490408896943267,-2.502746406085895,0.021741709626364396,2.3208033239472985,0.7680463954659735
0.4497446816609828,4.499887752112868e-05,0.2499247334811948,0.0009745855829227772,0.9999910529838877,0.0007472437788300467,0.003401832050326609,0.449652474094347,-6.686971161308703e-05,0.25058546872332915,0.003561985496468385,1.0000024343974339,0.00549030238809579,-0.0006597329506586192,-0.05189976789127937,0.18992033224689045,-1.0965005522279354,-0.012260241587187162,0.017429654067839365,-0.23441684962844594,-0.09435973345601,-0.18946291084607902,0.09489872001009902,-2.50275092515013,0.021743507643359604,2.320804025364753,0.7680474625905866
0.44974413335009367,4.300084137711754e-05,0.24992389142901475,0.0009761940626300331,0.9999910506009893,0.0007487687821911276,0.003401736002137032,0.449652474094347,-6.686971161308703e-05,0.25058546872332915,0.003561985496468385,1.0000024343974339,0.00549030238809579,-0.0006597329506586192,-0.06160576250198145,0.1888030504324727,-1.0891028596329484,-0.006585165797114727,0.01371483608976161,-0.22608780554983293,-0.09435990893093973,-0.18946558770455704,0.09489921232660918,-2.502751961985878,0.0217421757529092,2.3208048454655543,0.7680477807085864
0.4497446095068092,4.50251513024619e-05,0.24992484114593913,0.0009742732437598609,0.9999910509819145,0.000749832618876968,0.0034019403586985782,0.449652474094347,-6.686971161308703e-05,0.25058546872332915,0.003561985496468385,1.0000024343974339,0.00549030238809579,-0.0006597329506586192,-0.05900749821320961,0.19189930911321368,-1.0813891907314586,-0.008267111616488399,0.01630374795306339,-0.22827913336789693,-0.09435756101235268,-0.1894635301942877,0.09489629327728036,-2.5027478257869595,0.02174494250631393,2.32080403117696,0.7680463942865446
0.4497448510807804,4.345988058615273e-05,0.24992363894021952,0.000975582552972728,0.9999910511846186,0.0007495903830909231,0.003401558914832643,0.449652474094347,-6.686971161308703e-05,0.25058546872332915,0.003561985496468385,1.0000024343974339,0.00549030238809579,-0.0006597329506586192,-0.048222271664502214,0.19730688437311075,-1.086846381409549,-0.009529159426604324,0.01747858284704524,-0.23038521054860195,-0.09436290198649938,-0.18946770333624582,0.09489595387855185,-2.5027465897432903,0.02174535765581664,2.3207986147933535,0.7680410629241016
0.44974386295328544,4.6813212713224016e-05,0.2499244743988025,0.0009757633658913763,0.9999910491969509,0.000751032627250555,0.003401773250398269,0.449652474094347,-6.686971161308703e-05,0.25058546872332915,0.003561985496468385,1.0000024343974339,0.00549030238809579,-0.0006597329506586192,-0.05296863761582517,0.18988160419881103,-1.0928470453799566,-0.01358829046527786,0.01682620863318205,-0.23553655429907855,-0.09436021348525872,-0.18946494841250902,0.09489378762006954,-2.5027506124545904,0.02174491614276992,2.3208025057825705,0.7680400034472685
0.44974463174703805,4.118868530463175e-05,0.24992463971104834,0.0009756733241891484,0.9999910516206415,0.0007483129517369019,0.0034016859603975204,0.449652474094347,-6.686971161308703e-05,0.25058546872332915,0.003561985496468385,1.0000024343974339,0.00549030238809579,-0.0006597329506586192,-0.10487327732287934,0.2388867378673669,-1.0867485812891473,-0.023049496133636424,0.006968886441229539,-0.23517181069573526,-0.09436010201263666,-0.1894656628632161,0.09490079508044914,-2.5027481136364744,0.021745712662184658,2.320805091283655,0.7680434738735791
0.44974225291746367,4.45807069230111e-05,0.2499220851706564,0.0009766125171093685,0.9999910581672982,0.0007504970922362997,0.00339900970526752,0.449652474094347,-6.686971161308703e-05,0.25058546872332915,0.003561985496468385,1.0000024343974339,0.00549030238809579,-0.0006597329506586192,-0.04660408716180052,0.18155544594266482,-1.1003470733802632,-0.009671379807071053,0.019525224278129673,-0.236581286565637,-0.09435976366089907,-0.18946777069320042,0.0949044241455563,-2.5027511833003717,0.021742436623995578,2.3208029720233463,0.768048369112234
0.4497433629678567,4.22759913844135e-05,0.24992329469834346,0.0009758269717416813,0.9999910568685869,0.0007467841378271823,0.0034004348941226808,0.449652474094347,-6.686971161308703e-05,0.25058546872332915,0.003561985496468385,1.0000024343974339,0.00549030238809579,-0.0006597329506586192,-0.05899542184214169,0.2000267983875276,-1.1016732072658333,-0.016710882142024593,0.01780544778793037,-0.23992364005753927,-0.0943544447186346,-0.18946319470112968,0.094895918595265,-2.5027506671855613,0.021739069345414447,2.320803319586645,0.768045915060719
0.4497434261650402,4.208834934631822e-05,0.24992206888014828,0.0009765135622594461,0.9999910548637989,0.0007521776809950163,0.0033996384802903582,0.449652474094347,-6.686971161308703e-05,0.25058546872332915,0.003561985496468385,1.0000024343974339,0.00549030238809579,-0.0006597329506586192,-0.0629900960009855,0.17069738622181788,-1.08567048139075,-0.01231227692728351,0.012484732704772638,-0.23854230692701509,-0.09435696108829553,-0.18946813384580652,0.09489629327728036,-2.50274818575225,0.02174158370351748,2.3208036778047347,0.7680412805874122
0.4497439675131071,4.138860329864836e-05,0.2499259133578842,0.0009761513186174381,0.9999910467177295,0.000748147431276,0.0034030262772912095,0.449652474094347,-6.686971161308703e-05,0.25058546872332915,0.003561985496468385,1.0000024343974339,0.00549030238809579,-0.0006597329506586192,-0.07197499173744865,0.2011217525453625,-1.0920770547571104,-0.012934004251048509,0.012551272948736626,-0.23788320382038103,-0.09435444374241862,-0.18946281605075924,0.09489879990539615,-2.502748853934568,0.021738138787137568,2.320804031663148,0.7680469417011238
0.4497422167042601,4.375469282609682e-05,0.24992125094786447,0.0009761003813099605,0.9999910619346916,0.0007523130448441464,0.00339764672473504,0.449652474094347,-6.686971161308703e-05,0.25058546872332915,0.003561985496468385,1.0000024343974339,0.00549030238809579,-0.0006597329506586192,-0.06514491237277958,0.18014054482269123,-1.0976664851632514,-0.012016294499227214,0.013453951301955716,-0.2382069009838948,-0.09435694939630074,-0.18946221497409402,0.09490158299097053,-2.5027511528981234,0.021741130057417384,2.3208033145613625,0.7680434219753823
0.44974271227994544,4.674801965455129e-05,0.24992153354729704,0.000976850208672563,0.9999910559692516,0.000754437903467185,0.0033987156420116336,0.449652474094347,-6.686971161308703e-05,0.25058546872332915,0.003561985496468385,1.0000024343974339,0.00549030238809579,-0.0006597329506586192,-0.05346740420256711,0.2376309296706027,-1.096548958217696,-0.018200659808689068,0.017681988699765238,-0.23601527182522136,-0.09435759236151814,-0.189463527294153,0.09490371401765277,-2.5027456807754107,0.021738242244230602,2.320802972001193,0.7680398820076623
0.4497450624897807,4.446514270616837e-05,0.24992489894502734,0.0009765139207135581,0.9999910441137544,0.0007517215581980371,0.0034028997868599704,0.449652474094347,-6.686971161308703e-05,0.25058546872332915,0.003561985496468385,1.0000024343974339,0.00549030238809579,-0.0006597329506586192,-0.07187287519533654,0.23388221771551929,-1.1164662405307078,-0.02431588991327787,0.017337250850453796,-0.24362878375473626,-0.09435904281027153,-0.18946555097994067,0.09490372278417442,-2.5027481304802848,0.02173813694063379,2.3208025050847065,0.768043875521432
0.449743346005236,4.6694128049040627e-05,0.24992490990570934,0.0009778253386840663,0.9999910500558249,0.0007548773905753006,0.0034000772597518724,0.449652474094347,-6.686971161308703e-05,0.25058546872332915,0.003561985496468385,1.0000024343974339,0.00549030238809579,-0.0006597329506586192,-0.05435500649684329,0.2168268373065085,-1.0747589369304786,-0.0244834105101475,0.01342114475809499,-0.24462987925413102,-0.09436219964941496,-0.189462477019902,0.09490158120259035,-2.5027481903983073,0.021736913487705515,2.320802972024455,0.76803863826508
0.4497416898954795,4.344644098038524e-05,0.24992103701360419,0.000976819372973553,0.9999910653501862,0.0007508673521003719,0.003396754532245305,0.449652474094347,-6.686971161308703e-05,0.25058546872332915,0.003561985496468385,1.0000024343974339,0.00549030238809579,-0.0006597329506586192,-0.05766056624208647,0.2139847674496997,-1.0903635898459347,-0.02713791805334703,0.01593778531519501,-0.2520403556758647,-0.09434874178987344,-0.18947083841354234,0.09490160940606951,-2.5027457836951466,0.021737405336797442,2.3208055573788773,0.768043757022193
0.44974572245634614,4.541006422576982e-05,0.24992596605183795,0.0009790484602011048,0.9999910379317479,0.0007545830663542921,0.0034033548283330284,0.449652474094347,-6.686971161308703e-05,0.25058546872332915,0.003561985496468385,1.0000024343974339,0.00549030238809579,-0.0006597329506586192,-0.06441550313361614,0.23105736817421788,-1.0921317173119587,-0.026351246171987565,0.015172972078331062,-0.2498361039898308,-0.09435156458879955,-0.1894627483379697,0.09489629327728046,-2.5027481898180017,0.02173752383391061,2.3208033174689047,0.7680434633074743
0.44974312303500164,4.3329940932148296e-05,0.24992225310666452,0.0009784391458238638,0.9999910546375962,0.0007537355754251334,0.003398806218077079,0.449652474094347,-6.686971161308703e-05,0.25058546872332915,0.003561985496468385,1.0000024343974339,0.00549030238809579,-0.0006597329506586192,-0.06490393352839188,0.2198722197125819,-1.1003025464808738,-0.026126455470172227,0.015504180645710804,-0.2512619570116683,-0.09435156458879955,-0.1894627483379697,0.09489629327728046,-2.5027481898180017,0.02173752383391061,2.3208033174689047,0.7680434633074743
0.4497418211251768,4.470304514481556e-05,0.24992146800725826,0.0009797237845704597,0.9999910507471288,0.0007572704943430563,0.0033987950411198302,0.449652474094347,-6.686971161308703e-05,0.25058546872332915,0.003561985496468385,1.0000024343974339,0.00549030238809579,-0.0006597329506586192,-0.07517985465633226,0.20536032075546598,-1.1053473298965926,-0.02000219858521551,0.014024854011322353,-0.24251932708541474,-0.09435759820610475,-0.18946763613152365,0.0949009327575356,-2.5027489668863856,0.02173643957513309,2.3208048454654793,0.7680474455498355
0.4497458250684332,4.4553614236924824e-05,0.24992697557840593,0.0009783917016377602,0.9999910344977514,0.0007557013192572795,0.0034043044365508392,0.449652474094347,-6.686971161308703e-05,0.25058546872332915,0.003561985496468385,1.0000024343974339,0.00549030238809579,-0.0006597329506586192,-0.07480661783943482,0.20817977467685858,-1.1043982818347369,-0.015713617547714623,0.013437840422579901,-0.23565508014062295,-0.09435589386364616,-0.18946318999068174,0.09489076679875277,-2.5027508896316624,0.02173309046124001,2.320804487892185,0.7680416608021642
0.44974215872966805,4.48656326672924e-05,0.24992156467117266,0.000979293773653997,0.9999910584135849,0.0007576978661630034,0.0033965673697892,0.449652474094347,-6.686971161308703e-05,0.25058546872332915,0.003561985496468385,1.0000024343974339,0.00549030238809579,-0.0006597329506586192,-0.061501522095823706,0.245150654466142,-1.096150588593418,-0.0250014855636163,0.015310345103403235,-0.23942276246530275,-0.09435999879218682,-0.18946623261871112,0.09490092979756008,-2.502745688911141,0.02173213621187826,2.3207993262181725,0.7680391149436152
0.44974099910702153,4.849549403217222e-05,0.24991463725542157,0.0009342930751096723,0.9999912285199046,0.0005790339240956627,0.003394318773605973,0.449804056298987,6.406659782889563e-05,0.24986794679399385,0.0041510670252988295,0.9999547655332011,-0.005832771279578866,0.005865223572614835,-0.0659068833944462,0.18468619266108433,-1.0534402847089415,-0.00855166788881304,0.011377289873202552,-0.24201915202650162,-0.09435399907885603,-0.18946464079347602,0.09489879893106326,-2.5027536399550905,0.02173212090262335,2.3208022584750294,0.7680371907925676
0.44973317779933825,4.34696658496525e-05,0.249824779148816,0.000896443319534823,0.999991644918547,0.00022078098044927207,0.003323317639301645,0.44989252957594017,9.712667937316965e-05,0.2497811750539742,0.0041510670252988295,0.9999547655332011,-0.005832771279578866,0.005865223572614835,-0.19403917764831372,-0.14118923555175414,-0.935669209977239,0.17668343080404017,-0.012069714464045504,-0.002594557314881613,-0.09439418132902568,-0.1893975004545836,0.09490299321062351,-2.5027588920933295,0.021894900381435496,2.3208319144900535,0.768435669368683
0.449751210932991,5.5293371308952796e-05,0.24974172519639046,0.0008506499469349235,0.99999174800887,-2.5432756650015924e-05,0.003311550111135858,0.44989252957594017,9.712667937316965e-05,0.2497811750539742,0.0041510670252988295,0.9999547655332011,-0.005832771279578866,0.005865223572614835,-0.27067529652752154,-0.3669969158324142,-0.8274816236078608,0.2877806961724391,-0.0200615032740774,0.12273366602319323,-0.0944005901739747,-0.1892335676862018,0.09490018359986242,-2.502773852198161,0.02192872481677092,2.320891437815906,0.7689919157542222
0.44977483652998546,5.181872428789088e-05,0.24973505319669517,0.0007636753303561315,0.99999166573578,-0.00013121695078135027,0.003354808956271067,0.44989252957594017,9.712667937316965e-05,0.2497811750539742,0.0041510670252988295,0.9999547655332011,-0.005832771279578866,0.005865223572614835,-0.28399967299751794,-0.4105629222789993,-0.8706142424155572,0.2877880884136437,0.0008073368307103563,0.15363639878386634,-0.09441754114421964,-0.18901099544495886,0.0949050795176334,-2.502811493608044,0.022169855956286674,2.3211619657822182,0.7693584568153121
0.44978280118713426,4.2844527473542395e-05,0.24973525799285284,0.0007042108462836333,0.9999916185295813,-0.0002190783758252651,0.00337722730072638,0.44989252957594017,9.712667937316965e-05,0.2497811750539742,0.0041510670252988295,0.9999547655332011,-0.005832771279578866,0.005865223572614835,-0.2399763959752577,-0.38762076386183747,-0.8383404551327317,0.27796149218674693,0.011798157186429086,0.1875867054253918,-0.09445856251072333,-0.18900006376920767,0.0949022821231314,-2.502782468700891,0.022284509836797094,2.3212074254403308,0.7693644536042098
0.44978845572464166,1.9363871108847928e-05,0.24973918855576901,0.0006552989870527235,0.9999915775496471,-0.0003254587706918833,0.003390603370913919,0.44989252957594017,9.712667937316965e-05,0.2497811750539742,0.0041510670252988295,0.9999547655332011,-0.005832771279578866,0.005865223572614835,-0.22434303664837693,-0.43929176481008625,-0.8112113958234772,0.2877098733787103,0.017502840186686006,0.21281988347953534,-0.09449452057041238,-0.18899227142669225,0.09490218593991323,-2.502787663781797,0.022392943360757946,2.3212525391526846,0.7693648282433898
0.4497946651962073,3.029507333067125e-06,0.2497403617890198,0.0006208927352725256,0.9999915237354496,-0.00039447147613588357,0.0034055899789608617,0.44989252957594017,9.712667937316965e-05,0.2497811750539742,0.0041510670252988295,0.9999547655332011,-0.005832771279578866,0.005865223572614835,-0.25835443158755256,-0.4215144715969303,-0.8553739451937775,0.285902763997492,0.02023231381753307,0.23146337098781467,-0.09460870789883409,-0.18899755809809052,0.09489954344191821,-2.502793012679055,0.02258275787866507,2.321285890956891,0.7694153249955274
0.44979872968289747,9.580565694136927e-07,0.2497417316036051,0.0005870871965391266,0.999991489707265,-0.00045659424318597206,0.0034138049880161774,0.44989252957594017,9.712667937316965e-05,0.2497811750539742,0.0041510670252988295,0.9999547655332011,-0.005832771279578866,0.005865223572614835,-0.21610828068057758,-0.4238426688602473,-0.8228430787770252,0.28905327882633075,0.022692766377605738,0.24381829416851833,-0.09465873771556758,-0.18899721823650895,0.09489872499021358,-2.5027939238495907,0.022704275819431206,2.3213203025215803,0.7694582006833872
0.44980666586973345,1.5054378391581103e-06,0.24974683846196097,0.0005768703777292835,0.9999914063148073,-0.0004958570977086905,0.003434435003109428,0.44989252957594017,9.712667937316965e-05,0.2497811750539742,0.0041510670252988295,0.9999547655332011,-0.005832771279578866,0.005865223572614835,-0.23627405435824858,-0.39885436497693105,-0.8440895479508321,0.2818504844114622,0.0243146937926519,0.24718432315408875,-0.09466873140360454,-0.18899548220280699,0.094896830032996,-2.502792323901557,0.022752807470556045,2.3213332565676743,0.7694690516820961
0.44980853309744745,-7.140539089139071e-06,0.24974665019408326,0.0005697518297884832,0.9999913840749071,-0.0005224205694240388,0.0034381588639202385,0.44989252957594017,9.712667937316965e-05,0.2497811750539742,0.0041510670252988295,0.9999547655332011,-0.005832771279578866,0.005865223572614835,-0.24236873827726954,-0.40986634802864413,-0.8389658543831146,0.27840118221474713,0.02564835743651807,0.24463727051043532,-0.09468722989923345,-0.18899755809809032,0.09490164317739598,-2.5027877194420256,0.02278156865590418,2.321366698861162,0.7695319162312158
0.4498085790513102,-6.415671820847293e-06,0.2497459543367946,0.0005646611384844929,0.9999913791629235,-0.0005295862993386224,0.0034393308606083324,0.44989252957594017,9.712667937316965e-05,0.2497811750539742,0.0041510670252988295,0.9999547655332011,-0.005832771279578866,0.005865223572614835,-0.24631253292638858,-0.4140405363940021,-0.8370483453189727,0.2771963634867338,0.024559444699497168,0.24679205688018133,-0.09469069363672683,-0.18899753185242368,0.09489827442166532,-2.5027937166827217,0.022800129993918453,2.3213726348965174,0.7695402870266003
0.44980867543182934,-3.2815037086059747e-06,0.24974336160604232,0.0005628680768815326,0.999991382857022,-0.0005302099889747773,0.0034384545042118646,0.44989252957594017,9.712667937316965e-05,0.2497811750539742,0.0041510670252988295,0.9999547655332011,-0.005832771279578866,0.005865223572614835,-0.2258240644892748,-0.41255932189034306,-0.8085315294464972,0.28487916802628444,0.02787314198915414,0.2506974548299589,-0.0946949853157116,-0.18899755766606288,0.09490163701336769,-2.5027928926742042,0.02281378533293686,2.32138134093794,0.769544197941865
0.44981780054335974,-5.112022499876886e-06,0.249750634773828,0.0005620121708048504,0.999991306289652,-0.0005346837138148901,0.0034601013741516477,0.44989252957594017,9.712667937316965e-05,0.2497811750539742,0.0041510670252988295,0.9999547655332011,-0.005832771279578866,0.005865223572614835,-0.2873602919172066,-0.3962912061416366,-0.8843051203580287,0.2861474633922519,0.0289332025755541,0.25359549448439617,-0.09469498536983575,-0.18900170580922598,0.0948990194600834,-2.5027918622779346,0.02281751276593104,2.3213809609943636,0.7695509607396709
0.44981454924370357,-1.182830245693245e-05,0.24974521308498873,0.0005572438601261435,0.9999913241555897,-0.0005481739190770843,0.003453592169482478,0.44989252957594017,9.712667937316965e-05,0.2497811750539742,0.0041510670252988295,0.9999547655332011,-0.005832771279578866,0.005865223572614835,-0.24292295179776144,-0.4072681734905752,-0.802611817141715,0.2821530026844662,0.024551371962694125,0.25037136428026463,-0.0947016549242154,-0.18899781974737662,0.09489872458910248,-2.502788748590544,0.022823492511761325,2.321415435446412,0.769547653704797
0.44982366969158527,-1.0728721991246344e-05,0.24975311345691484,0.0005578160145335829,0.9999912617460672,-0.0005520821639557691,0.003470904601638022,0.44989252957594017,9.712667937316965e-05,0.2497811750539742,0.0041510670252988295,0.9999547655332011,-0.005832771279578866,0.005865223572614835,-0.2661336811195656,-0.4157187031555334,-0.8524098637285658,0.28197467321030334,0.029269307438200776,0.2524051430192649,-0.09470708736607868,-0.1889919103264826,0.09489616981438431,-2.50279625427377,0.022827096762334485,2.321414779273999,0.7695534528003327
0.449820936524819,-8.33125445467007e-06,0.2497490139884115,0.0005574518836506057,0.9999912777133318,-0.0005497308683737002,0.003466733521258564,0.44989252957594017,9.712667937316965e-05,0.2497811750539742,0.0041510670252988295,0.9999547655332011,-0.005832771279578866,0.005865223572614835,-0.22336766031817398,-0.38676635103277346,-0.822477657226624,0.2819743252451423,0.03558451066676428,0.2500075015822797,-0.0947042373228901,-0.18899371110535168,0.0949018067691418,-2.5027926453081006,0.02282962868177237,2.3214403549565206,0.7695588694618589
0.4498238264611208,-1.1558077506586444e-05,0.24975366278479752,0.000556720835293685,0.999991253481706,-0.0005556152036965864,0.0034728971179138024,0.44989252957594017,9.712667937316965e-05,0.2497811750539742,0.0041510670252988295,0.9999547655332011,-0.005832771279578866,0.005865223572614835,-0.2300682583542282,-0.43301481628051325,-0.8265422698856888,0.28472564415817253,0.034610963079148994,0.24861237432063307,-0.09471027621992845,-0.1889943692855971,0.09489829692583791,-2.502791409063563,0.022831644189144858,2.3214387413822366,0.7695596259357664
0.4498216642424285,-1.7073540686271614e-05,0.2497482147829874,0.0005542733650399656,0.9999912565442619,-0.0005805540062826325,0.0034683243249161496,0.44989252957594017,9.712667937316965e-05,0.2497811750539742,0.0041510670252988295,0.9999547655332011,-0.005832771279578866,0.005865223572614835,-0.23097817096226708,-0.3872608984812136,-0.8221717687047996,0.2894983847167842,0.0328920186430556,0.2593602934121501,-0.0947257095565521,-0.188994605496595,0.09489868800110476,-2.502796572049281,0.02283714477788636,2.32144495089315,0.7695819667966453
0.44982556242668575,-1.6484482080233954e-05,0.24975424708921234,0.0005545381781385222,0.9999912241044832,-0.0005820539990846571,0.0034773718627793327,0.44989252957594017,9.712667937316965e-05,0.2497811750539742,0.0041510670252988295,0.9999547655332011,-0.005832771279578866,0.005865223572614835,-0.2231962732306473,-0.4247085405209575,-0.8146864251242689,0.28832034977286203,0.03515383984501216,0.251961609235007,-0.09472694505929075,-0.1889915853018425,0.0948996691850884,-2.5027957097089004,0.02283844309258781,2.3214442841663776,0.7695993364596075
0.44982261752041475,-2.2829267746648902e-05,0.24974893629673495,0.0005523054839593623,0.9999912373923502,-0.0005936861525796933,0.0034719352469141287,0.44989252957594017,9.712667937316965e-05,0.2497811750539742,0.0041510670252988295,0.9999547655332011,-0.005832771279578866,0.005865223572614835,-0.20151145827981695,-0.37527801921461074,-0.8067862413774727,0.2815381993101258,0.035165317922283786,0.2530447638591611,-0.09472691052309211,-0.18898691440018742,0.09489909880963755,-2.502790982992351,0.022840868494231562,2.3214497645431096,0.769594410229055
0.44982085107190417,-2.0446726135740184e-05,0.24974668195169744,0.0005531517854203457,0.9999912511684135,-0.0005923676330965032,0.003468055761645448,0.44989252957594017,9.712667937316965e-05,0.2497811750539742,0.0041510670252988295,0.9999547655332011,-0.005832771279578866,0.005865223572614835,-0.2336220329064448,-0.39821284809729246,-0.8041865056750358,0.27964526625956154,0.02735859082615823,0.2485791083223836,-0.09474364187160154,-0.1889912450527744,0.09489659023824744,-2.5027959831307025,0.022844124433512487,2.321449052466284,0.7695985265950858
0.44981932364550303,-2.124065114628768e-05,0.24974452857833732,0.0005509551513407791,0.9999912512541024,-0.0006044314588503582,0.0034662986979042253,0.44989252957594017,9.712667937316965e-05,0.2497811750539742,0.0041510670252988295,0.9999547655332011,-0.005832771279578866,0.005865223572614835,-0.2630591221309251,-0.4159646807465366,-0.8172530049625478,0.28885314537893264,0.02422277275284673,0.2573005489740854,-0.0947451518358002,-0.18899071986630545,0.09490161098702944,-2.5027996703147477,0.022851264306120715,2.3214490524662867,0.7696099056913114
0.44982955652026635,-2.4406537383252497e-05,0.2497501320485241,0.0005459355679374575,0.9999910394633025,-0.000810208183296774,0.003486145311642975,0.4499638379656752,0.00021846966873762484,0.24981547869111884,0.007752812383462109,0.999872296253668,-0.011055544448927281,0.008261137808167516,-0.2330270900958619,-0.3805428190571099,-0.8082471847081606,0.2814843180039703,0.027923954112944016,0.24830035105187412,-0.09474292226105534,-0.18898805758176224,0.09489635628889843,-2.50279970693578,0.02284992191601125,2.321448709614483,0.7696208424264137
0.4499232590012687,-2.85788928387325e-05,0.24979327419775246,0.000550373142722613,0.9999898760976308,-0.0011804758969714566,0.003706475918191369,0.4499638379656752,0.00021846966873762484,0.24981547869111884,0.007752812383462109,0.999872296253668,-0.011055544448927281,0.008261137808167516,-0.2587607713643693,-0.4885233992794546,-0.8228641539984531,0.3280021131460189,0.040170728974989627,0.2881082654481298,-0.09474832173146085,-0.18899367158791647,0.09489764836437044,-2.5027877309358146,0.022851935969822747,2.3218669455026686,0.7706603715544998
0.4499439125577332,-2.646551216458486e-05,0.24979907345697364,0.0005498872739497145,0.9999891624397554,-0.0015576496658100199,0.0037593942326690365,0.4499638379656752,0.00021846966873762484,0.24981547869111884,0.007752812383462109,0.999872296253668,-0.011055544448927281,0.008261137808167516,-0.23944144447820653,-0.5697256601010334,-0.7654636280873398,0.3678901763341393,0.060106264030147384,0.3165426353774237,-0.09475391403571674,-0.1889968749033088,0.09489991433275693,-2.502795709708844,0.022857654091139382,2.3219847274824152,0.7713023715897329
0.44996022786052015,-2.866228774766108e-05,0.24981146956267786,0.0005469526069767202,0.9999886251978725,-0.001789723890718467,0.003799196339504211,0.4499638379656752,0.00021846966873762484,0.24981547869111884,0.007752812383462109,0.999872296253668,-0.011055544448927281,0.008261137808167516,-0.23117777180784582,-0.6024074324204037,-0.7486998303743182,0.40441847990039886,0.0690220501747464,0.34868934955288766,-0.09475155124222613,-0.18899687490203806,0.09489503553397034,-2.502788468175255,0.022856692979833334,2.322088280737296,0.7719217493754088
0.4499666392011784,-3.2315413354409754e-05,0.24980949461773008,0.0005482938280288804,0.9999877787430005,-0.002179145423081379,0.003818342967818404,0.449895948735644,0.0003444080846066824,0.2497908641046695,0.011356228019588141,0.9997670593343461,-0.01501116087567671,0.010330267848818794,-0.21568471238821324,-0.6136693157080317,-0.76491594280498,0.39290254032368344,0.06923261520651552,0.3397217200761761,-0.09475251860287481,-0.1889888333916209,0.09489980911633754,-2.50279403829991,0.022862089535485807,2.322107877658065,0.7721276171330113
0.4499774561433785,-1.9972130715062226e-05,0.2498133353147014,0.0005563829000224096,0.9999861176896647,-0.002797958054476947,0.0038487609951362366,0.449895948735644,0.0003444080846066824,0.2497908641046695,0.011356228019588141,0.9997670593343461,-0.01501116087567671,0.010330267848818794,-0.2086102695827035,-0.689198175777834,-0.7569284450672663,0.43393803362409805,0.07514103490369196,0.3621269856887374,-0.09472448557700501,-0.1889946851696561,0.09490075975007672,-2.502811339457268,0.022824105847310025,2.3222093852869508,0.7739441756422425
0.4500112381324048,-2.2282213174053152e-05,0.2498282612674547,0.0005572242820042825,0.9999842263926408,-0.003311622602526933,0.003931446565217675,0.449895948735644,0.0003444080846066824,0.2497908641046695,0.011356228019588141,0.9997670593343461,-0.01501116087567671,0.010330267848818794,-0.24224268490734244,-0.7477685969623592,-0.7697802448127158,0.4651361572118616,0.07997925410169245,0.37859524080756657,-0.09473725376620663,-0.18899690115037776,0.09489557201209275,-2.5028115690353068,0.02282717864541959,2.3222939642633653,0.774768477244099
0.45002683428873425,-2.4486773829427635e-05,0.2498329120328101,0.0005548970057513846,0.9999828330344895,-0.003667689052357858,0.003969939549662387,0.449895948735644,0.0003444080846066824,0.2497908641046695,0.011356228019588141,0.9997670593343461,-0.01501116087567671,0.010330267848818794,-0.21540264862374311,-0.8161773350954362,-0.7180690760966246,0.49064272700472805,0.0777204528034057,0.3940767185525226,-0.09472053916433419,-0.1889915851938445,0.09489522419845584,-2.5028017710256116,0.02282098821546808,2.32241087453958,0.7753059842439196
0.45002300820045943,-2.1488649741289795e-05,0.24982518871966397,0.0005556459241456003,0.9999814487719079,-0.004027821867763367,0.003969464030286387,0.44976572899238176,0.00046463966457517287,0.24974589541084435,0.014943601364415821,0.9996664664854581,-0.016993498151894257,0.01224956000539509,-0.17704444016756316,-0.8270587828512558,-0.7200684858666188,0.4959001378009331,0.08420077549379891,0.4027891019034999,-0.09472578483907437,-0.18899158652206877,0.09489345047067253,-2.5028100473035764,0.022824542298227782,2.3224558311528845,0.775749129517473
0.45002886492235733,-7.915340807663969e-06,0.24982270375035265,0.0005749058826036952,0.9999789299426561,-0.004582511235954746,0.003999543197929347,0.44976572899238176,0.00046463966457517287,0.24974589541084435,0.014943601364415821,0.9996664664854581,-0.016993498151894257,0.01224956000539509,-0.14641112098880196,-0.8819987473041483,-0.7193028661112937,0.5221774016979369,0.09177858550840727,0.4067386993689468,-0.09471604400614424,-0.18899445897632478,0.09489670331661676,-2.5028325351928187,0.02278753659699937,2.322514872293878,0.7770274938677885
0.45003752368062466,-6.291369045187645e-06,0.24981821354423792,0.0005880175777754497,0.9999759846170482,-0.005155799124834029,0.004035930383028668,0.44976572899238176,0.00046463966457517287,0.24974589541084435,0.014943601364415821,0.9996664664854581,-0.016993498151894257,0.01224956000539509,-0.17499724075425438,-0.8700017690635943,-0.6898722273505691,0.5343930174202983,0.0931421501755244,0.4173631233053677,-0.0946862126739842,-0.18899761856662586,0.09490477014800917,-2.5028619005170647,0.022765321127445726,2.322562127988215,0.777690935790079
0.45004703261981394,6.0061658161283025e-06,0.24981602257489277,0.0006054865746138095,0.9999726925217821,-0.0057362540826590225,0.004065652418690019,0.44976572899238176,0.00046463966457517287,0.24974589541084435,0.014943601364415821,0.9996664664854581,-0.016993498151894257,0.01224956000539509,-0.14977795644993203,-0.925182249648212,-0.6728261292578365,0.5559959442395332,0.09846394645208356,0.4155081580812238,-0.09465596009102137,-0.18899755809809032,0.09490904101999559,-2.502900087918599,0.022712960945293112,2.322703686014867,0.7792932107923849
0.450042530840311,-6.42095891255877e-07,0.24980261354039635,0.0006708771010850466,0.999970123256066,-0.006151689697371028,0.004079920710264745,0.44961804359392926,0.0005605440655529802,0.24972151500409118,0.018445476436920863,0.9995867268298869,-0.01681506521220501,0.014091830024067283,-0.11960133420455438,-0.9924789224840436,-0.6951422381556781,0.573992972559912,0.10227627474022769,0.4159431130767392,-0.0946393475749384,-0.18899763683509227,0.09490934927903831,-2.502917309491217,0.022665127759681672,2.3227506771263853,0.7801556404842472
0.4500306439818087,5.6635505367709414e-05,0.2497824610841668,0.0008029292720169591,0.9999667274038548,-0.006660861625996495,0.004088863017423178,0.44961804359392926,0.0005605440655529802,0.24972151500409118,0.018445476436920863,0.9995867268298869,-0.01681506521220501,0.014091830024067283,-0.07341952875900273,-1.0571325758716537,-0.6896511573514795,0.6166283210048904,0.11290047533838361,0.4102355993061552,-0.09458300295204129,-0.1889947397994692,0.09492893224850436,-2.5029941507689966,0.02230869671674683,2.322849104022917,0.781763639990514
0.45003008688537655,0.00011589377489154192,0.2497744561598695,0.0008957436071302264,0.9999637927785683,-0.007065862656391661,0.0041074106218935945,0.44961804359392926,0.0005605440655529802,0.24972151500409118,0.018445476436920863,0.9995867268298869,-0.01681506521220501,0.014091830024067283,-0.07492573110763136,-0.9827108006045968,-0.6581595097470082,0.6421949970116976,0.11322701525073173,0.41606334036604903,-0.09445719489711374,-0.18899938455241466,0.09497723946129731,-2.5030295254755437,0.022124423606749967,2.3229109909867325,0.782619820284468
0.45004931809648074,0.0001284587945253863,0.2497745125490988,0.0009439930253193608,0.999961040161864,-0.007404827022471359,0.004169173842676261,0.44961804359392926,0.0005605440655529802,0.24972151500409118,0.018445476436920863,0.9995867268298869,-0.01681506521220501,0.014091830024067283,-0.07220049334834916,-1.051395130533596,-0.6686421992746244,0.6825977565738494,0.11794934194503057,0.4160894706973782,-0.09437798812601415,-0.18900263722640834,0.09509737363928554,-2.5030881868199186,0.021835782991950478,2.323029666431895,0.7841039543673131
0.4500450396427072,0.00011609144574804172,0.2497641995940596,0.00105085555290239,0.999958403058732,-0.007735508983352622,0.004175663982684127,0.44945827850405096,0.0005286874212026436,0.24972994932915618,0.02157647554815141,0.9995269869480249,-0.014989021764611142,0.0158358314430723,-0.017321728871497095,-1.0455883639218246,-0.6282305473711256,0.6843414173276021,0.12003404321348266,0.4120680208338223,-0.09437237371021877,-0.18901071153999166,0.09512371315355268,-2.5031028585089956,0.021787135554468668,2.323145906726159,0.7846397511010669
0.4500194235889783,7.528933995474501e-05,0.24972751291057457,0.0012726936133304332,0.999957844096967,-0.007777888403689347,0.004169069778409579,0.44945827850405096,0.0005286874212026436,0.24972994932915618,0.02157647554815141,0.9995269869480249,-0.014989021764611142,0.0158358314430723,-0.016671789345891527,-1.0494185712828217,-0.6695889937971687,0.7076994561976032,0.12855310840057788,0.41150134454401915,-0.09435805429002506,-0.18901216971294224,0.09516613797035935,-2.5031910054739135,0.021186353390019563,2.323209702492074,0.7856593130584222
0.4500370571631871,6.071146707359987e-05,0.24972994970224682,0.0015130775085069196,0.9999580020770193,-0.007669110583893648,0.00425156917559359,0.44945827850405096,0.0005286874212026436,0.24972994932915618,0.02157647554815141,0.9995269869480249,-0.014989021764611142,0.0158358314430723,-0.04588083119936879,-1.0134480980736251,-0.6133751158257705,0.7144773953427442,0.12140288824081541,0.4145496453279266,-0.09435839325481268,-0.1890157527715695,0.09519380954274836,-2.503260075882118,0.02078802720738872,2.323335013724469,0.7859613748335366
0.4500336086142087,5.899286809528959e-05,0.24970591528756075,0.0016715608359393283,0.9999579398636044,-0.00762306996302151,0.0042894772233447575,0.44945827850405096,0.0005286874212026436,0.24972994932915618,0.02157647554815141,0.9995269869480249,-0.014989021764611142,0.0158358314430723,0.010881055639110817,-1.07855134953676,-0.630393204732913,0.7475490351590449,0.13198362869902155,0.41484766376284826,-0.09433982126401336,-0.1890434091837418,0.09531318314599621,-2.503359056678592,0.020041190948084642,2.323596432253813,0.7864013900428066
0.45004718374831637,4.00651704738059e-05,0.24970118338156796,0.0018389314753540923,0.9999581049355082,-0.007533429036106016,0.00434057377742088,0.4493153089103696,0.0005759444131281276,0.24981154106944567,0.02395735038593635,0.9994712953198011,-0.01318877724576076,0.01744757093012626,0.006027656011066677,-1.1187267053091894,-0.6121580537497645,0.7443156355982602,0.13376910281806698,0.4150145944353585,-0.09432819026347869,-0.18904901279672537,0.09534654028441222,-2.5034161258697933,0.019796720072971404,2.323674669549118,0.7865555625755444
0.45004166506919935,5.759748669545836e-05,0.24970307679140366,0.0021058076438787857,0.9999590634127495,-0.007278362852944419,0.004432714086700061,0.4493153089103696,0.0005759444131281276,0.24981154106944567,0.02395735038593635,0.9994712953198011,-0.01318877724576076,0.01744757093012626,0.0493013436119713,-1.049292946857702,-0.6255396502647976,0.7424307645085181,0.14040353820467136,0.41308473667454904,-0.09431278326335144,-0.18908704591668757,0.09547311780852896,-2.503515972662681,0.019057128779880306,2.3239332503804726,0.7867397596326271
0.45002598824099044,6.931265358939783e-05,0.2496958816625865,0.002354425443155995,0.999959839812284,-0.007029936898518555,0.0045323167218966195,0.4493153089103696,0.0005759444131281276,0.24981154106944567,0.02395735038593635,0.9994712953198011,-0.01318877724576076,0.01744757093012626,0.0962436138265909,-1.046095022364537,-0.6257916709425183,0.7581292418490815,0.14966087980518686,0.41799701795989563,-0.09430579673129505,-0.18919721592942396,0.0956070328175078,-2.503656595340148,0.01860761650453468,2.324110149491177,0.786868124296821
0.4500375263059361,6.638251255873386e-05,0.24967545867695776,0.0026054219908568503,0.9999605610366399,-0.0067543628667471305,0.004653301229088817,0.4493153089103696,0.0005759444131281276,0.24981154106944567,0.02395735038593635,0.9994712953198011,-0.01318877724576076,0.01744757093012626,0.12429478095747719,-1.132686593158462,-0.7089080207476807,0.7595811423560391,0.16017989832721138,0.3993333151556275,-0.0942994252981816,-0.18930090842462757,0.09580557296886587,-2.5038959396458482,0.01774357175399751,2.3245416483843937,0.7869508909372088
0.4500614824703168,7.690242803478214e-05,0.249671800173765,0.00281835542440579,0.9999608657703187,-0.006551408656475742,0.004752824498979091,0.4491404167228151,0.0005939688019931269,0.24991433492570464,0.025361759432220337,0.9994263678018266,-0.012378355883560902,0.018592451101366037,0.18774178660118973,-1.11295584473339,-0.6848026892741927,0.7730682689712709,0.1676349109998655,0.41170786779944796,-0.09427813683791804,-0.18931968933066196,0.09588506738617333,-2.5040063802471186,0.017351030052636506,2.3248201278491236,0.7870074719697243
0.4500349150123157,5.2029762612975976e-05,0.24967911648559493,0.0031785505061675957,0.999961730997143,-0.0062224719513253755,0.004785469302404938,0.4491404167228151,0.0005939688019931269,0.24991433492570464,0.025361759432220337,0.9994263678018266,-0.012378355883560902,0.018592451101366037,0.16501898168551402,-1.0924868663880483,-0.6332616371640407,0.7755219713062436,0.16016341650142996,0.41692743287693224,-0.09424508157734109,-0.1894158791692261,0.09606074470451756,-2.5041330263330734,0.016330395822805682,2.325040505902146,0.7871703640916805
0.4500236260321542,2.9273958846511588e-05,0.24969702007101163,0.003500098193233426,0.9999620125192181,-0.005967068036825181,0.004827365838139724,0.4491404167228151,0.0005939688019931269,0.24991433492570464,0.025361759432220337,0.9994263678018266,-0.012378355883560902,0.018592451101366037,0.21316188927391533,-1.1475424043097864,-0.7223276755579399,0.7848067527502172,0.1769561415518941,0.41860979849282903,-0.09423292831292346,-0.1895056821988664,0.09613306511290776,-2.504234799715564,0.015702206163198555,2.3250672760788964,0.7872475911690379
0.4500105559258831,5.5164758979718445e-05,0.24969181384937722,0.0037363632808606827,0.9999624722121749,-0.00573790031183817,0.004832887378284223,0.4491404167228151,0.0005939688019931269,0.24991433492570464,0.025361759432220337,0.9994263678018266,-0.012378355883560902,0.018592451101366037,0.1870716397617331,-1.185139065876625,-0.7118041661326584,0.7847193185482434,0.1711164693294916,0.40863236051570395,-0.09418572926380128,-0.18959907900301115,0.0963045122340933,-2.504300076401419,0.014718397231351365,2.3251363756731847,0.7874648510673751
0.4500218746516286,6.04218018282455e-05,0.24970882628753324,0.004011373433687305,0.9999621108117772,-0.005568606217751081,0.004884977142927403,0.44901575415066725,0.0006330464218564084,0.24999600236938507,0.02560877200281363,0.9993981565968552,-0.012604446215427832,0.019591573260417505,0.20529420817185864,-1.1880006086984565,-0.7172913682770328,0.8072179882157211,0.18037456460926432,0.4226085079940852,-0.09416272200427567,-0.1896136648584423,0.09641894647132439,-2.5043344921369437,0.014301275752673226,2.3251793401376033,0.7875568201033598
0.4500125710676624,6.695288210004971e-05,0.2497296389454015,0.004339858808300604,0.9999619127031494,-0.0053157677837010085,0.004926250862938342,0.44901575415066725,0.0006330464218564084,0.24999600236938507,0.02560877200281363,0.9993981565968552,-0.012604446215427832,0.019591573260417505,0.24447318816284416,-1.215830514605656,-0.7548166835287272,0.8200753821476812,0.19160141210896603,0.43487267126170415,-0.0941178480267668,-0.18971562210855433,0.09661688637488876,-2.5044036707194866,0.01327348721018516,2.325261028713766,0.7880576398842217
0.44999295118330673,9.617127337589707e-05,0.2497481321752983,0.004541528405212109,0.9999616899739315,-0.005147688747248906,0.004967995507507066,0.44901575415066725,0.0006330464218564084,0.24999600236938507,0.02560877200281363,0.9993981565968552,-0.012604446215427832,0.019591573260417505,0.25561779325725886,-1.2181362260516388,-0.7443116673888216,0.8230565963682897,0.19253588091806662,0.4286683957723089,-0.09409995541676977,-0.18980137034210345,0.09673925913991895,-2.5044463453791024,0.012812813461633208,2.325304359619939,0.7881986875993917
0.44996655001530106,0.00010608233500167663,0.2497486852921073,0.004674679477257785,0.9999613111535599,-0.005082929030502574,0.004987381885920201,0.44901575415066725,0.0006330464218564084,0.24999600236938507,0.02560877200281363,0.9993981565968552,-0.012604446215427832,0.019591573260417505,0.20743518050438683,-1.1826452864734978,-0.6733812330079861,0.8171392066216976,0.1783753614494177,0.42730589723467477,-0.0940752772156307,-0.18995141778444843,0.09690324250583128,-2.504599684370127,0.01224656550825959,2.3253834768119397,0.7884353023282451
0.4499515637146496,9.819763216569363e-05,0.2497466813379684,0.004772522764180829,0.9999609034812883,-0.005047944770516317,0.005011922626873997,0.4489644681736867,0.0006267662028591312,0.25003716356412137,0.02502850378212946,0.9993853495293036,-0.013399248320600797,0.020448561530369582,0.24866028328224732,-1.2015105296703403,-0.7347802917245894,0.8246960116590837,0.1926986900367318,0.43022877125085685,-0.09407240510041233,-0.19000706707798073,0.09693443862190097,-2.5046809322562553,0.012063587493468796,2.325416222933046,0.7885203463093199
0.44995855845150423,9.459764932336223e-05,0.24977312204681953,0.004803837841192451,0.9999603564482461,-0.005058547911085943,0.005079994673240714,0.4489644681736867,0.0006267662028591312,0.25003716356412137,0.02502850378212946,0.9993853495293036,-0.013399248320600797,0.020448561530369582,0.26340658464363415,-1.1996144306903629,-0.7188462530220924,0.8208841860333591,0.1972378285147031,0.42598043013189685,-0.0940764048316345,-0.19010633525529225,0.09695868107593529,-2.5047472383660057,0.011852263521299847,2.325550616117986,0.7886524378353956
0.44994357217674186,9.379076124464124e-05,0.2497887499525799,0.004835647943700211,0.9999600807020504,-0.00505332846601989,0.005109203650149374,0.4489644681736867,0.0006267662028591312,0.25003716356412137,0.02502850378212946,0.9993853495293036,-0.013399248320600797,0.020448561530369582,0.2794441547878643,-1.2140325360166817,-0.7184609398191594,0.8189072216102059,0.19787398305320644,0.4246955192307048,-0.09407143809262913,-0.1901827022301521,0.09696761105119357,-2.5047962658929017,0.011807371565273407,2.32558967410632,0.7887009281223428
0.4499340043078723,8.938430158572842e-05,0.249798420862575,0.004870807966802925,0.9999598449282633,-0.005030788229898098,0.00514407531874958,0.4489644681736867,0.0006267662028591312,0.25003716356412137,0.02502850378212946,0.9993853495293036,-0.013399248320600797,0.020448561530369582,0.23338895919970806,-1.1812041386805072,-0.6763148139369689,0.8138899452131023,0.19056940221684085,0.42414715097594335,-0.09406600132748633,-0.19029042415725395,0.09698159046889386,-2.504912761211712,0.011697609613449364,2.3256648373390556,0.7887556615630379
0.4499390057202036,8.495583311736773e-05,0.2498151660427494,0.004892748657021793,0.9999593506452007,-0.0050354920791847784,0.005214256169885531,0.44891953938483037,0.00064030476659486,0.2500085529330819,0.02429567289838988,0.9993784585890951,-0.014228270432754445,0.021098801969029763,0.2651830940220474,-1.2058963684637938,-0.7302783456706892,0.8175642204504068,0.2031234744551237,0.4251158665568888,-0.09407328206663573,-0.19035479055874618,0.09698173586699284,-2.504962347040361,0.011660533725914465,2.3257296936632823,0.7887897660804707
0.44992175882630653,8.59103941176216e-05,0.24980791547560377,0.004897148867863764,0.9999587879846807,-0.00509247430322391,0.005262465956556128,0.44891953938483037,0.00064030476659486,0.2500085529330819,0.02429567289838988,0.9993784585890951,-0.014228270432754445,0.021098801969029763,0.25455194165815054,-1.219308517972176,-0.7221881242800329,0.8177507065339288,0.2022954143854684,0.44105967241193966,-0.09407144813534486,-0.19044960742081932,0.09699046130223087,-2.505099015870624,0.011638702412206612,2.325943048377135,0.7889098675248468
0.4498998210584864,8.667783797019123e-05,0.2498072895828121,0.004907849682115125,0.9999580324969622,-0.005132998133968015,0.005355853037787859,0.44891953938483037,0.00064030476659486,0.2500085529330819,0.02429567289838988,0.9993784585890951,-0.014228270432754445,0.021098801969029763,0.2788021822679523,-1.2185292036547353,-0.7095303385003148,0.8131003404118928,0.20711936566607667,0.44381998087453156,-0.09406573486412048,-0.1905507819353578,0.09698714866771005,-2.505244892353452,0.011633885113660846,2.3260825502477074,0.7889860630327765
0.4499087568426688,7.860207762853923e-05,0.24983995790470612,0.004914718992420677,0.9999568837459253,-0.0051723869485603225,0.0055235109276117085,0.44891953938483037,0.00064030476659486,0.2500085529330819,0.02429567289838988,0.9993784585890951,-0.014228270432754445,0.021098801969029763,0.3018135727147439,-1.2108675058026228,-0.706023405587271,0.8049866498425987,0.21155052204546013,0.44545544643358076,-0.09407002540904887,-0.19078384705241186,0.09699661712530942,-2.50550420476371,0.011631752563702863,2.3265285497316786,0.7890725213876141
0.44986896885592004,7.734266720623992e-05,0.2498381077926736,0.0049256498494992225,0.9999561592518446,-0.0051998402204327,0.0056183433074479365,0.44891953938483037,0.00064030476659486,0.2500085529330819,0.02429567289838988,0.9993784585890951,-0.014228270432754445,0.021098801969029763,0.2979379165882322,-1.2250421550702386,-0.6653748751645175,0.803803863539398,0.2025936878538709,0.44448519440931045,-0.0940681142293954,-0.19092903674442643,0.09699672530032062,-2.5056813275259424,0.011631987321636983,2.3267269002206397,0.7891285882073192
0.44981966696352654,7.512578246441556e-05,0.24980097642883858,0.004932339820065617,0.9999557329560462,-0.005219652595892013,0.005669739852829101,0.44891953938483037,0.00064030476659486,0.2500085529330819,0.02429567289838988,0.9993784585890951,-0.014228270432754445,0.021098801969029763,0.3061855214010293,-1.1829111623092714,-0.6599955751484103,0.794833739256993,0.20562305582100043,0.44085404609297973,-0.09406756295606385,-0.19105135948139637,0.09699444469186265,-2.505877425984882,0.011631752500897105,2.326881519956995,0.7891531311434028
0.44987622834984814,7.189450589114832e-05,0.2498300172030722,0.004939261710566339,0.999954260599513,-0.005234280733098658,0.005905021430203648,0.44891953938483037,0.00064030476659486,0.2500085529330819,0.02429567289838988,0.9993784585890951,-0.014228270432754445,0.021098801969029763,0.3090423949034942,-1.2236737260667434,-0.7805800085440113,0.801481645679687,0.21603262275304952,0.4422180262037013,-0.09406583217844763,-0.19113978091465464,0.09699452372287448,-2.5060536102755546,0.011630432044649211,2.3270344553658844,0.7891808124408752
0.44987871481001673,7.573171747164587e-05,0.24982954279594724,0.004944751117871762,0.9999534957824235,-0.0052378152073149,0.0060255763887763596,0.44891953938483037,0.00064030476659486,0.2500085529330819,0.02429567289838988,0.9993784585890951,-0.014228270432754445,0.021098801969029763,0.2526797482546937,-1.1894094407693152,-0.729511580912086,0.7864629035083814,0.2024214908876002,0.4329573138668493,-0.09406432766503559,-0.191276406010641,0.09700091486287891,-2.5062712016020012,0.011628184560662305,2.327666577505698,0.7892200351020063
0.4498869873901007,7.443391159492396e-05,0.24982696091476705,0.004950179061188137,0.9999526954214496,-0.0052422619255954915,0.006148813413059938,0.44891953938483037,0.00064030476659486,0.2500085529330819,0.02429567289838988,0.9993784585890951,-0.014228270432754445,0.021098801969029763,0.28280180465684324,-1.2130746028453445,-0.7557165627106947,0.7916204430949882,0.20666819246456655,0.4362962374630151,-0.09406433720455641,-0.1913411267261608,0.09700691762236259,-2.506389427873753,0.01162932876568424,2.3278802678734873,0.789231036342098
0.4498734828448185,7.102556941880951e-05,0.24982330280310533,0.004956599072404613,0.9999519412264231,-0.005260858326769393,0.006249584123298433,0.44891953938483037,0.00064030476659486,0.2500085529330819,0.02429567289838988,0.9993784585890951,-0.014228270432754445,0.021098801969029763,0.32531224751444654,-1.2174982670263461,-0.7350375330758804,0.7944978065082571,0.20745976075209033,0.43894715830202835,-0.09405866605649192,-0.19146472030296185,0.09700940190060205,-2.5066186892791134,0.01162670522298091,2.3283200886240105,0.789268034857873
0.449856510280832,7.443676999161753e-05,0.2498127264511287,0.004964185292814563,0.9999512801956044,-0.005260482921021088,0.006348857213058376,0.44891953938483037,0.00064030476659486,0.2500085529330819,0.02429567289838988,0.9993784585890951,-0.014228270432754445,0.021098801969029763,0.23786238385527214,-1.2023027103971407,-0.6776245262661588,0.7808044425148881,0.19130685023313826,0.4237349030233076,-0.09405863540110476,-0.19155876364036134,0.09701233422162571,-2.5067613845945744,0.011627314113748604,2.328487221599153,0.7892770271036359
