platonics-delft/platonics_dataset/execution_data/data_trial5.csv
current_pos_x,current_pos_y,current_pos_z,current_orientation_w,current_orientation_x,current_orientation_y,current_orientation_z,goal_pos_x,goal_pos_y,goal_pos_z,goal_orientation_w,goal_orientation_x,goal_orientation_y,goal_orientation_z,force_x,force_y,force_z,torque_x,torque_y,torque_z,joint_1,joint_2,joint_3,joint_4,joint_5,joint_6,joint_7
0.4504461426706765,0.00010116310666733238,0.24991244758209757,0.00042699711499982,0.9999725901028375,0.0012958206017204105,-0.0069386064527518195,0.4509952702076662,-0.00010145456997512364,0.2506340339132455,0.002653218078701766,0.9997826960633232,0.006348758593750561,-0.020865035581151326,-0.6534841019366118,0.3479282716556439,-1.3982123763283918,-0.04975684425781643,-0.22708695463563464,-0.21782384623821527,-0.09555311567100193,-0.17761367044323462,0.09567637190144739,-2.484823567830515,0.02132273695482666,2.2940155587878963,0.767091156414677
0.4504419647935372,0.00010211683168223047,0.2499084094331745,0.00042772678070168225,0.999972528668047,0.001296345204216842,-0.0069473118678787926,0.4509952702076662,-0.00010145456997512364,0.2506340339132455,0.002653218078701766,0.9997826960633232,0.006348758593750561,-0.020865035581151326,-0.6227601012747104,0.33834141675081303,-1.3847244728868382,-0.04257567916730392,-0.2238972420246733,-0.2177817314253356,-0.09555004466400983,-0.17761564088749235,0.09567386527333335,-2.4848251600148363,0.02132333366573132,2.294009265815133,0.767090699683106
0.4504445112630077,0.00010205407310109505,0.24991210005803954,0.0004282754215551547,0.999972553199737,0.0012999801663213437,-0.006943066536423265,0.4509952702076662,-0.00010145456997512364,0.2506340339132455,0.002653218078701766,0.9997826960633232,0.006348758593750561,-0.020865035581151326,-0.656850513152869,0.3348670037892323,-1.4238780313808026,-0.05083283644336088,-0.2278501834722148,-0.22657172738395537,-0.09555037568652917,-0.17761367335971173,0.0956738652913024,-2.4848277448790874,0.021325682136108696,2.294004196675106,0.7670917839494618
0.4504434439908443,0.00010188577898858714,0.2499094863999189,0.0004265237331485804,0.9999725257850146,0.0012994264471954068,-0.006947225169681019,0.4509952702076662,-0.00010145456997512364,0.2506340339132455,0.002653218078701766,0.9997826960633232,0.006348758593750561,-0.020865035581151326,-0.6416044880584987,0.328591131691174,-1.4102336420262116,-0.055505113431134456,-0.22510235146378701,-0.23418910903707538,-0.09554980505204534,-0.1776136707687629,0.09567345015380774,-2.484822420306428,0.021320350649993908,2.2940028522956264,0.7670880663117219
0.45044432941105644,0.00010233029966628154,0.24991162749377777,0.0004285316984664245,0.9999725347411904,0.0013015713306420672,-0.006945410708727287,0.4509952702076662,-0.00010145456997512364,0.2506340339132455,0.002653218078701766,0.9997826960633232,0.006348758593750561,-0.020865035581151326,-0.6396764817388111,0.35497886130365947,-1.3880991402283944,-0.06125199099864176,-0.22402888141866675,-0.2376374883417572,-0.09554792180049067,-0.1776136704794042,0.09567206431548592,-2.4848196333598915,0.021322965454606914,2.294003638503537,0.7670874763913423
0.450445543377481,9.903236623235125e-05,0.24991352200800696,0.0004290197051478568,0.9999725663125378,0.001295358573482992,-0.00694199572406914,0.4509952702076662,-0.00010145456997512364,0.2506340339132455,0.002653218078701766,0.9997826960633232,0.006348758593750561,-0.020865035581151326,-0.5960196641447146,0.3127284119057561,-1.434058724326439,-0.05326155659175156,-0.21268527068227255,-0.23552010369880497,-0.09554685182111305,-0.17761645775833934,0.09567457556201728,-2.484816613391538,0.02131925900635411,2.293999267603251,0.7670871393251529
0.4504455026443759,0.0001045915532912873,0.24991481819057543,0.00042715826072738377,0.9999725635161363,0.0012989932217690738,-0.00694183415307261,0.4509952702076662,-0.00010145456997512364,0.2506340339132455,0.002653218078701766,0.9997826960633232,0.006348758593750561,-0.020865035581151326,-0.649110643335721,0.3266944812944469,-1.415995351802182,-0.056254328607145354,-0.2219650158654143,-0.23382757867292414,-0.0955455299818027,-0.17761676726680137,0.09567639723432461,-2.484816548211184,0.021320941675707555,2.294003156705491,0.7670860694077338
0.4504455101970764,0.0001022888804515576,0.24991490673456035,0.0004288362376169946,0.9999725612668307,0.0013013053557244646,-0.006941621661404016,0.4509952702076662,-0.00010145456997512364,0.2506340339132455,0.002653218078701766,0.9997826960633232,0.006348758593750561,-0.020865035581151326,-0.6550397075896451,0.3892921008177628,-1.416105467775466,-0.059932429028402366,-0.2208296087870718,-0.23044817813790291,-0.09554578644206137,-0.17761119260458952,0.09567345014177955,-2.484816065272469,0.021320473860013567,2.2939992744355564,0.767090338781895
0.4504460427574533,0.000100777569387079,0.24991448087040943,0.00042817870092260634,0.99997255893463,0.0012986720678414903,-0.006942491311062198,0.4509952702076662,-0.00010145456997512364,0.2506340339132455,0.002653218078701766,0.9997826960633232,0.006348758593750561,-0.020865035581151326,-0.6135044697623412,0.3365998039719829,-1.4138203059853165,-0.05309688901016111,-0.21407748218568468,-0.22917682561698943,-0.09554397137959798,-0.17762230788240393,0.0956710812150762,-2.4848104437868983,0.02131986350883776,2.2940009592864197,0.7670907779698845
0.45044691704465095,0.00010040580059874722,0.24991640608614493,0.0004290028894591208,0.9999725751768851,0.0012991467012683725,-0.006940011706628481,0.4509952702076662,-0.00010145456997512364,0.2506340339132455,0.002653218078701766,0.9997826960633232,0.006348758593750561,-0.020865035581151326,-0.653811093911471,0.3583185438441949,-1.4051980260163168,-0.05404690185641438,-0.2191658216939923,-0.22344850610042175,-0.09555217147774463,-0.17761438239162108,0.09567637103730602,-2.484805048139587,0.0213222905831857,2.2939973878595565,0.7670893783992718
0.4504457941061555,9.874875298301085e-05,0.2499145120185454,0.000428430487646869,0.9999725546075213,0.0012966629375596723,-0.0069434745115359,0.4509952702076662,-0.00010145456997512364,0.2506340339132455,0.002653218078701766,0.9997826960633232,0.006348758593750561,-0.020865035581151326,-0.6299745504645302,0.3562026424272609,-1.3801375640398936,-0.05816808127785813,-0.2200547049537156,-0.2293136302544308,-0.09554896145298634,-0.17761687371709195,0.09567461063805151,-2.4848105277299104,0.02131986350814501,2.2939982011771227,0.7670909952510463
0.45044814861319415,9.837288707482352e-05,0.24991922566415775,0.0004288190476978515,0.9999725778581181,0.001297612382072341,-0.006939923785551034,0.4509952702076662,-0.00010145456997512364,0.2506340339132455,0.002653218078701766,0.9997826960633232,0.006348758593750561,-0.020865035581151326,-0.6089468004126934,0.31445161691519746,-1.3541211074283155,-0.04847397700680972,-0.2197716772306673,-0.22493880786437642,-0.09555072969205877,-0.1776126463942054,0.09567108121490935,-2.4848104090433933,0.0213198245886741,2.2939956713262086,0.7670867711410913
0.4504466877477973,0.00010228762873350048,0.24991537233148373,0.00043008939271599073,0.9999725421863415,0.0013003305285596849,-0.006944474854973357,0.4509952702076662,-0.00010145456997512364,0.2506340339132455,0.002653218078701766,0.9997826960633232,0.006348758593750561,-0.020865035581151326,-0.6448317811270419,0.33735892997078887,-1.3952523081537853,-0.05422911508439342,-0.2257312166830558,-0.2284714869305963,-0.09555228942999262,-0.1776157162760896,0.09567386527331628,-2.4848103407768516,0.021318994285579207,2.2939901915061998,0.7670931892370371
0.45044431406789703,0.0001002633501005486,0.24991318506480245,0.00042999664412601905,0.999972519870412,0.0013013820748456204,-0.0069474963534922945,0.4509952702076662,-0.00010145456997512364,0.2506340339132455,0.002653218078701766,0.9997826960633232,0.006348758593750561,-0.020865035581151326,-0.6441775689312209,0.3432919050648181,-1.4202042625510343,-0.057898121001522675,-0.2233971278560135,-0.2329370873295011,-0.09554939030222794,-0.17761430235817985,0.09567386561018937,-2.4848067576260684,0.021313910481544792,2.2939909028742047,0.7670910485653639
0.4504467201150948,9.996668237901118e-05,0.24991698231924456,0.00042829289027752784,0.9999725434212954,0.001297650700419924,-0.006944909317911827,0.4509952702076662,-0.00010145456997512364,0.2506340339132455,0.002653218078701766,0.9997826960633232,0.006348758593750561,-0.020865035581151326,-0.6277901221624097,0.34031421951557067,-1.3913474015656757,-0.05258165965207228,-0.2214782039997142,-0.2282887966082485,-0.0955495736985971,-0.17761367152834925,0.09567108251407695,-2.484807000028475,0.021314616550121273,2.293988160370786,0.7670876660762558
0.45044640477420234,0.00010229839606191696,0.249914630864662,0.00043000906828462364,0.9999725240140351,0.0012992316991928257,-0.0069473016489733945,0.4509952702076662,-0.00010145456997512364,0.2506340339132455,0.002653218078701766,0.9997826960633232,0.006348758593750561,-0.020865035581151326,-0.638764032365508,0.3396279231971715,-1.3752776724415798,-0.05272835588062648,-0.22266927337240422,-0.2233801108780357,-0.09555217153505259,-0.1776163756579857,0.09567187042336973,-2.4848100906076658,0.02131625309345488,2.2939838970316315,0.767088193883115
0.45044194366855866,9.561613202470279e-05,0.24991229060746434,0.00042945638834033747,0.9999724796823859,0.0012942714304384519,-0.006954638783293118,0.4509952702076662,-0.00010145456997512364,0.2506340339132455,0.002653218078701766,0.9997826960633232,0.006348758593750561,-0.020865035581151326,-0.6034925854301689,0.34462695671705473,-1.3800853938711506,-0.0521926072852959,-0.21967652975513813,-0.22698641480912973,-0.09554861558132922,-0.17761648087130238,0.09567196631138843,-2.4848039385887946,0.021314971874672798,2.293984608623717,0.7670872416362652
0.4504420779748266,0.00010390014689769632,0.2499128634236087,0.00043071306915141565,0.9999724724953023,0.0013059168364232675,-0.0069534173630962405,0.4509952702076662,-0.00010145456997512364,0.2506340339132455,0.002653218078701766,0.9997826960633232,0.006348758593750561,-0.020865035581151326,-0.6017502474027188,0.33340656934143775,-1.3964950620132461,-0.05365763969211529,-0.21745769129946588,-0.23118272448018248,-0.09554743612652226,-0.17760723464421496,0.09566857555979359,-2.484813111300517,0.021314582569322792,2.2939741213844855,0.7670910353129341
0.4504435545123226,9.5756743753257e-05,0.2499148212669411,0.0004304370438444389,0.9999725008978042,0.0012956669056565313,-0.0069512670402800585,0.4509952702076662,-0.00010145456997512364,0.2506340339132455,0.002653218078701766,0.9997826960633232,0.006348758593750561,-0.020865035581151326,-0.6264129292511431,0.31092579945586657,-1.383292504985128,-0.04428848974627266,-0.22192216671834367,-0.22660493491614384,-0.09554613664711141,-0.17761575944254365,0.09566882109168236,-2.484805514003525,0.021315546303748833,2.293974121385142,0.7670917589149402
0.45044085010998275,0.00010058104717527324,0.2499126312574787,0.00043062311582193536,0.9999724652716769,0.0013013509112655042,-0.006955317534444982,0.4509952702076662,-0.00010145456997512364,0.2506340339132455,0.002653218078701766,0.9997826960633232,0.006348758593750561,-0.020865035581151326,-0.644101006261509,0.3446009291169254,-1.3866580822300036,-0.05106139938769277,-0.2241780766425101,-0.2299542690546026,-0.09555213329671282,-0.17761041348297496,0.09566928585248675,-2.484810310392818,0.021312072207782973,2.2939708832534573,0.7670921323480012
0.45044211310595716,0.00010215795294833796,0.24991220837180703,0.0004319714940521537,0.9999724548036334,0.0013037755813570997,-0.006956284770557751,0.4509952702076662,-0.00010145456997512364,0.2506340339132455,0.002653218078701766,0.9997826960633232,0.006348758593750561,-0.020865035581151326,-0.6215110973278533,0.34466321595788735,-1.398385431941082,-0.05447965259577087,-0.22011929705518657,-0.23318093148497634,-0.095551905028808,-0.177607234650188,0.09567108121357466,-2.484809235927229,0.021310434495428073,2.293975117929534,0.7670906826390187
0.45044247316171754,9.882898993420366e-05,0.24991329264299897,0.00043169752131244735,0.9999724674161325,0.0013021413451497358,-0.006954794664938465,0.4509952702076662,-0.00010145456997512364,0.2506340339132455,0.002653218078701766,0.9997826960633232,0.006348758593750561,-0.020865035581151326,-0.6141552677194188,0.3410147284766013,-1.3996806493535572,-0.05527426453017323,-0.2159122647987836,-0.23524703791722965,-0.09554899240781124,-0.1776077345574479,0.095673865277341,-2.4848106124588045,0.021310438861639015,2.293970065251897,0.7670922063373725
0.4504396658517479,0.00010265335307657839,0.2499106804509649,0.0004318295547187319,0.9999724339832654,0.001304120285806195,-0.006959221296050026,0.4509952702076662,-0.00010145456997512364,0.2506340339132455,0.002653218078701766,0.9997826960633232,0.006348758593750561,-0.020865035581151326,-0.6223617973509799,0.30894430653747834,-1.360963479626545,-0.05455567211030896,-0.22069447985676593,-0.23778970584748008,-0.09554397138424027,-0.17761231639533936,0.09567394420002376,-2.484812289710618,0.021309762258279692,2.2939693530135683,0.767092297774946
0.45044194614305616,9.805323240887215e-05,0.2499131804886547,0.00043185525145775954,0.9999724604602962,0.0013000694448680919,-0.006956172471987753,0.4509952702076662,-0.00010145456997512364,0.2506340339132455,0.002653218078701766,0.9997826960633232,0.006348758593750561,-0.020865035581151326,-0.6609761622888659,0.3664422330472976,-1.4025882105278975,-0.062309923266133375,-0.22074876427859266,-0.23326117636428173,-0.09554685181571677,-0.1776050917155979,0.09567095293212276,-2.484806723888779,0.021313216348970775,2.2939688295723832,0.7670899259199313
0.4504436140798421,0.00010700277493595692,0.2499162145009198,0.00043267555877686114,0.9999724615760922,0.0013125232889790077,-0.006953621917341197,0.4509952702076662,-0.00010145456997512364,0.2506340339132455,0.002653218078701766,0.9997826960633232,0.006348758593750561,-0.020865035581151326,-0.6242781700268247,0.35543431936648423,-1.3698803341620474,-0.057955456755235335,-0.2190907335036347,-0.23500373243597295,-0.09554397137959797,-0.17761243846682942,0.0956739003493233,-2.4848065655984195,0.021307686141550316,2.293969552722128,0.767086958337959
0.4504408512907627,9.625872593362681e-05,0.2499121351560418,0.0004335571946830192,0.999972448173737,0.0013004428190364738,-0.006957762862444639,0.4509952702076662,-0.00010145456997512364,0.2506340339132455,0.002653218078701766,0.9997826960633232,0.006348758593750561,-0.020865035581151326,-0.6326026368899438,0.4035734078453591,-1.4025404059266149,-0.057502538340595925,-0.21719842213558455,-0.22862313030805856,-0.09554041993618015,-0.17761326846217057,0.09567321255282422,-2.4848039470456076,0.021305639941083657,2.2939634124623742,0.7670849270920836
0.4504426062884381,0.00010056485804819945,0.24990896410145005,0.0004316385675979449,0.9999724191958416,0.0013034734562563318,-0.006961478770171992,0.4509952702076662,-0.00010145456997512364,0.2506340339132455,0.002653218078701766,0.9997826960633232,0.006348758593750561,-0.020865035581151326,-0.597375324823094,0.29496728888663637,-1.3527966243417786,-0.056139795372719244,-0.2184303429530367,-0.2349754785043042,-0.09556281974880654,-0.17761535346593546,0.09567637093914329,-2.4848029747544764,0.02130488490774078,2.2939645846439802,0.767091008776664
0.4504446268742896,0.00010047260255980874,0.24991539676852906,0.0004334456505323761,0.9999724570461256,0.0013023518161215488,-0.006956137413772275,0.4509952702076662,-0.00010145456997512364,0.2506340339132455,0.002653218078701766,0.9997826960633232,0.006348758593750561,-0.020865035581151326,-0.4601075196818999,0.2837429105320022,-1.4769926648014062,-0.04770908407842439,-0.18921304046152412,-0.23606783229615277,-0.09554646427723877,-0.17760158334873494,0.09567322230811785,-2.484803108022156,0.021308691477530086,2.2939635250038566,0.7670924234823442
0.4504421360704308,0.00010338893045429234,0.24992126403300052,0.000434958406234874,0.9999724905409284,0.0013081998850863938,-0.006950128021458732,0.4509952702076662,-0.00010145456997512364,0.2506340339132455,0.002653218078701766,0.9997826960633232,0.006348758593750561,-0.020865035581151326,-0.6884676907659398,0.3566737888998217,-1.3699508954634303,-0.05371103216407285,-0.2336289158394068,-0.22673055567097,-0.09554437163369453,-0.17761999310511903,0.09567386527929192,-2.484802625984885,0.02130751360343276,2.293961763119319,0.767087133223233
0.4504427421727856,9.848795588182663e-05,0.24991418924919565,0.00043337906978917814,0.9999724415867962,0.001305338468661629,-0.006957803887573784,0.4509952702076662,-0.00010145456997512364,0.2506340339132455,0.002653218078701766,0.9997826960633232,0.006348758593750561,-0.020865035581151326,-0.8500230049527996,0.3721412378286956,-1.2864983365552503,-0.06263091991038694,-0.25863471338602534,-0.22962158874483307,-0.09554857033490878,-0.17761464912711017,0.09567111630754455,-2.4848033723825456,0.021306131836995472,2.293959934007977,0.7670923508946813
0.4504459549164175,0.00010208793820807999,0.2499112547069259,0.0004334066541999385,0.999972416095073,0.001310643976591157,-0.006960467935884607,0.4509952702076662,-0.00010145456997512364,0.2506340339132455,0.002653218078701766,0.9997826960633232,0.006348758593750561,-0.020865035581151326,-0.5684555409199541,0.3054065142261611,-1.4196653793156955,-0.05760204584769233,-0.20310765491327107,-0.2331763521577865,-0.09554857033490878,-0.17761464912711017,0.09567111630754455,-2.4848033723825456,0.021306131836995472,2.293959934007977,0.7670923508946813
0.45044309566806784,0.0001050503059931086,0.24991391110076622,0.00043396246379374357,0.9999724368943504,0.0013087094047537107,-0.006957808687955895,0.4509952702076662,-0.00010145456997512364,0.2506340339132455,0.002653218078701766,0.9997826960633232,0.006348758593750561,-0.020865035581151326,-0.4151258245068305,0.3050534584746771,-1.463568255907365,-0.03803653419406132,-0.1783665439823103,-0.21780706107531636,-0.09555211243178724,-0.1775913574261787,0.09567386819633213,-2.484792318397238,0.02130548153800777,2.2939605283472275,0.767089981332992
0.4504419684965519,0.00010023256845100218,0.2499194941998516,0.0004346067798268558,0.9999724654707535,0.001307303208399781,-0.006953924756471919,0.4509952702076662,-0.00010145456997512364,0.2506340339132455,0.002653218078701766,0.9997826960633232,0.006348758593750561,-0.020865035581151326,-0.6628114306190056,0.3668213229924237,-1.384000126982077,-0.04389305402452103,-0.22721116268022398,-0.20709783655605898,-0.09554434606106277,-0.17759850244117867,0.09567110753793796,-2.484794718092267,0.021304673072227963,2.2939605283472275,0.767087235324511
0.4504445381182958,9.63330460165808e-05,0.24991836763777503,0.00043522940752074363,0.9999724658260963,0.0013030981824000939,-0.006954623938573064,0.4509952702076662,-0.00010145456997512364,0.2506340339132455,0.002653218078701766,0.9997826960633232,0.006348758593750561,-0.020865035581151326,-0.8114476173960921,0.2792727014991622,-1.3116381836051298,-0.05447047359440421,-0.25311348640130926,-0.23158927690332576,-0.09554861605513706,-0.17762384460538472,0.09567613249044538,-2.484796976090724,0.021308068622024896,2.2939557599756455,0.7670874637089271
0.45044226709282337,0.00010081880356585768,0.24990884903024377,0.000434500338896288,0.9999723844277177,0.0013073434025239646,-0.00696556806981401,0.4509952702076662,-0.00010145456997512364,0.2506340339132455,0.002653218078701766,0.9997826960633232,0.006348758593750561,-0.020865035581151326,-0.5962790371588566,0.32943644977632,-1.3909734423571138,-0.06192942749959082,-0.2129107913677923,-0.24025236389652027,-0.09555214590842133,-0.1776132669685801,0.0956717674743753,-2.484797223547326,0.02130183064440061,2.2939546008828677,0.7670897796606301
0.45044369623531044,0.00010662183994525859,0.2499151556729983,0.0004352720447847802,0.9999724228363498,0.0013168046801296397,-0.006958219906657253,0.4509952702076662,-0.00010145456997512364,0.2506340339132455,0.002653218078701766,0.9997826960633232,0.006348758593750561,-0.020865035581151326,-0.44498949692399,0.35227051026875583,-1.4632294313912027,-0.0403879304333347,-0.18364028138502608,-0.2241497337032524,-0.09554656453693745,-0.17759313104438257,0.09567108122560529,-2.4847916200675875,0.02130490198536591,2.293955405472404,0.7670876535751201
0.4504442779883745,0.00010190877164171185,0.24992125425847225,0.0004360678129843649,0.9999724695901047,0.0013116304909059097,-0.006952425910280376,0.4509952702076662,-0.00010145456997512364,0.2506340339132455,0.002653218078701766,0.9997826960633232,0.006348758593750561,-0.020865035581151326,-0.68170612466029,0.3769406991045424,-1.3907159179012976,-0.050348983252807754,-0.22547542201924858,-0.2295587773284555,-0.09553332868111318,-0.1776006384574682,0.0956710815387978,-2.484791025964776,0.021299378481886646,2.2939550494065055,0.7670842086412525
0.4504457803484114,9.461379333737252e-05,0.24991753493092728,0.0004348895703299246,0.9999724606312581,0.0013025535392556912,-0.006955494114241835,0.4509952702076662,-0.00010145456997512364,0.2506340339132455,0.002653218078701766,0.9997826960633232,0.006348758593750561,-0.020865035581151326,-0.7985840656946115,0.3350674295391822,-1.316243605710536,-0.06451999673835614,-0.2488912619234914,-0.23874490382571995,-0.09554578638655041,-0.17761879157903213,0.09567413722052658,-2.4847968801636946,0.021299012205741215,2.293953522019916,0.7670887194476012
0.45044532954878463,0.00010427042557221668,0.2499129921039559,0.0004358224349921987,0.9999724066692743,0.0013136246490411568,-0.006961109320639628,0.4509952702076662,-0.00010145456997512364,0.2506340339132455,0.002653218078701766,0.9997826960633232,0.006348758593750561,-0.020865035581151326,-0.623868726302031,0.305735953800092,-1.4138213185972126,-0.0545952774074927,-0.21312854970869252,-0.23666404069510896,-0.09555713317836774,-0.17761085701126492,0.09567386527749154,-2.484792059002699,0.021300687414007913,2.2939550478808686,0.7670837368479078
0.45044598215627696,0.00010325701349912355,0.24991816971990644,0.00043567328670047063,0.9999724444642317,0.0013112851079479428,-0.00695612868191899,0.4509952702076662,-0.00010145456997512364,0.2506340339132455,0.002653218078701766,0.9997826960633232,0.006348758593750561,-0.020865035581151326,-0.49138419169748265,0.39767837360427793,-1.3738340334601151,-0.045624981623868556,-0.1971779719738073,-0.22128252727015707,-0.09554328181734333,-0.17760087467763686,0.09567386527333893,-2.484782866434534,0.02129970738663738,2.293956573723885,0.767086107268967
0.4504440900873592,0.00010000727060685351,0.2499186500872074,0.0004368135108985772,0.9999724423015215,0.001308534419845778,-0.006956886016834989,0.4509952702076662,-0.00010145456997512364,0.2506340339132455,0.002653218078701766,0.9997826960633232,0.006348758593750561,-0.020865035581151326,-0.6338826381702442,0.29098042865324447,-1.4384242928365358,-0.04304144714457621,-0.21400541051428104,-0.2292718149903158,-0.09553810452920944,-0.17760405399031365,0.09567107829728443,-2.484792882804905,0.02130023290876722,2.2939533905026894,0.7670869414982197
0.4504402653728763,9.374812331227116e-05,0.24991279323262017,0.00043543548874227687,0.9999723926779379,0.0013043101809296093,-0.006964893882337142,0.4509952702076662,-0.00010145456997512364,0.2506340339132455,0.002653218078701766,0.9997826960633232,0.006348758593750561,-0.020865035581151326,-0.6979660243359291,0.32133092937876917,-1.3118687349893492,-0.06080224220365322,-0.23876932885448454,-0.23208747689860204,-0.09555326460907908,-0.17761535161859668,0.09567329989053444,-2.484791743714067,0.02129960437449355,2.2939502795272397,0.7670834408616527
0.4504456370543981,0.0001065622954509284,0.24991740332619491,0.0004363666626614048,0.999972413039987,0.0013177833820182173,-0.006959373811965534,0.4509952702076662,-0.00010145456997512364,0.2506340339132455,0.002653218078701766,0.9997826960633232,0.006348758593750561,-0.020865035581151326,-0.629140547851982,0.3277633097017373,-1.420903848509014,-0.04762183967980698,-0.2206749927595698,-0.22297274965421052,-0.09554969131594877,-0.17760408947664122,0.09567394419449893,-2.4847941509166045,0.021297645402225902,2.293946519407879,0.7670850376183036
0.4504408352366214,9.899982296250991e-05,0.24991262662490712,0.00043734529488564,0.9999723710632704,0.0013133520650583418,-0.006966178247690758,0.4509952702076662,-0.00010145456997512364,0.2506340339132455,0.002653218078701766,0.9997826960633232,0.006348758593750561,-0.020865035581151326,-0.5010589728753316,0.337492367467158,-1.4493581083942644,-0.03368157039967711,-0.19792328338487034,-0.21427700433352254,-0.095537982251767,-0.17759843385079033,0.09567108218790758,-2.484783351447879,0.02129970039931408,2.2939475906677638,0.7670798034742233
0.450443622395289,9.67545181223439e-05,0.24992217714194312,0.00043717291290720393,0.9999724444292195,0.0013090297457327247,-0.006956464411358938,0.4509952702076662,-0.00010145456997512364,0.2506340339132455,0.002653218078701766,0.9997826960633232,0.006348758593750561,-0.020865035581151326,-0.6733883678875786,0.3210104112923419,-1.3775654899338754,-0.037489254852191824,-0.22932724270979488,-0.21217213598325985,-0.09554899576784866,-0.17760184644884758,0.09567108120136829,-2.4847917436248323,0.02129457256198021,2.293941978165138,0.7670868150581942
0.4504420743839931,9.522810338546819e-05,0.2499137859067192,0.00043604453743384056,0.9999723806114208,0.0013086139725942375,-0.006965780850045289,0.4509952702076662,-0.00010145456997512364,0.2506340339132455,0.002653218078701766,0.9997826960633232,0.006348758593750561,-0.020865035581151326,-0.7836699812685376,0.2937444489047096,-1.3324576998531914,-0.05013149734074382,-0.25025192203881863,-0.22168281914305013,-0.09555495515889098,-0.17762313313720948,0.09566857555979115,-2.4847910260853685,0.0212945725619796,2.2939407427840757,0.7670794456576356
0.45044577694973803,0.0001002346502974565,0.24991543256131277,0.00043789213849822895,0.9999723881218656,0.0013155625165601522,-0.006963277489533689,0.4509952702076662,-0.00010145456997512364,0.2506340339132455,0.002653218078701766,0.9997826960633232,0.006348758593750561,-0.020865035581151326,-0.6448491912820593,0.31628433105196496,-1.4397395495543257,-0.037338659216197584,-0.22045265670937494,-0.21512298556328527,-0.09555286214478902,-0.17760263754374608,0.09567386527333427,-2.4847910259692054,0.021295284097493917,2.2939414534006772,0.7670852290622687
0.45044486110133825,0.0001024918598526015,0.24991857725333314,0.0004383076538235968,0.9999723955757909,0.0013187339420065187,-0.006961580809556494,0.4509952702076662,-0.00010145456997512364,0.2506340339132455,0.002653218078701766,0.9997826960633232,0.006348758593750561,-0.020865035581151326,-0.5531888876456182,0.3559883840859387,-1.3526801289271946,-0.041820433125669666,-0.2136889457696655,-0.22092911900773227,-0.09554009758872285,-0.1776067651574931,0.0956745784850652,-2.4847844784354685,0.021295381440822485,2.293936491131587,0.7670882111715509
0.45044420104615956,9.877582308297453e-05,0.24991955423189385,0.0004381655862168418,0.9999724055791004,0.0013117194788060576,-0.006961478084936468,0.4509952702076662,-0.00010145456997512364,0.2506340339132455,0.002653218078701766,0.9997826960633232,0.006348758593750561,-0.020865035581151326,-0.5963101005697631,0.33470392950479155,-1.394484351411552,-0.04640129639886025,-0.21405925271290985,-0.2278259692380735,-0.09554319299021434,-0.17760155288486365,0.09567410203672365,-2.484785726579732,0.02129597262541739,2.2939366865154716,0.7670810703852216
0.4504441335776891,0.00010115873033223425,0.2499174057878996,0.0004385042811708891,0.9999723857179416,0.0013180667210022296,-0.006963110616271325,0.4509952702076662,-0.00010145456997512364,0.2506340339132455,0.002653218078701766,0.9997826960633232,0.006348758593750561,-0.020865035581151326,-0.6567801686257051,0.315842210728074,-1.3720539433088026,-0.04729862198338568,-0.22586794700357393,-0.227061197341067,-0.09554898257890457,-0.17761003565339523,0.0956738915923499,-2.484781650139505,0.021289778113367935,2.2939383395247996,0.7670883549311983
0.45044370183460225,0.00010347530059026083,0.249916279829528,0.0004384478379365158,0.9999723624698674,0.001318014386589314,-0.0069664619265736635,0.4509952702076662,-0.00010145456997512364,0.2506340339132455,0.002653218078701766,0.9997826960633232,0.006348758593750561,-0.020865035581151326,-0.6074841098770265,0.33805283063604985,-1.3708776994478022,-0.047090034417749685,-0.22132255510670745,-0.22478061840716418,-0.0955489739181668,-0.17760727784463523,0.09567108164705769,-2.484782083009419,0.02129220543592674,2.293937482848797,0.7670846830910989
0.4504447700268745,0.0001009065618994533,0.24991785142331513,0.0004386894911190683,0.9999723770723068,0.001315401728948636,-0.006964844290252505,0.4509952702076662,-0.00010145456997512364,0.2506340339132455,0.002653218078701766,0.9997826960633232,0.006348758593750561,-0.020865035581151326,-0.6252807772132541,0.2719612973771702,-1.4022765264186572,-0.041199096270376316,-0.2199288279893433,-0.23283466029242003,-0.09554578541375479,-0.177600901744644,0.09567202870219983,-2.484784615970657,0.021290982200282502,2.293931206040912,0.7670857590488891
0.45044145015929093,9.783347957386674e-05,0.24991757249326305,0.0004397452306471316,0.9999723665581278,0.001313019655969146,-0.006966736501973646,0.4509952702076662,-0.00010145456997512364,0.2506340339132455,0.002653218078701766,0.9997826960633232,0.006348758593750561,-0.020865035581151326,-0.6610644236126283,0.3502517555419032,-1.3892670769109068,-0.054135919141347875,-0.22770328427365544,-0.2329143267652489,-0.09554569397749604,-0.17760697706650522,0.09567389596029223,-2.48477870442248,0.021291197383998307,2.293932271324242,0.7670780138247714
0.45044342398316795,0.00010090055053826743,0.24991824523365191,0.0004410258566587678,0.9999723761436906,0.0013172670539491266,-0.006964477512728581,0.4509952702076662,-0.00010145456997512364,0.2506340339132455,0.002653218078701766,0.9997826960633232,0.006348758593750561,-0.020865035581151326,-0.6658831528910024,0.3405539537051945,-1.3895014066710152,-0.05112141659872375,-0.22687066677400017,-0.2292335459103463,-0.09554643757291495,-0.1776069326016027,0.09567386834483604,-2.4847898773549155,0.021286312338587417,2.2939286213042718,0.7670862029351487
0.4504427793762981,9.733912763789908e-05,0.2499158269021043,0.00043925304650023033,0.999972361718994,0.0013117641093627448,-0.006967698592185009,0.4509952702076662,-0.00010145456997512364,0.2506340339132455,0.002653218078701766,0.9997826960633232,0.006348758593750561,-0.020865035581151326,-0.6270396109115954,0.347262971149334,-1.3918415527859047,-0.048580929789025146,-0.2213699674532621,-0.22652827214211085,-0.09554077508052279,-0.17760408947663503,0.09567411081727667,-2.484783561895047,0.02128605259284088,2.2939313171226083,0.7670833702178672
0.45044254307306514,0.0001011171978800736,0.2499176759389753,0.0004402453034058327,0.9999723641108044,0.0013174174013092293,-0.006966225943248395,0.4509952702076662,-0.00010145456997512364,0.2506340339132455,0.002653218078701766,0.9997826960633232,0.006348758593750561,-0.020865035581151326,-0.5921044884942984,0.308425965779074,-1.4030425233426382,-0.044909406138701306,-0.21460783551110454,-0.230608832012769,-0.09554393202878464,-0.17760408899658664,0.09567708158112108,-2.484781996366627,0.021286918307344114,2.293928026585193,0.7670829665566147
0.4504457542394785,0.00010146156194885816,0.24992172563067494,0.0004408504790899645,0.9999724005209522,0.001318553203069846,-0.006960744100702909,0.4509952702076662,-0.00010145456997512364,0.2506340339132455,0.002653218078701766,0.9997826960633232,0.006348758593750561,-0.020865035581151326,-0.6341464804165422,0.322729868595953,-1.3912476124631061,-0.04658390060816035,-0.22291661208422414,-0.2284024260936588,-0.09554826844702094,-0.17760411524225267,0.0956741897664499,-2.484781364214981,0.021287617228668093,2.2939304858141902,0.7670832781727583
0.4504436371391636,0.00010088677046491367,0.24991899248597763,0.0004404432702828492,0.9999723684865061,0.0013189794098942909,-0.00696528967734048,0.4509952702076662,-0.00010145456997512364,0.2506340339132455,0.002653218078701766,0.9997826960633232,0.006348758593750561,-0.020865035581151326,-0.6452563795732733,0.34481456428754326,-1.3823322232244666,-0.04468448481020046,-0.22396278978965506,-0.2242484345010054,-0.09554077508111593,-0.1776015862604781,0.09567912503577221,-2.484785109835764,0.02128529665746889,2.293931407196851,0.7670784259925852
0.45044269878941623,9.788701684956996e-05,0.24991620328874445,0.00044101525499900147,0.9999723512738661,0.001314028076480641,-0.006968659655762507,0.4509952702076662,-0.00010145456997512364,0.2506340339132455,0.002653218078701766,0.9997826960633232,0.006348758593750561,-0.020865035581151326,-0.6102371760850118,0.35282757296602835,-1.3941349797375147,-0.043061981661614054,-0.2185294818833712,-0.2210807001397703,-0.09554077522486744,-0.17760503384058474,0.09567386527466996,-2.484785063596682,0.021284158591173337,2.293926442191486,0.7670824901954956
0.450443711213201,9.541600098652757e-05,0.24992032518433457,0.00044191211888972416,0.9999723833973875,0.0013135905318574683,-0.00696407423642341,0.4509952702076662,-0.00010145456997512364,0.2506340339132455,0.002653218078701766,0.9997826960633232,0.006348758593750561,-0.020865035581151326,-0.6211828047536546,0.3086821288385588,-1.4140039568160672,-0.045277051529654326,-0.21948877645514522,-0.22664186563886868,-0.09554647703338084,-0.1776040891419286,0.09567108218790756,-2.484781721638394,0.02128411325796149,2.2939283298429722,0.7670791323860504
0.45044356783744477,9.956194600233792e-05,0.24991808057708986,0.00044177334906251545,0.9999723648610096,0.0013174806786382972,-0.0069660095483970235,0.4509952702076662,-0.00010145456997512364,0.2506340339132455,0.002653218078701766,0.9997826960633232,0.006348758593750561,-0.020865035581151326,-0.6466899859842228,0.297539463315538,-1.3715444429219694,-0.04001454899151462,-0.22765098342064266,-0.22212547946978206,-0.09554397008048746,-0.17760416806227064,0.09567386559811113,-2.4847820791612087,0.0212809163291502,2.2939271497468288,0.7670806534204216
0.4504422960791421,0.0001004703642269244,0.24991784443375345,0.0004423785130557284,0.9999723588947248,0.0013167233044412653,-0.0069669707404956425,0.4509952702076662,-0.00010145456997512364,0.2506340339132455,0.002653218078701766,0.9997826960633232,0.006348758593750561,-0.020865035581151326,-0.6174225025513222,0.3408853203291475,-1.4424843831934158,-0.04066050729009867,-0.21823451307179206,-0.2216286559698064,-0.09554507606196401,-0.17760408899658603,0.09567386527378084,-2.484783915289249,0.02128257899432246,2.2939264376154944,0.7670828873293459
0.4504434368978863,9.554584055896143e-05,0.24991951931035722,0.0004419002984542846,0.9999723666196295,0.0013129041606089696,-0.006966613077059603,0.4509952702076662,-0.00010145456997512364,0.2506340339132455,0.002653218078701766,0.9997826960633232,0.006348758593750561,-0.020865035581151326,-0.6094078298627704,0.3483583538108994,-1.4132577696315356,-0.047343163362603934,-0.216891852320238,-0.22365684530247215,-0.09554611224831283,-0.17760725232061947,0.0956735278722408,-2.484780630599183,0.021277080754915433,2.293926090105808,0.7670876192358498
0.45044413258809285,9.981424131482702e-05,0.2499191755206056,0.0004439548859814777,0.9999723574946879,0.0013210352186796574,-0.006966255110182449,0.4509952702076662,-0.00010145456997512364,0.2506340339132455,0.002653218078701766,0.9997826960633232,0.006348758593750561,-0.020865035581151326,-0.6166079151716708,0.3135336444581109,-1.4711833378010382,-0.04240515535161812,-0.21118544097940675,-0.22329995383966797,-0.09554612188903912,-0.17760408899658595,0.09567895565162245,-2.4847840093530245,0.021276113089487667,2.2939216867662724,0.76708872424157
0.45044305951634095,9.807408314695316e-05,0.2499180028886519,0.0004437235484992151,0.9999723567760592,0.0013158103883916317,-0.006967361765279183,0.4509952702076662,-0.00010145456997512364,0.2506340339132455,0.002653218078701766,0.9997826960633232,0.006348758593750561,-0.020865035581151326,-0.641139121540248,0.36788680298605037,-1.3655710304268214,-0.03995021792217187,-0.22333747628570885,-0.21214050225221273,-0.09554646388609837,-0.17760503821084575,0.09567623582525533,-2.4847774085973726,0.021273524003493034,2.2939217919549595,0.7670865957371724
0.4504448514542772,9.672808599567845e-05,0.2499198195714886,0.0004454824568620582,0.9999723592384676,0.0013200613706577469,-0.006966091885525552,0.4509952702076662,-0.00010145456997512364,0.2506340339132455,0.002653218078701766,0.9997826960633232,0.006348758593750561,-0.020865035581151326,-0.642586863090184,0.30741403592426403,-1.3760207368300674,-0.03510850184930852,-0.22515759898071191,-0.21595173335856843,-0.09554901201078524,-0.17760373647214656,0.09567386504395156,-2.4847801926569413,0.021275396467149484,2.2939217889734134,0.7670876535572494
0.450443459078848,0.00010020081365197163,0.2499181808539184,0.00044615740591480126,0.999972339127484,0.0013226704163021036,-0.006968440296103897,0.4509952702076662,-0.00010145456997512364,0.2506340339132455,0.002653218078701766,0.9997826960633232,0.006348758593750561,-0.020865035581151326,-0.6157197818665872,0.3042305357814311,-1.3728261337286867,-0.037432240911922224,-0.22524265203870975,-0.21923126201453969,-0.09555134523318815,-0.1776093782301686,0.09567108218790756,-2.4847731688269326,0.021276719040508936,2.2939216693518074,0.7670833766930174
0.45044152514167113,9.86742847436203e-05,0.24991496352647075,0.0004432252250319064,0.9999723153526465,0.001317328108952121,-0.006973049555346941,0.4509952702076662,-0.00010145456997512364,0.2506340339132455,0.002653218078701766,0.9997826960633232,0.006348758593750561,-0.020865035581151326,-0.6278537717391929,0.30611662704036685,-1.402537659049531,-0.031414553234420994,-0.22687005905138896,-0.21407743287180447,-0.0955517667509228,-0.17760613392540917,0.09567131801210904,-2.484775756720883,0.021276346518034953,2.2939185576814203,0.7670835773354888
0.45044162501633506,9.707711644502943e-05,0.2499171266652364,0.0004447413115895364,0.9999723246082104,0.0013207281805742068,-0.006970982257087596,0.4509952702076662,-0.00010145456997512364,0.2506340339132455,0.002653218078701766,0.9997826960633232,0.006348758593750561,-0.020865035581151326,-0.642183078824261,0.3208513114943185,-1.4096951889016767,-0.03514756463705738,-0.2290546799908892,-0.21670994521155576,-0.09554996689366203,-0.17760408899256114,0.09567202837341196,-2.4847811905198895,0.0212726698497484,2.2939176260849425,0.7670885334299168
0.45044291485207666,9.624488319407135e-05,0.24991980519777954,0.0004451389633488304,0.9999723482169337,0.0013156401954364186,-0.006968531946785407,0.4509952702076662,-0.00010145456997512364,0.2506340339132455,0.002653218078701766,0.9997826960633232,0.006348758593750561,-0.020865035581151326,-0.6487625408459219,0.32834757442580564,-1.4370872403507935,-0.045407333201353345,-0.22131079223260697,-0.22356245164174499,-0.09555175796173955,-0.17760408899791938,0.09567108121491119,-2.4847809439204225,0.021271926640922183,2.2939175737571325,0.7670839821230595
0.4504450209207913,9.794914212422063e-05,0.24992211706324588,0.00044760072437624387,0.9999723571670639,0.001320452501171336,-0.006966179316585932,0.4509952702076662,-0.00010145456997512364,0.2506340339132455,0.002653218078701766,0.9997826960633232,0.006348758593750561,-0.020865035581151326,-0.6138878229994239,0.33723514623149003,-1.4036013412492474,-0.044996414724286976,-0.2154760026057791,-0.23093996515559362,-0.09555212237382134,-0.17760374844828977,0.09567386429680166,-2.484774167423896,0.021270251102025402,2.293916087123418,0.7670834628980197
0.45044436334066235,9.65437891129677e-05,0.24992088544066893,0.0004491483736940778,0.9999723500897465,0.0013208221203088984,-0.006967025505262644,0.4509952702076662,-0.00010145456997512364,0.2506340339132455,0.002653218078701766,0.9997826960633232,0.006348758593750561,-0.020865035581151326,-0.6374986749165275,0.3402161067815818,-1.39914218364705,-0.04790647626110156,-0.22132165009792015,-0.23201084651523468,-0.09554579515710582,-0.17760412739235942,0.09567109041575693,-2.4847745980374376,0.021263122910621463,2.2939169009260922,0.7670854911224718
0.45044630471302916,9.848262600998298e-05,0.24992283217960046,0.0004504870040491209,0.9999723567797174,0.0013281191389099634,-0.006964591235186037,0.4509952702076662,-0.00010145456997512364,0.2506340339132455,0.002653218078701766,0.9997826960633232,0.006348758593750561,-0.020865035581151326,-0.584362177723004,0.3090880967464861,-1.3853307396161776,-0.043905078935613476,-0.21609302344858278,-0.2329865864237621,-0.09554541598611274,-0.17761154381561434,0.09567386538161098,-2.4847728712353168,0.021262954172582383,2.2939176130029155,0.7670843764132512
0.45044536867519963,9.495719723883909e-05,0.24992123477252298,0.0004502272934574479,0.9999723323764299,0.0013212768902006269,-0.00696941160624758,0.4509952702076662,-0.00010145456997512364,0.2506340339132455,0.002653218078701766,0.9997826960633232,0.006348758593750561,-0.020865035581151326,-0.6459451843482867,0.3329262661537439,-1.3842870829543743,-0.047494836513069204,-0.2282177090032693,-0.22770539094469172,-0.095545648363226,-0.1776009147108674,0.09567108155055405,-2.4847757175630805,0.021257546938053026,2.2939143751062803,0.7670876470394564
0.45044235771138635,9.695173545443245e-05,0.24991642870000416,0.00045050216545699856,0.9999722955548641,0.001324729474378236,-0.006974020077468818,0.4509952702076662,-0.00010145456997512364,0.2506340339132455,0.002653218078701766,0.9997826960633232,0.006348758593750561,-0.020865035581151326,-0.6252690896045806,0.3369902719241571,-1.4019378954395394,-0.04296509061867586,-0.22287902478343025,-0.2254562095624752,-0.09554644098291487,-0.177601639239245,0.09567321207962538,-2.4847773856348394,0.021258155341279703,2.293912844631412,0.7670808909114619
0.45044353785505314,9.620340577826018e-05,0.24992068578076684,0.00045261641711672905,0.9999723307001575,0.0013258466595946902,-0.0069686294765709525,0.4509952702076662,-0.00010145456997512364,0.2506340339132455,0.002653218078701766,0.9997826960633232,0.006348758593750561,-0.020865035581151326,-0.6246366667047224,0.324860243890578,-1.3923626677221186,-0.03637817108889324,-0.2226083836940763,-0.21953279403012865,-0.09554602315098225,-0.1776065428802689,0.09567118676630602,-2.484777596689085,0.021253760104516496,2.293909465562839,0.7670846772844283
0.4504442590945149,9.644551289984216e-05,0.24991884527788014,0.0004522838839303465,0.9999723116301608,0.001326645138037728,-0.006971235088634533,0.4509952702076662,-0.00010145456997512364,0.2506340339132455,0.002653218078701766,0.9997826960633232,0.006348758593750561,-0.020865035581151326,-0.6196020384389629,0.31552513175292446,-1.3835450424093731,-0.04262050372088975,-0.2200777844227578,-0.2159400344203713,-0.09555103063663911,-0.1776040875564946,0.09567386560271468,-2.4847723100240127,0.021256420853473974,2.293912090830635,0.7670838663824109
0.45044150930441507,9.623688132659614e-05,0.249918523875291,0.00045238285557251223,0.9999722937715052,0.0013256621715078867,-0.0069739768130160865,0.4509952702076662,-0.00010145456997512364,0.2506340339132455,0.002653218078701766,0.9997826960633232,0.006348758593750561,-0.020865035581151326,-0.6154153646145866,0.29350841413424034,-1.3665960016345242,-0.026986062533831897,-0.22221193471988102,-0.21145161147754954,-0.09554613551051344,-0.1776068730558344,0.09567639723410644,-2.48477979708615,0.021252140429787004,2.2939110061984636,0.7670832590220193
0.4504437465070958,9.688151214442741e-05,0.24992231880923169,0.0004547192587752922,0.9999723255373802,0.0013286799818474488,-0.0069686937729751776,0.4509952702076662,-0.00010145456997512364,0.2506340339132455,0.002653218078701766,0.9997826960633232,0.006348758593750561,-0.020865035581151326,-0.6248934500025092,0.3112360364567448,-1.407630298498456,-0.037471135060574465,-0.2204660683087598,-0.2180890692631781,-0.09554967475940782,-0.1776068630077067,0.09566857556152418,-2.4847720933019306,0.021254072969158537,2.2939095306661437,0.767086214046063
0.4504403265087542,9.710181212966762e-05,0.24991623317708647,0.000455908836110202,0.9999722623896141,0.001333987179872212,-0.006976658964147503,0.4509952702076662,-0.00010145456997512364,0.2506340339132455,0.002653218078701766,0.9997826960633232,0.006348758593750561,-0.020865035581151326,-0.607830845368154,0.28663007238718324,-1.4085909859304635,-0.037902035130837924,-0.2181973594202753,-0.22552521613299314,-0.09554896965590472,-0.17760131167137885,0.0956746018695174,-2.4847719633745995,0.021244761653030086,2.293908651834621,0.7670864715659427
0.4504407933705841,9.785303931662188e-05,0.24991693878189616,0.00045617710006536576,0.9999722713057356,0.0013328977624307305,-0.00697557160660788,0.4509952702076662,-0.00010145456997512364,0.2506340339132455,0.002653218078701766,0.9997826960633232,0.006348758593750561,-0.020865035581151326,-0.6211202582316019,0.33576746764391785,-1.3907168236777234,-0.04195526089415017,-0.2220529775121128,-0.22452759082094073,-0.0955407750985651,-0.1776010220898334,0.09567211054215864,-2.4847774915986003,0.021242713025451655,2.293907126273165,0.7670787393872284
0.45044340253130194,9.566474666421038e-05,0.249921913846557,0.00045549112984412496,0.9999723074032546,0.0013278287092498972,-0.006971407247302087,0.4509952702076662,-0.00010145456997512364,0.2506340339132455,0.002653218078701766,0.9997826960633232,0.006348758593750561,-0.020865035581151326,-0.6245639740231784,0.3424806774224906,-1.390182675794782,-0.038762666900101196,-0.22327020551376492,-0.22309854260192852,-0.09554603597383894,-0.17760196212552185,0.09567387404411774,-2.4847695178888274,0.02124377239682092,2.2939086509770723,0.7670885625582817
0.4504405117734044,9.661619332357136e-05,0.24992006103204548,0.00045619464949196806,0.9999722871320015,0.001328702396673568,-0.006974101950295015,0.4509952702076662,-0.00010145456997512364,0.2506340339132455,0.002653218078701766,0.9997826960633232,0.006348758593750561,-0.020865035581151326,-0.57419972880911,0.32549321728219466,-1.4179807716289503,-0.03456967962321916,-0.21138509248728127,-0.22236719460332396,-0.09554329094868688,-0.17760684681067818,0.09567108121358037,-2.4847738624636704,0.021242703968873355,2.293907484466809,0.7670876489246774
0.45044410548601466,9.75223046278874e-05,0.24992221100203776,0.00045729644738425306,0.999972312034183,0.0013332976096297304,-0.006969580764381033,0.4509952702076662,-0.00010145456997512364,0.2506340339132455,0.002653218078701766,0.9997826960633232,0.006348758593750561,-0.020865035581151326,-0.6301870098800006,0.29112063144481237,-1.3973663835769556,-0.03545793863855218,-0.221489989606156,-0.22689940768474715,-0.09554573069437179,-0.17760370924177638,0.09567408544734993,-2.484769108002164,0.02123718605387361,2.2939070078644517,0.7670805238496039
0.4504437436028111,9.610724191045732e-05,0.24992096413631534,0.00045869930298636914,0.9999722973020434,0.0013341732091031986,-0.006971434489204318,0.4509952702076662,-0.00010145456997512364,0.2506340339132455,0.002653218078701766,0.9997826960633232,0.006348758593750561,-0.020865035581151326,-0.6536118872790558,0.3507154522975647,-1.360024831281741,-0.0391532549311963,-0.22795381346594307,-0.22494025186373615,-0.09554098424134382,-0.17760408899664093,0.09567386965320311,-2.4847716777429345,0.021239890194958064,2.2939070065710863,0.7670807562309481
0.4504423559794245,9.334236197610924e-05,0.24992112949167947,0.00045950606207298145,0.9999722950263176,0.001330823142894043,-0.006972348051373283,0.4509952702076662,-0.00010145456997512364,0.2506340339132455,0.002653218078701766,0.9997826960633232,0.006348758593750561,-0.020865035581151326,-0.6529142633187682,0.32415593808866733,-1.383176089371366,-0.03866929366485981,-0.2265217647118083,-0.2254769483540144,-0.09554891739321096,-0.17760125448234704,0.09567386527472496,-2.4847687806839587,0.021235257129891657,2.2939045998774463,0.7670830592573524
0.4504431270108879,9.352367512265813e-05,0.2499214162977738,0.0004599431170599555,0.9999722863659557,0.0013340516484074074,-0.006972944294850854,0.4509952702076662,-0.00010145456997512364,0.2506340339132455,0.002653218078701766,0.9997826960633232,0.006348758593750561,-0.020865035581151326,-0.5900341546286991,0.33269177421741464,-1.4787022041022926,-0.041151521549420644,-0.2101293562910387,-0.22636782738507996,-0.09554328073437925,-0.17759948660560676,0.09567603251869217,-2.484768559943533,0.021234305206624202,2.2939030738303146,0.7670855335875129
0.4504407701991813,9.377029242305152e-05,0.24991897622181528,0.0004612008205532659,0.9999722524177246,0.0013357098641141344,-0.006977410775564453,0.4509952702076662,-0.00010145456997512364,0.2506340339132455,0.002653218078701766,0.9997826960633232,0.006348758593750561,-0.020865035581151326,-0.6352402156672213,0.3465136357630942,-1.3442890288989793,-0.04345664927253977,-0.23028629676442577,-0.2230557493236288,-0.09554397121921415,-0.1776015832328776,0.09567108223602276,-2.4847677474791325,0.02123058448163027,2.293903069308158,0.7670862924428004
0.45044237201112475,9.420709759412817e-05,0.2499205625814387,0.0004611212413474033,0.9999722701065813,0.0013353643105086439,-0.00697494665213796,0.4509952702076662,-0.00010145456997512364,0.2506340339132455,0.002653218078701766,0.9997826960633232,0.006348758593750561,-0.020865035581151326,-0.6210361113050507,0.3542979720102836,-1.4010046110592587,-0.04020691675847091,-0.2224582685664911,-0.21700070204316307,-0.0955460972826693,-0.17760117135797662,0.09567637103537525,-2.484771566101664,0.02123137285027296,2.2938983010983773,0.767085278829552
0.45043878706192325,9.382135270643025e-05,0.24991703870450072,0.00046138694330197775,0.9999722380153098,0.0013344264280894967,-0.006979707759789925,0.4509952702076662,-0.00010145456997512364,0.2506340339132455,0.002653218078701766,0.9997826960633232,0.006348758593750561,-0.020865035581151326,-0.6109457260245604,0.2469713095122712,-1.3927335682071018,-0.033190341691007624,-0.2212949209943146,-0.2283033782145553,-0.0955489347707756,-0.17760408867256552,0.09566960149616958,-2.4847663847407926,0.021228176001819737,2.293898301116027,0.7670801803400308
0.45044226732766346,9.460221095322712e-05,0.24992009856484268,0.00046045934509782453,0.9999722570518014,0.0013339759242674842,-0.006977127325732926,0.4509952702076662,-0.00010145456997512364,0.2506340339132455,0.002653218078701766,0.9997826960633232,0.006348758593750561,-0.020865035581151326,-0.59473665993135,0.3314761203334366,-1.360671996196851,-0.04197409021432995,-0.22274573337137457,-0.22258423193740878,-0.09553734249903885,-0.17760687197627067,0.09567955736079331,-2.4847671071343735,0.021228777153220916,2.2938975890212587,0.767083201546908
0.4504419454176069,9.394209888545807e-05,0.24992059007891146,0.0004621562811764459,0.9999722533394398,0.001335325872674673,-0.006977288956312736,0.4509952702076662,-0.00010145456997512364,0.2506340339132455,0.002653218078701766,0.9997826960633232,0.006348758593750561,-0.020865035581151326,-0.6218529196823592,0.3366877371478639,-1.4252478818109997,-0.043664383778031925,-0.22502058806667705,-0.22457219108980292,-0.09554327163451734,-0.17760368712358796,0.09567116046080217,-2.484769797913679,0.021228035750381825,2.293890349449467,0.7670803539567668
0.4504416570425972,9.298342139097164e-05,0.24992204846023383,0.000461606687713952,0.9999722573018879,0.0013335301754178889,-0.0069771008791852055,0.4509952702076662,-0.00010145456997512364,0.2506340339132455,0.002653218078701766,0.9997826960633232,0.006348758593750561,-0.020865035581151326,-0.6324787533855285,0.3295433044729224,-1.4122428644748661,-0.040347457792225115,-0.22986523340020548,-0.22330794896813563,-0.09554294510905315,-0.17759842075736004,0.09566857570413798,-2.4847702708256114,0.02122607848648723,2.2938902902420546,0.7670836517142356
0.4504408368142068,9.563397269011848e-05,0.24992229062197016,0.000462121599252548,0.9999722501976237,0.001337918782845946,-0.00697724481274574,0.4509952702076662,-0.00010145456997512364,0.2506340339132455,0.002653218078701766,0.9997826960633232,0.006348758593750561,-0.020865035581151326,-0.6178436161709335,0.28732895751930526,-1.4074054770048927,-0.03720847912826236,-0.2232426761835264,-0.2267738069656329,-0.09554327748667699,-0.17760411534843407,0.09567457654971524,-2.484766108919978,0.021223379256479675,2.2938887643549175,0.76708585863987
0.4504423302525871,9.299222804559088e-05,0.24992209060678203,0.000462865957073802,0.9999722511442953,0.001334317741644005,-0.006977749368134497,0.4509952702076662,-0.00010145456997512364,0.2506340339132455,0.002653218078701766,0.9997826960633232,0.006348758593750561,-0.020865035581151326,-0.6002711205772214,0.3314936513121021,-1.3931029214188244,-0.039171242162205945,-0.21880559213258338,-0.22252544200762994,-0.09554232345222399,-0.17760687305634473,0.095671072436813,-2.484767890844048,0.02122266701554204,2.2938895781563327,0.7670843522737208
0.4504392587819023,9.86161600528118e-05,0.24991807576516345,0.0004631038692635135,0.9999722005679459,0.0013402768442905642,-0.006983836880550052,0.4509952702076662,-0.00010145456997512364,0.2506340339132455,0.002653218078701766,0.9997826960633232,0.006348758593750561,-0.020865035581151326,-0.6500486956489616,0.3268121342708708,-1.3351378497569992,-0.044306054323434915,-0.2331957089156839,-0.2225468940844435,-0.09554225367515953,-0.17760687451243726,0.09567179247659174,-2.484767774418971,0.021219470204349798,2.2938895723428,0.767083337450426
0.45044178436649107,9.303023075830737e-05,0.24992099714039587,0.00046451518009525623,0.9999722320037943,0.0013377040347352371,-0.006979734123405159,0.4509952702076662,-0.00010145456997512364,0.2506340339132455,0.002653218078701766,0.9997826960633232,0.006348758593750561,-0.020865035581151326,-0.6217631414800132,0.3275433282405104,-1.4017387511768722,-0.0426870021304992,-0.22342634267188563,-0.22562791688031633,-0.09554256167662246,-0.1776030654155301,0.09567389450332044,-2.4847686051585116,0.02122363364290399,2.2938852996500185,0.7670805262183844
0.45044002207811434,9.46216225603268e-05,0.2499196062258221,0.000464918511679696,0.9999722097226593,0.0013404548399974072,-0.0069823711922383565,0.4509952702076662,-0.00010145456997512364,0.2506340339132455,0.002653218078701766,0.9997826960633232,0.006348758593750561,-0.020865035581151326,-0.6246320581702953,0.3348282538967512,-1.4044526503284491,-0.04618744894118227,-0.2232872815414769,-0.22826607971441168,-0.09553761820583634,-0.1776040890103567,0.09567131801671987,-2.4847711677938524,0.021222524778024086,2.2938821112582617,0.7670833911466832
0.450441566720339,9.462672149568164e-05,0.24992179386993893,0.00046459413397739074,0.9999722324181892,0.0013380240487818956,-0.006979608157681235,0.4509952702076662,-0.00010145456997512364,0.2506340339132455,0.002653218078701766,0.9997826960633232,0.006348758593750561,-0.020865035581151326,-0.620142396277748,0.3339111059779911,-1.384075386676494,-0.044568192253587526,-0.22445433136667176,-0.2264899465247856,-0.0955429452274108,-0.17760466971590955,0.09566962917471791,-2.484761027605027,0.021219591109093883,2.2938855238005385,0.7670862056070317
0.45043999404596147,9.432073543919605e-05,0.24991885240163705,0.00046485587958844344,0.9999722113589641,0.0013360794665514307,-0.006982979598645035,0.4509952702076662,-0.00010145456997512364,0.2506340339132455,0.002653218078701766,0.9997826960633232,0.006348758593750561,-0.020865035581151326,-0.6108216087146273,0.3347562282407382,-1.361397689388958,-0.03833167787336532,-0.22754464988526596,-0.22629514372648404,-0.0955406960390472,-0.1776040888525769,0.09567389259119385,-2.484765515297837,0.021222395692106197,2.293883995983336,0.7670815584517391
0.4504396823562243,9.560511395757351e-05,0.24992193353513087,0.00046520283206768787,0.999972214752376,0.0013429067510807705,-0.00698116068175317,0.4509952702076662,-0.00010145456997512364,0.2506340339132455,0.002653218078701766,0.9997826960633232,0.006348758593750561,-0.020865035581151326,-0.6246967138171978,0.33276665144897694,-1.4067055610359154,-0.047162345155062256,-0.22584960666881748,-0.22749864506322937,-0.09554340998994285,-0.17760196309712264,0.09567695229721274,-2.4847655492301426,0.02121980535804841,2.293884809785419,0.7670839597190452
0.45044154278873083,9.451735576157789e-05,0.2499215841255003,0.00046493945528932505,0.9999722168026598,0.0013374691863670242,-0.006981928370898972,0.4509952702076662,-0.00010145456997512364,0.2506340339132455,0.002653218078701766,0.9997826960633232,0.006348758593750561,-0.020865035581151326,-0.5917246198842205,0.31197813470591057,-1.4444705058926104,-0.03949335057565067,-0.2143098448804827,-0.21700710972445822,-0.09554085355506613,-0.17760715585118114,0.09567386529072731,-2.484762552021351,0.02121919498840953,2.29388121878961,0.7670830853431757
0.45043862837732057,9.292922241690402e-05,0.2499203755702912,0.00046601431144555164,0.9999722049124089,0.0013388640275807885,-0.006983292196234934,0.4509952702076662,-0.00010145456997512364,0.2506340339132455,0.002653218078701766,0.9997826960633232,0.006348758593750561,-0.020865035581151326,-0.6215769258057836,0.3195707667562264,-1.358516144910156,-0.03849617663179347,-0.2227713355088177,-0.21742842688856495,-0.09554077506248695,-0.17760408910474107,0.09567108125032842,-2.484765255603481,0.021219194988307658,2.2938793455347644,0.7670837212964943
0.45044146095254683,9.287544762496193e-05,0.2499223255713776,0.00046699641239376656,0.9999722220452675,0.0013380515948534463,-0.006980928566229712,0.4509952702076662,-0.00010145456997512364,0.2506340339132455,0.002653218078701766,0.9997826960633232,0.006348758593750561,-0.020865035581151326,-0.6124029385857538,0.3303426007201386,-1.3894886832870659,-0.04482498193132878,-0.22073306357650416,-0.22345930483037177,-0.09554114986686596,-0.1776069225565203,0.09567410203682206,-2.4847672274793053,0.021214863136933132,2.293880640462593,0.7670828938653482
0.4504415027808916,9.328252503369761e-05,0.24992237857361005,0.0004651003207901078,0.999972222047491,0.0013391748428099308,-0.00698083944356736,0.4509952702076662,-0.00010145456997512364,0.2506340339132455,0.002653218078701766,0.9997826960633232,0.006348758593750561,-0.020865035581151326,-0.6149126782243491,0.3356347203972676,-1.4010136019473867,-0.04805256329946831,-0.2205287411420166,-0.22448965700536655,-0.09554507620587578,-0.1776066368453378,0.09567670545280263,-2.4847629959605086,0.021216748881177187,2.2938777017328476,0.7670851823221386
0.45044041151416736,9.054736641547054e-05,0.249920203568761,0.00046615802644183043,0.999972210065938,0.0013363821516224797,-0.0069830200358062915,0.4509952702076662,-0.00010145456997512364,0.2506340339132455,0.002653218078701766,0.9997826960633232,0.006348758593750561,-0.020865035581151326,-0.6164511060159283,0.33679320339061686,-1.3968163800589801,-0.04657231737610332,-0.22308511033256118,-0.22652566788298864,-0.09553759193360344,-0.1776068613916041,0.09567457946068758,-2.4847627516079744,0.02121440261957605,2.2938775740917547,0.7670837106116584
0.4504419557831464,9.32433702887485e-05,0.24992387559603965,0.00046596023241312056,0.9999722351987987,0.0013372600005886089,-0.0069792651330406776,0.4509952702076662,-0.00010145456997512364,0.2506340339132455,0.002653218078701766,0.9997826960633232,0.006348758593750561,-0.020865035581151326,-0.6011742607304655,0.3253338364367944,-1.419387025489837,-0.043704254091285415,-0.2190955082990668,-0.22714271548963402,-0.09554296180251974,-0.1776068730563449,0.09567116013454684,-2.484767931419947,0.021219030657880705,2.293878162316239,0.767088911429085
0.4504429233248041,9.418106096739336e-05,0.2499252308578242,0.0004664686018429778,0.9999722367743097,0.0013397115483639419,-0.006978535239519205,0.4509952702076662,-0.00010145456997512364,0.2506340339132455,0.002653218078701766,0.9997826960633232,0.006348758593750561,-0.020865035581151326,-0.6454863814196186,0.33346122234859643,-1.4268808977816245,-0.051067306350092705,-0.2228402451525384,-0.2266043501352336,-0.09554327777521887,-0.17760408899658603,0.09567386917200768,-2.484767438389562,0.02121759746776944,2.293880276720197,0.7670857480803006
0.4504378232417689,9.208172919365293e-05,0.24991804635148585,0.00046668855281770013,0.9999721739438794,0.0013402388321176325,-0.006987416769254675,0.4509952702076662,-0.00010145456997512364,0.2506340339132455,0.002653218078701766,0.9997826960633232,0.006348758593750561,-0.020865035581151326,-0.5947718114978304,0.3268474093692138,-1.3562000028939587,-0.03968979708026895,-0.22164817728607064,-0.22420060648090373,-0.09553791111341274,-0.17760734386517768,0.09567410236120931,-2.4847562182335263,0.021214521230885977,2.293877701732847,0.7670796817722061
0.45044273733123014,9.359786794261531e-05,0.24992512247385232,0.00046602090588293414,0.9999722304854161,0.0013421204675517784,-0.006979003413906889,0.4509952702076662,-0.00010145456997512364,0.2506340339132455,0.002653218078701766,0.9997826960633232,0.006348758593750561,-0.020865035581151326,-0.6206462319996384,0.34799460874982185,-1.3848843203696666,-0.0499581405022447,-0.22355046348895596,-0.23085008536898818,-0.09553840745150513,-0.17760382717951154,0.09567165347801664,-2.484755489888975,0.02121379188848844,2.2938753363783593,0.767081800306368
0.4504411527252935,9.377360848824448e-05,0.24992250987961545,0.00046666041129430827,0.9999722053738371,0.0013418830863178523,-0.006982603461064851,0.4509952702076662,-0.00010145456997512364,0.2506340339132455,0.002653218078701766,0.9997826960633232,0.006348758593750561,-0.020865035581151326,-0.6488993782231993,0.34698968573974537,-1.3604870293861608,-0.049112972175123566,-0.23326242282027596,-0.2287777666682139,-0.09554495874181483,-0.17760687305618017,0.09567108251446907,-2.484757965256621,0.021213792050853452,2.2938748173060985,0.7670824166639783
0.450441420413857,9.465972962312304e-05,0.24992190575362486,0.0004662227943053893,0.9999722010476706,0.0013436178743378422,-0.006982918633008435,0.4509952702076662,-0.00010145456997512364,0.2506340339132455,0.002653218078701766,0.9997826960633232,0.006348758593750561,-0.020865035581151326,-0.6179873322387045,0.3058764835202219,-1.4139647125004677,-0.042311372730329595,-0.22366391296883215,-0.22993824134760132,-0.09554327766562394,-0.17760686868651268,0.09567318574799587,-2.4847595512122065,0.021214402219335616,2.2938737471633486,0.7670786533883869
0.4504413819611628,9.336038853035633e-05,0.24992478334929374,0.0004669847056179913,0.9999722230922166,0.0013406060157780094,-0.006980289269691577,0.4509952702076662,-0.00010145456997512364,0.2506340339132455,0.002653218078701766,0.9997826960633232,0.006348758593750561,-0.020865035581151326,-0.626421477417857,0.35559472662120023,-1.409256430141085,-0.05269543096857142,-0.22606963409089145,-0.23221001488683699,-0.09553688149789845,-0.17760158334280293,0.09567625920926702,-2.4847595990338585,0.02121536968648342,2.293875273042177,0.7670807508635071
0.4504420281839484,9.200437551025493e-05,0.24992390091434413,0.00046606752209840565,0.9999722150877975,0.0013384975499308102,-0.006981901695655916,0.4509952702076662,-0.00010145456997512364,0.2506340339132455,0.002653218078701766,0.9997826960633232,0.006348758593750561,-0.020865035581151326,-0.6386305255107283,0.3422723470592341,-1.4298576190634136,-0.05089506788079394,-0.22441778419021058,-0.23054910223056482,-0.09554537414878689,-0.17760172687458678,0.09566928878350282,-2.484755743069039,0.021213932649849845,2.2938737465881522,0.7670793776337675
0.4504431710261886,9.156336703732957e-05,0.24992501409239318,0.0004677365060390094,0.9999722221177926,0.0013406584848014349,-0.006980368448343368,0.4509952702076662,-0.00010145456997512364,0.2506340339132455,0.002653218078701766,0.9997826960633232,0.006348758593750561,-0.020865035581151326,-0.6079600719734599,0.3357969085101015,-1.4095737031972149,-0.04734598190296151,-0.22244519053842202,-0.2284878858127463,-0.09554317506930513,-0.1776015833548039,0.0956710822961998,-2.4847557410327763,0.021213039809805087,2.2938731802543284,0.7670787654793156
0.4504404957185876,9.397114033981343e-05,0.24992255200961883,0.00046749036308161527,0.9999721945410629,0.0013410445448938423,-0.006984260196849904,0.4509952702076662,-0.00010145456997512364,0.2506340339132455,0.002653218078701766,0.9997826960633232,0.006348758593750561,-0.020865035581151326,-0.6142405530067285,0.33349406788000446,-1.3962290548815888,-0.04771463436585101,-0.22190201948617888,-0.22779795765961977,-0.09554292575215116,-0.1776015933821073,0.09567389190559436,-2.484758432055056,0.02120865826483371,2.293873374678988,0.7670867611826563
0.45044076359863644,9.030447281710586e-05,0.2499224765556434,0.00046731398238308896,0.9999721857652039,0.0013408588370029451,-0.0069855640188585194,0.4509952702076662,-0.00010145456997512364,0.2506340339132455,0.002653218078701766,0.9997826960633232,0.006348758593750561,-0.020865035581151326,-0.60965090501943,0.29321926939019755,-1.3956190650367486,-0.03761573044925272,-0.22019603831414475,-0.2229842639997633,-0.09554104027205643,-0.177604088996734,0.0956745784850377,-2.484749707537395,0.021210628235575353,2.2938694524507124,0.7670847484468688
0.4504405014318721,9.483691061269331e-05,0.24992115859906985,0.000467623753678769,0.9999721715892353,0.00134360636807474,-0.00698704447573018,0.4509952702076662,-0.00010145456997512364,0.2506340339132455,0.002653218078701766,0.9997826960633232,0.006348758593750561,-0.020865035581151326,-0.5995419574863537,0.31733532070865816,-1.3673053527323198,-0.040462415758397784,-0.22367293269329577,-0.2217962497864714,-0.0955457863880877,-0.17759911527608446,0.09566857555979176,-2.484753234379549,0.02121041883812274,2.293866013144135,0.7670837523463508
0.45044061062730245,9.400023611116466e-05,0.24992351281997757,0.0004667997668238046,0.9999721838761947,0.001342079634621538,-0.0069856343713351554,0.4509952702076662,-0.00010145456997512364,0.2506340339132455,0.002653218078701766,0.9997826960633232,0.006348758593750561,-0.020865035581151326,-0.6246812567625545,0.3234389026183821,-1.4422936305321257,-0.04287996642397796,-0.2211849103150724,-0.22334093186563592,-0.09554317503705771,-0.17760305520911032,0.09567637969616376,-2.484756069836642,0.02121362081409882,2.293866209957437,0.7670798119473894
0.45044154951015974,9.565984053648267e-05,0.2499265153761247,0.0004678482894966025,0.9999722008025183,0.0013446841365299476,-0.006982639769428605,0.4509952702076662,-0.00010145456997512364,0.2506340339132455,0.002653218078701766,0.9997826960633232,0.006348758593750561,-0.020865035581151326,-0.6383428225996319,0.2841297035027218,-1.3880072635105059,-0.04303572673968327,-0.22691214084220732,-0.23073499614153983,-0.09554111463539285,-0.1776068730563448,0.09567116890413144,-2.4847502550389864,0.021211447446425717,2.2938654978805095,0.7670825239169397
0.4504441861877052,9.284084487357717e-05,0.2499279538534271,0.00046823005030171113,0.9999722253250983,0.001341877641395979,-0.006979641599191288,0.4509952702076662,-0.00010145456997512364,0.2506340339132455,0.002653218078701766,0.9997826960633232,0.006348758593750561,-0.020865035581151326,-0.6307661887512908,0.3477337770165614,-1.392161337071048,-0.05804560719986277,-0.22613563068441084,-0.23222718695407468,-0.0955400830873432,-0.17760193684658876,0.0956714334334263,-2.484756295782339,0.021212800409923432,2.2938638542101675,0.7670858038822079
0.4504382585742683,9.283725514249997e-05,0.24992202713826414,0.00046788850525366054,0.9999721491255513,0.0013417326102373361,-0.006990600878604693,0.4509952702076662,-0.00010145456997512364,0.2506340339132455,0.002653218078701766,0.9997826960633232,0.006348758593750561,-0.020865035581151326,-0.6519963867379962,0.3298928160909064,-1.3776392256400072,-0.05270501162745264,-0.23520081736913478,-0.22775170683261506,-0.09554260286776212,-0.17760157898889223,0.0956688152474673,-2.484754222979416,0.0212096079779612,2.2938582642027834,0.7670793226026527
0.450440007155447,9.592337196762509e-05,0.24992328685835613,0.00046879568641757235,0.9999721559014245,0.0013458398509347668,-0.006988781079177234,0.4509952702076662,-0.00010145456997512364,0.2506340339132455,0.002653218078701766,0.9997826960633232,0.006348758593750561,-0.020865035581151326,-0.6363770193391168,0.32768907944259307,-1.492080188813648,-0.04628334955958837,-0.22092474219750063,-0.2221228534699627,-0.09554087364493478,-0.1776012530063266,0.09567708511467153,-2.484755699353483,0.02120899760248684,2.2938591981937537,0.7670857146247183
0.45044131893805095,9.499173581337267e-05,0.24992612599401826,0.000468315225245186,0.9999721833495311,0.001344153597204406,-0.006985209557775324,0.4509952702076662,-0.00010145456997512364,0.2506340339132455,0.002653218078701766,0.9997826960633232,0.006348758593750561,-0.020865035581151326,-0.594317566497656,0.32814468100696037,-1.4060172388232002,-0.04641756117732133,-0.22015937058526508,-0.22337528853502803,-0.09554262516499681,-0.17760687305590034,0.09567481232894316,-2.484747009128014,0.021209726335273845,2.293859141672773,0.7670826628429691
0.4504504935492076,9.595056161689072e-05,0.24989704056902903,0.0004071541324864611,0.9999732517298112,0.001056734050680123,-0.006884770172274216,0.4500495551592209,9.713747487260268e-05,0.2498226351517851,0.0041510670252988295,0.9999547655332011,-0.005832771279578866,0.005865223572614835,-0.6064125106544853,0.1483566278618543,-1.2875468842283448,0.04536924676069451,-0.19532282128845985,-0.12462346902041978,-0.0955407746308499,-0.1776019487630342,0.09567173824620173,-2.4847548308509473,0.02121390930880751,2.2938561511633813,0.7670819481767513
0.4503634335584056,9.360241022664506e-05,0.24959153119201571,0.0004232987531495991,0.9999757678658028,0.0005728091273801333,-0.006568339944167458,0.44989252957594017,9.712667937316965e-05,0.2497811750539742,0.0041510670252988295,0.9999547655332011,-0.005832771279578866,0.005865223572614835,-0.5537255315736261,-0.08622622345729093,-1.2818839333903105,0.17335190587974517,-0.1544060965738896,0.041609553316484756,-0.09556355396279095,-0.17765356728387446,0.09567530304673462,-2.485445213454221,0.021393228804071743,2.29507604595224,0.7680770788228752
0.4502160933228594,7.306249608454277e-05,0.24926446426923246,0.00042073301801408465,0.9999771452770362,0.0003419499175780026,-0.006371944690764129,0.44989252957594017,9.712667937316965e-05,0.2497811750539742,0.0041510670252988295,0.9999547655332011,-0.005832771279578866,0.005865223572614835,-0.31045996051091185,-0.30443884814944694,-0.9654705446290223,0.27596202809219184,-0.04989516337168952,0.13463680633420072,-0.09556703789954762,-0.1776766775603541,0.09567108121357465,-2.4864609656445817,0.021395343295401995,2.2965826408416334,0.7686462402757178
0.45037700709024503,7.85927016332155e-05,0.24940784329320434,0.00031933410273904676,0.9999799361949429,0.00015492200725645546,-0.005931941880965034,0.44989252957594017,9.712667937316965e-05,0.2497811750539742,0.0041510670252988295,0.9999547655332011,-0.005832771279578866,0.005865223572614835,-0.23303462428812838,-0.31186399719288405,-0.8514371020871775,0.28614893387197016,0.02506991552149818,0.1690230604281751,-0.09558505938333003,-0.17778257788632154,0.09567248394666807,-2.4871188885131326,0.021677420923984784,2.2978336203998944,0.7689198399325385
0.4504523122474858,4.096039974818009e-05,0.24954199035328165,0.0002890074374673967,0.9999813907822279,-5.0955927822822284e-05,-0.0056849511481887865,0.44989252957594017,9.712667937316965e-05,0.2497811750539742,0.0041510670252988295,0.9999547655332011,-0.005832771279578866,0.005865223572614835,-0.18475227648961204,-0.33289203559420566,-0.8003415914129075,0.26905480780818114,0.05395403791589915,0.191516991696257,-0.09566559266660969,-0.1780041277121956,0.09567423326352165,-2.4871450806611883,0.021780948184202,2.29814190780049,0.7690686502981239
0.45049030955274416,5.004835672290378e-05,0.24958036089358196,0.00023605423061908167,0.9999820491642629,-0.00016598572231949993,-0.0055681934578006576,0.44989252957594017,9.712667937316965e-05,0.2497811750539742,0.0041510670252988295,0.9999547655332011,-0.005832771279578866,0.005865223572614835,-0.06851569140058306,-0.3378909291284016,-0.8864720372988442,0.2742654378970631,0.08869486905223964,0.20834070297763269,-0.09573267128600027,-0.17821041534203097,0.09567231727952862,-2.4871511480966135,0.02200145712246015,2.2983996321695765,0.7692671950670321
0.45053097776306655,4.8901343408114226e-05,0.24960165581756238,0.00021000448215392016,0.9999826374356113,-0.00027295105245354103,-0.0054582895612746455,0.44989252957594017,9.712667937316965e-05,0.2497811750539742,0.0041510670252988295,0.9999547655332011,-0.005832771279578866,0.005865223572614835,-0.008532562711837095,-0.37813207131182636,-0.9804223765849808,0.2778755116851578,0.10843285870814746,0.2219693242860461,-0.09574780660426337,-0.17823045928730946,0.09567141855105823,-2.4871500271095046,0.022042251613952072,2.298505062063392,0.7693781321745078
0.45054750154366935,4.5436851286042204e-05,0.24961180384242446,0.0001885508071633741,0.9999828996581805,-0.00035271729495860686,-0.005406212339120159,0.44989252957594017,9.712667937316965e-05,0.2497811750539742,0.0041510670252988295,0.9999547655332011,-0.005832771279578866,0.005865223572614835,-0.08231857391850414,-0.2959283759726684,-0.8698476194417447,0.2622598003054908,0.0983861292831181,0.2306181129436218,-0.09577411029086322,-0.17826204794018435,0.09567207125626605,-2.4871649890686096,0.02215140141240718,2.2987396272028784,0.7695585258925599
0.45056071598061664,4.5273235764047836e-05,0.24962021313735172,0.00017739767259499007,0.9999830851568214,-0.00037351274092244704,-0.005370765309152887,0.44989252957594017,9.712667937316965e-05,0.2497811750539742,0.0041510670252988295,0.9999547655332011,-0.005832771279578866,0.005865223572614835,-0.06921857786168165,-0.3016977622421293,-0.8686636655587499,0.25787916178524006,0.10220682746023121,0.2344647548541848,-0.09578714671367722,-0.17826654577751974,0.09567142008749888,-2.487165540795685,0.022182357659170447,2.298791984919593,0.7695637016010431
0.45056439744870247,4.1020355249888355e-05,0.24961862864120987,0.0001688745896679015,0.9999831353142586,-0.0004100222916193326,-0.005359025236300232,0.44989252957594017,9.712667937316965e-05,0.2497811750539742,0.0041510670252988295,0.9999547655332011,-0.005832771279578866,0.005865223572614835,-0.009270955385894362,-0.314207544188493,-0.8498181469824623,0.2639648900489273,0.11059591998926341,0.24156866112722242,-0.09578795568895705,-0.17826453915602034,0.09567433149195893,-2.4871695006162193,0.02220173168444313,2.298833614400241,0.769570019756734
0.4505595387550169,3.9878317179857554e-05,0.24961403640092764,0.0001670071526148425,0.9999831628150768,-0.00041607320758735175,-0.005353482918008447,0.44989252957594017,9.712667937316965e-05,0.2497811750539742,0.0041510670252988295,0.9999547655332011,-0.005832771279578866,0.005865223572614835,-0.03559571372588197,-0.2991133131837148,-0.8847311973632823,0.2533177651431527,0.10954672621617167,0.23167531954027398,-0.09579897740841659,-0.17827267254252951,0.09567139315099546,-2.4871728108929823,0.022223193490767238,2.298860861256237,0.7696090499380287
0.45056952439243064,4.006070302436841e-05,0.24962539141275328,0.0001647021919473678,0.9999832896848371,-0.0004217048684678906,-0.005329361177593981,0.44989252957594017,9.712667937316965e-05,0.2497811750539742,0.0041510670252988295,0.9999547655332011,-0.005832771279578866,0.005865223572614835,-0.07409416409869038,-0.281667107229561,-0.887588023198282,0.25414435299685684,0.10272975702408207,0.23390546691888303,-0.09579751288964417,-0.17828228328779336,0.09566928622803203,-2.4872017364949546,0.02223065170540873,2.298895786290779,0.76962067026516
0.4505668002457369,3.947511236128274e-05,0.2496207448836659,0.00016399738523165705,0.9999832881477537,-0.0004263227201298006,-0.005329303919079605,0.44989252957594017,9.712667937316965e-05,0.2497811750539742,0.0041510670252988295,0.9999547655332011,-0.005832771279578866,0.005865223572614835,-0.021243396764574075,-0.3158981726828397,-0.8690686878669062,0.26722050583714224,0.11104509387444951,0.23926084192176783,-0.09579975899152322,-0.17829540795831675,0.09567423200867663,-2.4872128873852755,0.02223753473135289,2.2989163365285643,0.7696256293505914
0.4505704959664083,3.806149519447342e-05,0.24962364146932678,0.00016292283206598048,0.9999833364620597,-0.00043408643142089855,-0.005319635753983168,0.44989252957594017,9.712667937316965e-05,0.2497811750539742,0.0041510670252988295,0.9999547655332011,-0.005832771279578866,0.005865223572614835,-0.04167985180394473,-0.2987568007567612,-0.9127089240729619,0.26476128300263296,0.11131490795059966,0.24553283657697506,-0.09580392967569734,-0.1782954362489525,0.09567162695947472,-2.4872134666851333,0.022244630279040386,2.298936521185757,0.769629839910477
0.45056916980282935,3.4390668448095264e-05,0.24962349701950784,0.00016106840393186763,0.999983343632148,-0.0004434697538972577,-0.005317570028071784,0.44989252957594017,9.712667937316965e-05,0.2497811750539742,0.0041510670252988295,0.9999547655332011,-0.005832771279578866,0.005865223572614835,-0.05706643871236078,-0.30434631387661426,-0.8689613402588322,0.26215976246089884,0.10521589119538219,0.243663044545892,-0.09580921949927446,-0.17829297960336327,0.0956723321928824,-2.487213559771848,0.022245428271092382,2.2989450675204908,0.7696359526939476
0.450561046491201,3.970629520642478e-05,0.24961633183912926,0.0001593041289150691,0.9999833098719956,-0.00044302876128696423,-0.005324004728492071,0.44989252957594017,9.712667937316965e-05,0.2497811750539742,0.0041510670252988295,0.9999547655332011,-0.005832771279578866,0.005865223572614835,-0.06902501431413405,-0.3158482538726248,-0.8556332353520557,0.261052351138274,0.10229056541019205,0.2440921227043361,-0.09581281926288407,-0.1783046648133272,0.09566959841274678,-2.487219419805488,0.02225245140258553,2.298961061975816,0.7696459189316189
0.4505631105564737,3.530932791989535e-05,0.24961723165647612,0.00015671039706702489,0.9999833559194787,-0.00045353286907205004,-0.005314539956506495,0.44989252957594017,9.712667937316965e-05,0.2497811750539742,0.0041510670252988295,0.9999547655332011,-0.005832771279578866,0.005865223572614835,-0.06666548013544929,-0.29536452706432487,-0.9088773066387982,0.2685130194706761,0.10611033890962601,0.25136228755342277,-0.09581528324846943,-0.1783049010417996,0.09567416824323252,-2.487247019521619,0.02225364691806009,2.2989654346221338,0.7696467877599995
0.4505643906189283,3.4116924176668546e-05,0.24961661240715077,0.00015545912444314022,0.9999833673473221,-0.0004564464139960846,-0.005312176481799763,0.44989252957594017,9.712667937316965e-05,0.2497811750539742,0.0041510670252988295,0.9999547655332011,-0.005832771279578866,0.005865223572614835,-0.02320400452171904,-0.28084350247654316,-0.8648161136828308,0.26852865481508054,0.10944274611560675,0.2548092083847584,-0.09581599656887292,-0.17831667319484312,0.09567425284831892,-2.487249666804201,0.02226511384441167,2.2989857356256347,0.7696551200350549
0.4505664078803342,3.526666022139217e-05,0.24962261310995856,0.0001524170777105855,0.9999834224632849,-0.0004610794290722386,-0.005301478522176744,0.44989252957594017,9.712667937316965e-05,0.2497811750539742,0.0041510670252988295,0.9999547655332011,-0.005832771279578866,0.005865223572614835,-0.07122963905436122,-0.33738554375607904,-0.9012695091550278,0.26451720219190106,0.10878985494306082,0.24584021051214708,-0.09581766187138101,-0.178308956888539,0.09566887548462041,-2.4872549832988042,0.022267994967874388,2.2989881594710124,0.7696574090762912
0.4505663009845184,3.2840472857320686e-05,0.24962096171824805,0.00015190030463611097,0.999983423561308,-0.00046400060707762835,-0.005301031356032917,0.44989252957594017,9.712667937316965e-05,0.2497811750539742,0.0041510670252988295,0.9999547655332011,-0.005832771279578866,0.005865223572614835,-0.07266883330149179,-0.3264991744940582,-0.8465848721978813,0.2650882453752885,0.1034936762594598,0.2372588446859084,-0.09581539238149853,-0.17832105245417898,0.09566707677777085,-2.487257970925104,0.0222781133608832,2.299008279063734,0.769666438384653
0.45056713219324657,3.234055763022199e-05,0.2496206899301187,0.0001505081788479003,0.9999834366398654,-0.0004665648291514364,-0.00529837820083017,0.44989252957594017,9.712667937316965e-05,0.2497811750539742,0.0041510670252988295,0.9999547655332011,-0.005832771279578866,0.005865223572614835,-0.026994273888784115,-0.31016200355355844,-0.866443033062861,0.26583618822089855,0.11046610984702582,0.2422144304726865,-0.09582241692257638,-0.17832383955263356,0.09567196343009156,-2.487252998787899,0.022279495331626997,2.2990082851780773,0.7696613555771161
0.45056620275968684,3.0133591437093993e-05,0.24961796473819303,0.00014855177800878405,0.9999834319020822,-0.0004765716885871944,-0.005298436955334494,0.44989252957594017,9.712667937316965e-05,0.2497811750539742,0.0041510670252988295,0.9999547655332011,-0.005832771279578866,0.005865223572614835,-0.03796589439230796,-0.31773889412302586,-0.9014132871967064,0.2670685923483405,0.11154137340936021,0.24465728151422808,-0.0958226808493569,-0.17832370978101517,0.09567124318156087,-2.487262560271701,0.022281350478501404,2.2990145794286407,0.769672109745026
0.4505870027612617,2.849512025932489e-05,0.24965026747789631,0.0001564810037469991,0.9999838728874139,-0.000633268425903268,-0.005197610036222806,0.44921744604121155,0.0001620738861017562,0.24994051921373317,0.008151257426747946,0.9997568546104447,-0.011190485887079153,0.01702198763599161,-0.1472214432733329,-0.28888825082321573,-0.8185912353607149,0.24872244827563833,0.08400164227289747,0.23353048375164728,-0.09582631650571209,-0.17831886868539454,0.09566633107093364,-2.4872652899037253,0.022286591790876092,2.299023302531116,0.7696713395023703
0.45053202592385355,1.7693228065908696e-05,0.24972922081168888,0.00020460786818063764,0.9999856979709126,-0.0011041742006523134,-0.004746523448521727,0.44921744604121155,0.0001620738861017562,0.24994051921373317,0.008151257426747946,0.9997568546104447,-0.011190485887079153,0.01702198763599161,-0.07411073452389638,-0.3467055068477648,-0.8538298669137055,0.29595062213458473,0.08873433618796844,0.269938342661167,-0.09583341431061072,-0.17855849151514414,0.09567230557730538,-2.4874732032524807,0.022273676629783416,2.2995257500001642,0.7703602352477763
0.4504195091975389,-1.360172465017459e-05,0.24976713098436432,0.00026485210793645463,0.9999881811010981,-0.0015576238654041773,-0.004040793217709953,0.44921744604121155,0.0001620738861017562,0.24994051921373317,0.008151257426747946,0.9997568546104447,-0.011190485887079153,0.01702198763599161,0.002197139650687992,-0.40797295908634584,-0.9633001064373753,0.3363825822446667,0.08783404135661377,0.3037081951277765,-0.09583241966474684,-0.1791995590603699,0.09567452029805489,-2.48816168657559,0.02227318215936277,2.3002186923281775,0.7709702889976228
0.45029783739083995,-3.664440437195232e-05,0.24968899490685942,0.0003270628905565233,0.9999904499647747,-0.0018496979224159257,-0.00327998664244024,0.44921744604121155,0.0001620738861017562,0.24994051921373317,0.008151257426747946,0.9997568546104447,-0.011190485887079153,0.01702198763599161,0.09772121479574984,-0.49362385464348024,-1.1044831687859114,0.3693825748521437,0.07846151947890612,0.3270327396646663,-0.09582732925207807,-0.18063592706704254,0.09566905092062794,-2.4901871960617603,0.022281792388455447,2.302765490539859,0.7720897203270517
0.45026958171254156,-6.11390411912626e-05,0.24968566897576738,0.0004046618545477692,0.9999928420537701,-0.0022462975678091256,-0.002071935107664385,0.4488851372636454,0.0003134841032840924,0.2500904249073024,0.011927405739690646,0.9994867730465934,-0.015020414918436033,0.02556366295992937,-0.06727514556310504,-0.506030260114847,-1.0755850527057365,0.37194642832670294,0.03681973146539239,0.33189348743444314,-0.09583090373137756,-0.1813342631205987,0.09566936660463582,-2.491449783569759,0.02228726887961649,2.3045681217444627,0.772382792747042
0.45020978684289076,-7.866400915539014e-05,0.24986751381968667,0.0005277571862045982,0.9999927555109175,-0.003007612990382154,-0.000592723146638839,0.4488851372636454,0.0003134841032840924,0.2500904249073024,0.011927405739690646,0.9994867730465934,-0.015020414918436033,0.02556366295992937,0.03563743305585669,-0.5577811510399141,-1.0988428007251363,0.40082375232152584,0.036228993027572584,0.3440850489564522,-0.09578617299886097,-0.18312273455691258,0.09566401079849242,-2.4939442745142646,0.022260775451934986,2.308759414867177,0.7738450035748567
0.450006737972771,-0.00010053157838721238,0.24993161357690816,0.0006520299241031648,0.9999906534932685,-0.003551074216157363,0.0009188560451549927,0.4488851372636454,0.0003134841032840924,0.2500904249073024,0.011927405739690646,0.9994867730465934,-0.015020414918436033,0.02556366295992937,0.20502362606841973,-0.726458668439454,-1.1235921311612644,0.45111756133825553,0.04994903161397908,0.3614439228183632,-0.0957513733873639,-0.1845657490762734,0.09567116989549107,-2.4956923970509775,0.022270577323303464,2.3109803947627983,0.7748484378096763
0.4499032522409879,-0.00012644328567686092,0.24993276692860314,0.0007503448744619407,0.9999867462583464,-0.003960996190010335,0.0023326864365717666,0.4488851372636454,0.0003134841032840924,0.2500904249073024,0.011927405739690646,0.9994867730465934,-0.015020414918436033,0.02556366295992937,0.25018437647503633,-0.7904962411207063,-1.152454938152239,0.47562147917297465,0.07164011056860131,0.3715008745062703,-0.095675088360972,-0.18726599196891608,0.09567071824406542,-2.4994142552312018,0.022283025369905948,2.316158688251357,0.7762353879375292
0.4498885179274495,-0.00014469860364078904,0.2499204976336827,0.0008346980448521902,0.9999806816728923,-0.0043833052540345595,0.0037299872509136208,0.44891351844294586,0.0005526765165722921,0.249943847412061,0.015284418258380901,0.9993397007250655,-0.016665207574251124,0.028355001668008507,0.18373648683699942,-0.8160948038810925,-1.18401199360457,0.4723823075571318,0.0609865824907423,0.3738109969603685,-0.09564955569060514,-0.18829356116559492,0.09567427783280551,-2.5009805965190193,0.022280915432623123,2.3186425257881815,0.7766599894506013
0.4499443193945958,-5.364308936558994e-05,0.24974169787976616,0.0009149481364929918,0.9999715467326039,-0.004998182364708666,0.005125753607240856,0.44891351844294586,0.0005526765165722921,0.249943847412061,0.015284418258380901,0.9993397007250655,-0.016665207574251124,0.028355001668008507,0.3229038764895001,-0.872001286930212,-1.13285515041429,0.49628542377406865,0.06976496049931587,0.37763677761032877,-0.0954904536622589,-0.18983742540189497,0.09569145229615145,-2.5039175672180884,0.02225888725596358,2.3237836460170813,0.7782730459989837
0.45004253237618724,-7.134339325254418e-06,0.24956416385128147,0.0009706640706239048,0.99996134994249,-0.005521867946550105,0.006407180518438095,0.44891351844294586,0.0005526765165722921,0.249943847412061,0.015284418258380901,0.9993397007250655,-0.016665207574251124,0.028355001668008507,0.42441333255947883,-1.1083258602639237,-1.2270947560289167,0.5423471950073501,0.10809700429574189,0.3757683450370807,-0.0953290441169519,-0.19029658260615168,0.09571967321723371,-2.5053532498681377,0.022237734091309615,2.326587869058711,0.7792575249981609
0.4500236093061722,-6.176536823383818e-06,0.24950901258572208,0.0010412384679330362,0.999950196597544,-0.006109913528691599,0.007508370401619493,0.44891351844294586,0.0005526765165722921,0.249943847412061,0.015284418258380901,0.9993397007250655,-0.016665207574251124,0.028355001668008507,0.259754063794651,-1.1215740641095164,-0.9651813271520697,0.5363905322713928,0.08897253960784245,0.37512149631152997,-0.095205150112468,-0.19123896625650386,0.09576304517826736,-2.507751214163069,0.022222859561644173,2.331464679052687,0.7808251542997108
0.44991879351331265,1.443447046959448e-06,0.24959033836342615,0.001128649747592709,0.9999398761595074,-0.006535833640465771,0.00845219444751458,0.4488302251869804,0.000652155427744197,0.25019032565752286,0.018363315568230766,0.999358502777893,-0.016015888770884872,0.026154331501294228,0.08599698031619708,-1.1090046318451918,-0.7504852070795918,0.5356753621442425,0.08497140884313337,0.38946152944525014,-0.09517537518373195,-0.19206456568765112,0.09579020761294223,-2.5090195747486876,0.022204289595685052,2.3332800994474283,0.7816003193890577
0.44980615984716754,5.3334765592675866e-05,0.24983314331847828,0.0013241666831803737,0.9999308481224835,-0.00698176017835061,0.009109722714477476,0.4488302251869804,0.000652155427744197,0.25019032565752286,0.018363315568230766,0.999358502777893,-0.016015888770884872,0.026154331501294228,0.23463363965401945,-1.2649220885497243,-0.8895505804649646,0.5620293551672729,0.16195994844086645,0.37140607777607215,-0.0950907352262378,-0.19390734452057648,0.09590422977586936,-2.5109354945794506,0.021887484049406544,2.335532538916439,0.7831969738881281
0.4496771100194652,0.00014475715307540776,0.25005843080477114,0.0014614828474516363,0.9999243134030865,-0.00726723931624725,0.009571061271559092,0.4488302251869804,0.000652155427744197,0.25019032565752286,0.018363315568230766,0.999358502777893,-0.016015888770884872,0.026154331501294228,0.3441884114682227,-1.1337721364560256,-0.7336791080671867,0.6006708530485788,0.180099816714111,0.3851011092716352,-0.09502925104724087,-0.1947674472280001,0.0960620603161917,-2.5115207736741376,0.021741241020811188,2.336049763195887,0.7838158723091941
0.4495735814179488,0.0001812236956095625,0.2502271458290049,0.0015688700015643255,0.9999162547734552,-0.007530066258490728,0.010173820228975653,0.4488302251869804,0.000652155427744197,0.25019032565752286,0.018363315568230766,0.999358502777893,-0.016015888770884872,0.026154331501294228,0.2550520144906906,-1.1532925604788653,-0.9852662565118495,0.6411631845601132,0.17976853155666442,0.3967595416852875,-0.0949896733866133,-0.1964027809677815,0.09632528457423972,-2.512823573586007,0.02158681521766775,2.337056402133194,0.7852179398536101
0.44944919423735435,0.00015981641934305357,0.25023199273758373,0.0016616523336267048,0.9999106421820434,-0.007611479229475726,0.010639472251079139,0.4492454307789165,0.0005778128707456255,0.249716444654808,0.0209131575408537,0.9994456234324907,-0.014096827208121011,0.02162293702145247,0.30193412538407716,-1.2016822845008122,-0.9767384378826598,0.647455683648483,0.19465609754750554,0.3956943719196258,-0.09499985369433372,-0.19711860167917986,0.09639190565663301,-2.5135595747824637,0.021543951817425,2.3377903715282606,0.7854888217215824
0.4494276141104026,0.00012110732149091046,0.2500126396835626,0.0018384266220887522,0.9999068471339213,-0.007570741705728579,0.010990338415315791,0.4492454307789165,0.0005778128707456255,0.249716444654808,0.0209131575408537,0.9994456234324907,-0.014096827208121011,0.02162293702145247,0.28553866738911365,-1.154266732597635,-0.8695636120286018,0.6537950757330698,0.17231421213121806,0.3899300955480124,-0.09499987341748023,-0.19761381334741968,0.09642933967391541,-2.5148747453770253,0.021129042532836994,2.3396920436805804,0.7857585099806824
0.4494837255504526,0.0001033634069239338,0.24989810883338764,0.0019659119230792084,0.9999019842625889,-0.007511104155505593,0.011442325067157817,0.4492454307789165,0.0005778128707456255,0.249716444654808,0.0209131575408537,0.9994456234324907,-0.014096827208121011,0.02162293702145247,0.10087768675592274,-1.1411458483046306,-0.6951051878118842,0.6882041760812785,0.13372547964068718,0.3913776520451677,-0.09500928609808348,-0.19757630464991685,0.09645266286457646,-2.5153674509292734,0.020851359731536973,2.340968834224033,0.7859459715672745
0.44950745425123356,8.23959206692688e-05,0.249815418661418,0.0020833296707241378,0.9998997803842864,-0.007435003586542179,0.011661735831814913,0.4492454307789165,0.0005778128707456255,0.249716444654808,0.0209131575408537,0.9994456234324907,-0.014096827208121011,0.02162293702145247,0.15763033867007337,-1.1495460322238575,-0.6478065578780134,0.7026528849343262,0.15400992148320936,0.3834313126201333,-0.09500641342808618,-0.1976207444999789,0.09648354127719787,-2.515757370967595,0.020632205601961544,2.341839103561233,0.7860238814733838
0.44954546376082827,8.462834873720357e-05,0.24980256420840724,0.0022249316607475212,0.9998987731905764,-0.0072820051167176185,0.011817440476224909,0.44958557011976336,0.0005931423140205537,0.24968330845869394,0.022927603300603693,0.999533777066366,-0.01244393689290046,0.015712680899805136,0.14679036502063889,-1.1449004110427108,-0.6754415406649571,0.6959331740837729,0.17097821517517062,0.37303756288407347,-0.09500322146078931,-0.19758680613305155,0.09651646899735367,-2.516005041713811,0.02045645048705997,2.3424433113165293,0.7860957928220004
0.4495466770037159,8.179214378615413e-05,0.2498015184414827,0.0024894037461259213,0.999900175955331,-0.006996653665866204,0.011818388106114193,0.44958557011976336,0.0005931423140205537,0.24968330845869394,0.022927603300603693,0.999533777066366,-0.01244393689290046,0.015712680899805136,0.0244597979345506,-1.0862835293920592,-0.6411084361307782,0.6848204863669284,0.1456994978911876,0.36293705290985184,-0.09500705859672584,-0.19761460502199535,0.0966071251449306,-2.516213301531663,0.019916566540448273,2.3430076565300544,0.78613593626359
0.4495457248623278,9.539133279833752e-05,0.2497975740542414,0.0027092662917494255,0.9999013385347837,-0.006755194892064047,0.011812150393758672,0.44958557011976336,0.0005931423140205537,0.24968330845869394,0.022927603300603693,0.999533777066366,-0.01244393689290046,0.015712680899805136,-0.028710621719134837,-1.1303955358493079,-0.7001810896219878,0.6993822773163382,0.12616325178297672,0.3670330262282321,-0.09499694560716218,-0.1975985265256432,0.09669450155805924,-2.516204950638095,0.019398156407479897,2.3430127652225767,0.7861386368493811
0.4495463965106619,0.00010232750600885696,0.249799446275343,0.0028428451064924833,0.9999019146244543,-0.006608438808005923,0.011815007002111697,0.44958557011976336,0.0005931423140205537,0.24968330845869394,0.022927603300603693,0.999533777066366,-0.01244393689290046,0.015712680899805136,-0.015399899303970444,-1.1064922909993018,-0.6470992845206364,0.7155195679101358,0.1247435854667048,0.37228914112831263,-0.0949940979789195,-0.1975995515406754,0.0968963825106471,-2.5162106914419726,0.018676666102516774,2.3430173062823947,0.7862437209947014
0.44954624441584196,0.00010352617795679941,0.24979644949767515,0.002965066467130623,0.9999025112104596,-0.006470610696094447,0.011810764312650705,0.44993490402556274,0.0005870442554459287,0.24967087781734867,0.024193924311042565,0.9995893190701965,-0.011624516940335724,0.009793072585097344,-0.004081429578463074,-1.1775509527941919,-0.6677587337376641,0.7187434623113667,0.12545017309280398,0.36505670669930834,-0.09499290288956257,-0.19760239785131212,0.09696606084522219,-2.516206519239867,0.018407537510853077,2.3430243804262467,0.7862650573637611
0.44953923554246916,9.67551795384243e-05,0.2497627705869194,0.00318702114470587,0.9999038844051779,-0.006222140651500492,0.011770145671286335,0.44993490402556274,0.0005870442554459287,0.24967087781734867,0.024193924311042565,0.9995893190701965,-0.011624516940335724,0.009793072585097344,-0.08354724425408683,-1.1681160299340008,-0.6620642468829895,0.7096999304132929,0.08877967836787451,0.35875898224197594,-0.0950000045562938,-0.1975833523608662,0.09706326454641999,-2.516203792367228,0.017951460168736,2.3430200834174024,0.7862861910725882
0.4495391052483971,8.196914325435296e-05,0.2497548104568148,0.0034238733583588344,0.9999048050976129,-0.0059627523873795945,0.011759674692112488,0.44993490402556274,0.0005870442554459287,0.24967087781734867,0.024193924311042565,0.9995893190701965,-0.011624516940335724,0.009793072585097344,-0.1872792882274533,-1.177096156349623,-0.6830438259403989,0.7119306460603413,0.06529106038181132,0.36752706413547026,-0.09499431184557221,-0.19753006000498585,0.09712926030419973,-2.5162126571635377,0.017540399790797294,2.3430185404199695,0.7863010402873162
0.44953866148524324,7.960309634615736e-05,0.2497516167514126,0.0036128253292503033,0.9999054439327716,-0.005750678679394252,0.011754442751564651,0.44993490402556274,0.0005870442554459287,0.24967087781734867,0.024193924311042565,0.9995893190701965,-0.011624516940335724,0.009793072585097344,-0.15840511039076252,-1.1523899796342776,-0.6261739485944289,0.7338031802259462,0.06468561790435565,0.37453341062803386,-0.0949968170222863,-0.19749436902265524,0.09726186461295451,-2.5162033302084854,0.016733575503407094,2.343020585232187,0.7863294686920748
0.44953518600999354,5.6361400155211475e-05,0.24974350129351813,0.0038284350721726995,0.9999059993385114,-0.0055354679716529106,0.011742262163031276,0.4502907425946243,0.0006170358061116913,0.24970488457641696,0.024611965524076247,0.9996181071094679,-0.011738786115316379,0.003908761587187225,-0.1687802623144997,-1.11429608472606,-0.6780740074107936,0.7386873180910905,0.06036522069888011,0.3820769962296241,-0.09499499759263305,-0.1974964815524751,0.09732610333668387,-2.516201179128454,0.016386482835677816,2.343018887281419,0.7863310374099386
0.44953781330841425,5.846906741258908e-05,0.24970325551640868,0.003963628249443467,0.9999068503812466,-0.005384724288403528,0.011694935597856516,0.4502907425946243,0.0006170358061116913,0.24970488457641696,0.024611965524076247,0.9996181071094679,-0.011738786115316379,0.003908761587187225,-0.24288590100673763,-1.2350259457518546,-0.6721197991537131,0.7669907304434541,0.02994365812903022,0.3828937570212085,-0.09499891469910592,-0.19744632885574362,0.0974280995303831,-2.516184561678606,0.01564343003053329,2.343013585001259,0.786387690162972
0.44953767728837235,7.104242175461984e-05,0.249668336651726,0.004126125605916898,0.9999076641455831,-0.005194288022479097,0.011655222631568214,0.4502907425946243,0.0006170358061116913,0.24970488457641696,0.024611965524076247,0.9996181071094679,-0.011738786115316379,0.003908761587187225,-0.27266031287981357,-1.244078961599406,-0.7122619040633015,0.7605550673425326,0.022653237590559684,0.3786656949889897,-0.0949932990877041,-0.19735064329885862,0.09748442520206398,-2.516171541028768,0.015382446955521746,2.343009930530991,0.7864104284305159
0.4495446554967004,7.684661722798032e-05,0.2496598024350977,0.004276984440226642,0.99990805769561,-0.00501702786476645,0.011644722918689312,0.4502907425946243,0.0006170358061116913,0.24970488457641696,0.024611965524076247,0.9996181071094679,-0.011738786115316379,0.003908761587187225,-0.3461036341654119,-1.1724686518004221,-0.6450467363114561,0.7603063648630327,0.002447232831223524,0.3876124826512689,-0.09498859629601854,-0.19724232843507966,0.09764111520515928,-2.516132260693168,0.014838042760814605,2.343009640172897,0.7864413579479492
0.4495446182228226,6.561250487513441e-05,0.24965791181964148,0.004405080762746431,0.9999081575749453,-0.004902003594679634,0.011637380536883029,0.45063873968945806,0.0006403064325746822,0.24982750155379901,0.0244324791985344,0.9996189609358733,-0.012514955990186783,-0.0018839194609478406,-0.31983127219788776,-1.19964245508956,-0.7012149146717478,0.7722586703856793,0.008223135291354555,0.38932068808972664,-0.094996812047432,-0.19722118931113283,0.09769897250826916,-2.516115560950361,0.014551745956216966,2.3430095852909254,0.7864524903841933
0.4496074248805214,7.016866709775789e-05,0.24968418424480165,0.004472396887923811,0.9999079613931715,-0.004890078000921141,0.011633577815374148,0.45063873968945806,0.0006403064325746822,0.24982750155379901,0.0244324791985344,0.9996189609358733,-0.012514955990186783,-0.0018839194609478406,-0.4371841959503567,-1.207934805804909,-0.680463823980459,0.7856064014810158,-0.029053112887669905,0.40257969413771477,-0.09499330779417078,-0.19717295028402493,0.0977719961737783,-2.5160541634925986,0.014136826411011551,2.342984732641724,0.7865512715314789
